; G-Code generated by Simplify3D(R) Version 4.1.1
; Mar 7, 2019 at 9:22:37 PM
; Settings Summary
;   processName,elevator arm
;   applyToModels,Il-2 elevator arm
;   profileName,Default (modified)
;   profileVersion,2015-07-24 21:36:39
;   baseProfile,
;   printMaterial,
;   printQuality,
;   printExtruders,
;   extruderName,Primary Extruder
;   extruderToolheadNumber,0
;   extruderDiameter,0.4
;   extruderAutoWidth,0
;   extruderWidth,0.42
;   extrusionMultiplier,1.02
;   extruderUseRetract,1
;   extruderRetractionDistance,0.8
;   extruderExtraRestartDistance,0.12
;   extruderRetractionZLift,0
;   extruderRetractionSpeed,1800
;   extruderUseCoasting,1
;   extruderCoastingDistance,0.2
;   extruderUseWipe,1
;   extruderWipeDistance,2
;   primaryExtruder,0
;   layerHeight,0.25
;   topSolidLayers,2
;   bottomSolidLayers,2
;   perimeterOutlines,1
;   printPerimetersInsideOut,1
;   startPointOption,3
;   startPointOriginX,200
;   startPointOriginY,100
;   sequentialIslands,0
;   spiralVaseMode,0
;   firstLayerHeightPercentage,90
;   firstLayerWidthPercentage,110
;   firstLayerUnderspeed,0.5
;   useRaft,0
;   raftExtruder,0
;   raftTopLayers,3
;   raftBaseLayers,2
;   raftOffset,3
;   raftSeparationDistance,0.14
;   raftTopInfill,100
;   aboveRaftSpeedMultiplier,0.3
;   useSkirt,1
;   skirtExtruder,0
;   skirtLayers,1
;   skirtOutlines,1
;   skirtOffset,1.4
;   usePrimePillar,0
;   primePillarExtruder,999
;   primePillarWidth,12
;   primePillarLocation,7
;   primePillarSpeedMultiplier,1
;   useOozeShield,0
;   oozeShieldExtruder,999
;   oozeShieldOffset,2
;   oozeShieldOutlines,1
;   oozeShieldSidewallShape,1
;   oozeShieldSidewallAngle,30
;   oozeShieldSpeedMultiplier,1
;   infillExtruder,0
;   internalInfillPattern,Rectilinear
;   externalInfillPattern,Concentric
;   infillPercentage,5
;   outlineOverlapPercentage,15
;   infillExtrusionWidthPercentage,100
;   minInfillLength,5
;   infillLayerInterval,1
;   internalInfillAngles,45,-45
;   overlapInternalInfillAngles,0
;   externalInfillAngles,45,-45
;   generateSupport,0
;   supportExtruder,0
;   supportInfillPercentage,30
;   supportExtraInflation,0
;   supportBaseLayers,0
;   denseSupportExtruder,0
;   denseSupportLayers,0
;   denseSupportInfillPercentage,70
;   supportLayerInterval,1
;   supportHorizontalPartOffset,0.3
;   supportUpperSeparationLayers,1
;   supportLowerSeparationLayers,1
;   supportType,0
;   supportGridSpacing,4
;   maxOverhangAngle,45
;   supportAngles,0
;   temperatureName,Primary Extruder,Heated Bed
;   temperatureNumber,0,1
;   temperatureSetpointCount,1,1
;   temperatureSetpointLayers,1,1
;   temperatureSetpointTemperatures,230,56
;   temperatureStabilizeAtStartup,1,1
;   temperatureHeatedBed,0,1
;   fanLayers,1
;   fanSpeeds,0
;   blipFanToFullPower,1
;   adjustSpeedForCooling,1
;   minSpeedLayerTime,15
;   minCoolingSpeedSlowdown,20
;   increaseFanForCooling,0
;   minFanLayerTime,45
;   maxCoolingFanSpeed,100
;   increaseFanForBridging,0
;   bridgingFanSpeed,100
;   use5D,1
;   relativeEdistances,0
;   allowEaxisZeroing,1
;   independentExtruderAxes,0
;   includeM10123,0
;   stickySupport,1
;   applyToolheadOffsets,0
;   gcodeXoffset,0
;   gcodeYoffset,0
;   gcodeZoffset,0
;   overrideMachineDefinition,0
;   machineTypeOverride,0
;   strokeXoverride,195
;   strokeYoverride,195
;   strokeZoverride,150
;   originOffsetXoverride,0
;   originOffsetYoverride,0
;   originOffsetZoverride,0
;   homeXdirOverride,-1
;   homeYdirOverride,-1
;   homeZdirOverride,-1
;   flipXoverride,1
;   flipYoverride,-1
;   flipZoverride,1
;   toolheadOffsets,0,0|0,0|0,0|0,0|0,0|0,0
;   overrideFirmwareConfiguration,0
;   firmwareTypeOverride,RepRap (Marlin/Repetier/Sprinter)
;   GPXconfigOverride,r2
;   baudRateOverride,115200
;   overridePrinterModels,0
;   printerModelsOverride
;   startingGcode,G28,
;   layerChangeGcode,
;   retractionGcode,
;   toolChangeGcode,
;   endingGcode,M104 S0 ; turn off extruder,M140 S0 ; turn off bed,G28 X0 ; home X axis,M84 ; disable motors,M107 ; turn off fan
;   exportFileFormat,gcode
;   celebration,0
;   celebrationSong,Random Song
;   postProcessing,
;   defaultSpeed,3600
;   outlineUnderspeed,0.7
;   solidInfillUnderspeed,0.8
;   supportUnderspeed,0.8
;   rapidXYspeed,7800
;   rapidZspeed,1002
;   minBridgingArea,5
;   bridgingExtraInflation,0
;   bridgingExtrusionMultiplier,1
;   bridgingSpeedMultiplier,0.3
;   useFixedBridgingAngle,0
;   fixedBridgingAngle,0
;   applyBridgingToPerimeters,0
;   filamentDiameters,1.75|1.75|1.75|1.75|1.75|1.75
;   filamentPricesPerKg,1000|1000|1000|1000|1000|1000
;   filamentDensities,1.25|1.25|1.25|1.25|1.25|1.25
;   useMinPrintHeight,0
;   minPrintHeight,0
;   useMaxPrintHeight,0
;   maxPrintHeight,1
;   useDiaphragm,0
;   diaphragmLayerInterval,20
;   robustSlicing,1
;   mergeAllIntoSolid,0
;   onlyRetractWhenCrossingOutline,0
;   retractBetweenLayers,0
;   useRetractionMinTravel,0
;   retractionMinTravel,3
;   retractWhileWiping,0
;   onlyWipeOutlines,1
;   avoidCrossingOutline,0
;   maxMovementDetourFactor,3
;   toolChangeRetractionDistance,0
;   toolChangeExtraRestartDistance,0
;   toolChangeRetractionSpeed,360
;   externalThinWallType,0
;   internalThinWallType,2
;   thinWallAllowedOverlapPercentage,10
;   singleExtrusionMinLength,1
;   singleExtrusionMinPrintingWidthPercentage,50
;   singleExtrusionMaxPrintingWidthPercentage,200
;   singleExtrusionEndpointExtension,0.2
;   horizontalSizeCompensation,0
G90
M82
M106 S0
M140 S56
M190 S56
M104 S230 T0
M109 S230 T0
G28
; process elevator arm
; layer 1, Z = 0.225
T0
G92 E0.0000
G1 E-0.8000 F1800
; feature skirt
; tool H0.225 W0.462
G1 Z0.225 F1002
G1 X93.394 Y99.346 F7800
G1 E0.1200 F1800
G92 E0.0000
G1 X93.120 Y99.972 E0.0301 F1800
G1 X90.905 Y102.014 E0.1629
G1 X90.904 Y156.588 E2.5686
G1 X90.656 Y157.187 E2.5972
G1 X88.396 Y159.446 E2.7381
G1 X87.797 Y159.694 E2.7667
G1 X83.171 Y159.694 E2.9706
G1 X82.571 Y159.446 E2.9992
G1 X80.312 Y157.188 E3.1400
G1 X80.064 Y156.588 E3.1686
G1 X80.064 Y102.014 E5.5743
G1 X77.808 Y99.931 E5.7097
G1 X59.603 Y99.931 E6.5122
G1 X59.469 Y99.795 E6.5206
G1 X59.334 Y99.931 E6.5291
G1 X54.057 Y99.931 E6.7617
G1 X53.105 Y98.992 E6.8206
G1 X53.080 Y97.215 E6.8990
G1 X53.080 Y97.179 E6.9005
G1 X53.116 Y95.990 E6.9530
G1 X54.065 Y95.069 E7.0113
G1 X59.334 Y95.069 E7.2435
G1 X59.487 Y95.222 E7.2531
G1 X59.643 Y95.069 E7.2627
G1 X77.808 Y95.069 E8.0635
G1 X80.064 Y92.986 E8.1989
G1 X80.064 Y38.412 E10.6046
G1 X80.312 Y37.812 E10.6332
G1 X82.571 Y35.554 E10.7740
G1 X83.171 Y35.306 E10.8026
G1 X87.797 Y35.306 E11.0065
G1 X88.396 Y35.554 E11.0351
G1 X90.656 Y37.813 E11.1760
G1 X90.904 Y38.412 E11.2046
G1 X90.905 Y92.986 E13.6103
G1 X93.120 Y95.028 E13.7431
G1 X93.394 Y95.654 E13.7732
G1 X93.394 Y99.346 E13.9359
G92 E0.0000
G1 E-0.8000 F1800
G1 X141.916 Y98.976 F7800
G1 E0.1200 F1800
G92 E0.0000
G1 X140.961 Y99.931 E0.0596 F1800
G1 X135.645 Y99.931 E0.2939
G1 X135.503 Y99.785 E0.3028
G1 X135.357 Y99.931 E0.3119
G1 X117.197 Y99.931 E1.1125
G1 X114.939 Y102.014 E1.2479
G1 X114.938 Y156.588 E3.6536
G1 X114.689 Y157.188 E3.6822
G1 X112.429 Y159.446 E3.8231
G1 X111.830 Y159.694 E3.8517
G1 X107.201 Y159.694 E4.0557
G1 X106.602 Y159.446 E4.0843
G1 X104.343 Y157.187 E4.2251
G1 X104.094 Y156.588 E4.2537
G1 X104.095 Y102.015 E6.6594
G1 X101.869 Y99.964 E6.7928
G1 X101.594 Y99.338 E6.8230
G1 X101.594 Y95.662 E6.9850
G1 X101.869 Y95.036 E7.0151
G1 X104.095 Y92.985 E7.1486
G1 X104.094 Y38.412 E9.5542
G1 X104.343 Y37.813 E9.5828
G1 X106.602 Y35.554 E9.7237
G1 X107.201 Y35.306 E9.7523
G1 X111.830 Y35.306 E9.9563
G1 X112.429 Y35.554 E9.9849
G1 X114.689 Y37.812 E10.1257
G1 X114.938 Y38.412 E10.1544
G1 X114.939 Y92.986 E12.5601
G1 X117.197 Y95.069 E12.6955
G1 X135.357 Y95.069 E13.4961
G1 X135.495 Y95.206 E13.5046
G1 X135.623 Y95.069 E13.5129
G1 X140.961 Y95.069 E13.7482
G1 X141.916 Y96.024 E13.8078
G1 X141.916 Y98.976 E13.9379
G92 E0.0000
G1 E-0.8000 F1800
; feature outer perimeter
G1 X91.532 Y98.903 F7800
G1 E0.1200 F1800
G92 E0.0000
G1 X89.043 Y101.199 E0.1492 F1260
G1 X89.042 Y156.168 E2.5724
G1 X87.377 Y157.832 E2.6762
G1 X83.591 Y157.832 E2.8431
G1 X81.926 Y156.168 E2.9468
G1 X81.927 Y101.199 E5.3700
G1 X78.536 Y98.069 E5.5734
G1 X60.537 Y98.069 E6.3668
G1 X60.541 Y98.020 E6.3690
G1 X60.542 Y96.931 E6.4170
G1 X78.536 Y96.931 E7.2102
G1 X81.927 Y93.801 E7.4136
G1 X81.926 Y38.832 E9.8367
G1 X83.591 Y37.168 E9.9405
G1 X87.377 Y37.168 E10.1074
G1 X89.042 Y38.832 E10.2112
G1 X89.043 Y93.801 E12.6343
G1 X91.532 Y96.097 E12.7836
G1 X91.532 Y98.703 E12.8985
G1 X91.532 Y98.903 F1260
G92 E0.0000
G1 E-0.8000 F1800
G1 X90.062 Y100.259 F1260
; feature solid layer
G1 X91.139 Y98.731 F7800
G1 E0.1200 F1800
G92 E0.0000
G1 X88.650 Y101.027 E0.1492 F1440
G1 X88.649 Y156.005 E2.5728
G1 X87.214 Y157.440 E2.6622
G1 X83.753 Y157.440 E2.8148
G1 X82.319 Y156.005 E2.9042
G1 X82.319 Y101.027 E5.3278
G1 X78.690 Y97.676 E5.5455
G1 X60.934 Y97.676 E6.3282
G1 X60.934 Y97.324 E6.3438
G1 X78.690 Y97.324 E7.1265
G1 X82.319 Y93.973 E7.3442
G1 X82.319 Y38.995 E9.7677
G1 X83.753 Y37.560 E9.8572
G1 X87.214 Y37.560 E10.0097
G1 X88.649 Y38.995 E10.0992
G1 X88.650 Y93.973 E12.5227
G1 X91.139 Y96.269 E12.6720
G1 X91.139 Y98.531 E12.7717
G1 X91.139 Y98.731 F1440
G92 E0.0000
G1 E-0.8000 F1800
G1 X90.677 Y98.529 F7800
G1 E0.1200 F1800
G92 E0.0000
G1 X88.188 Y100.824 E0.1492 F1440
G1 X88.187 Y155.814 E2.5733
G1 X87.023 Y156.978 E2.6458
G1 X83.945 Y156.978 E2.7815
G1 X82.781 Y155.814 E2.8541
G1 X82.781 Y100.825 E5.2781
G1 X79.180 Y97.500 E5.4942
G1 X82.781 Y94.175 E5.7102
G1 X82.781 Y39.186 E8.1343
G1 X83.945 Y38.022 E8.2068
G1 X87.023 Y38.022 E8.3425
G1 X88.187 Y39.186 E8.4151
G1 X88.188 Y94.176 E10.8391
G1 X90.677 Y96.471 E10.9884
G1 X90.677 Y98.329 E11.0703
G1 X90.677 Y98.529 F1440
G92 E0.0000
G1 E-0.8000 F1800
G1 X90.215 Y98.326 F7800
G1 E0.1200 F1800
G92 E0.0000
G1 X87.726 Y100.622 E0.1492 F1440
G1 X87.725 Y155.622 E2.5738
G1 X86.832 Y156.516 E2.6295
G1 X84.136 Y156.516 E2.7483
G1 X83.243 Y155.622 E2.8040
G1 X83.243 Y100.622 E5.2285
G1 X79.861 Y97.500 E5.4314
G1 X83.243 Y94.378 E5.6343
G1 X83.243 Y39.378 E8.0588
G1 X84.136 Y38.484 E8.1145
G1 X86.832 Y38.484 E8.2333
G1 X87.725 Y39.378 E8.2890
G1 X87.726 Y94.378 E10.7135
G1 X90.215 Y96.674 E10.8628
G1 X90.215 Y98.126 E10.9268
G1 X90.215 Y98.326 F1440
G92 E0.0000
G1 E-0.8000 F1800
G1 X89.753 Y98.124 F7800
G1 E0.1200 F1800
G92 E0.0000
G1 X87.264 Y100.420 E0.1492 F1440
G1 X87.263 Y155.431 E2.5742
G1 X86.640 Y156.054 E2.6131
G1 X84.327 Y156.054 E2.7150
G1 X83.705 Y155.431 E2.7539
G1 X83.705 Y100.420 E5.1788
G1 X80.542 Y97.500 E5.3686
G1 X83.705 Y94.580 E5.5584
G1 X83.705 Y39.569 E7.9833
G1 X84.327 Y38.946 E8.0222
G1 X86.640 Y38.946 E8.1241
G1 X87.263 Y39.569 E8.1630
G1 X87.264 Y94.580 E10.5879
G1 X89.753 Y96.876 E10.7372
G1 X89.753 Y97.924 E10.7834
G1 X89.753 Y98.124 F1440
G92 E0.0000
G1 E-0.8000 F1800
G1 X89.291 Y97.922 F7800
G1 E0.1200 F1800
G92 E0.0000
G1 X86.802 Y100.217 E0.1492 F1440
G1 X86.801 Y155.240 E2.5747
G1 X86.449 Y155.592 E2.5967
G1 X84.519 Y155.592 E2.6818
G1 X84.167 Y155.240 E2.7037
G1 X84.167 Y100.218 E5.1292
G1 X81.223 Y97.500 E5.3058
G1 X84.167 Y94.782 E5.4824
G1 X84.167 Y39.760 E7.9079
G1 X84.519 Y39.408 E7.9298
G1 X86.449 Y39.408 E8.0149
G1 X86.801 Y39.760 E8.0369
G1 X86.802 Y94.783 E10.4624
G1 X89.291 Y97.078 E10.6116
G1 X89.291 Y97.722 E10.6400
G1 X89.291 Y97.922 F1440
G92 E0.0000
G1 E-0.8000 F1800
G1 X88.829 Y97.719 F7800
G1 E0.1200 F1800
G92 E0.0000
G1 X86.340 Y100.015 E0.1492 F1440
G1 X86.339 Y155.048 E2.5752
G1 X86.258 Y155.130 E2.5803
G1 X84.710 Y155.130 E2.6485
G1 X84.629 Y155.048 E2.6536
G1 X84.629 Y100.016 E5.0795
G1 X81.904 Y97.500 E5.2430
G1 X84.629 Y94.984 E5.4065
G1 X84.629 Y39.952 E7.8324
G1 X84.710 Y39.870 E7.8375
G1 X86.258 Y39.870 E7.9057
G1 X86.339 Y39.952 E7.9108
G1 X86.340 Y94.985 E10.3368
G1 X88.829 Y97.281 E10.4860
G1 X88.829 Y97.519 E10.4965
G1 X88.829 Y97.719 F1440
G92 E0.0000
G1 E-0.8000 F1800
G1 X88.367 Y97.517 F7800
G1 E0.1200 F1800
G92 E0.0000
G1 X85.878 Y99.813 E0.1492 F1440
G1 X85.877 Y154.668 E2.5674
G1 X85.091 Y154.668 E2.6020
G1 X85.091 Y99.813 E5.0201
G1 X82.585 Y97.500 E5.1705
G1 X85.091 Y95.187 E5.3208
G1 X85.091 Y40.332 E7.7389
G1 X85.877 Y40.332 E7.7735
G1 X85.878 Y95.187 E10.1917
G1 X88.245 Y97.370 E10.3336
G1 X88.367 Y97.483 F1440
G1 X88.367 Y97.517
G92 E0.0000
G1 E-0.8000 F1800
G1 X87.704 Y97.500 F7800
G1 E0.1200 F1800
G92 E0.0000
G1 X85.484 Y99.547 E0.1331 F1440
G1 X83.266 Y97.500 E0.2662
G1 X85.484 Y95.452 E0.3992
G1 X87.557 Y97.364 E0.5235
G1 X87.704 Y97.500 F1440
G92 E0.0000
G1 E-0.8000 F1800
G1 X87.023 Y97.500 F7800
G1 E0.1200 F1800
G92 E0.0000
G1 X85.484 Y98.919 E0.0922 F1440
G1 X83.948 Y97.500 E0.1845
G1 X85.484 Y96.081 E0.2767
G1 X86.876 Y97.364 E0.3601
G1 X87.023 Y97.500 F1440
G92 E0.0000
G1 E-0.8000 F1800
G1 X86.341 Y97.500 F7800
G1 E0.1200 F1800
G92 E0.0000
G1 X85.485 Y98.290 E0.0514 F1440
G1 X84.629 Y97.500 E0.1027
G1 X85.485 Y96.710 E0.1541
G1 X86.194 Y97.364 E0.1966
G1 X86.341 Y97.500 F1440
G92 E0.0000
G1 E-0.8000 F1800
G1 X85.660 Y97.500 F7800
G1 E0.1200 F1800
G92 E0.0000
G1 X85.485 Y97.662 E0.0105 F1440
G1 X85.310 Y97.500 E0.0210
G1 X85.485 Y97.338 E0.0315
G1 X85.513 Y97.364 E0.0332
G1 X85.660 Y97.500 F1440
G92 E0.0000
G1 E-0.8000 F1800
; feature outer perimeter
G1 X134.451 Y98.069 F7800
G1 E0.1200 F1800
G92 E0.0000
G1 X116.469 Y98.069 E0.7927 F1260
G1 X113.077 Y101.199 E0.9961
G1 X113.076 Y156.168 E3.4193
G1 X111.410 Y157.832 E3.5231
G1 X107.621 Y157.832 E3.6901
G1 X105.956 Y156.168 E3.7939
G1 X105.957 Y101.199 E6.2170
G1 X103.456 Y98.895 E6.3669
G1 X103.456 Y96.105 E6.4898
G1 X105.957 Y93.801 E6.6397
G1 X105.956 Y38.832 E9.0629
G1 X107.621 Y37.168 E9.1666
G1 X111.410 Y37.168 E9.3337
G1 X113.076 Y38.832 E9.4375
G1 X113.077 Y93.801 E11.8606
G1 X116.469 Y96.931 E12.0641
G1 X134.451 Y96.931 E12.8567
G1 X134.451 Y97.869 E12.8981
G1 X134.451 Y98.069 F1260
G92 E0.0000
G1 E-0.8000 F1800
G1 X132.451 Y98.069 F1260
; feature solid layer
G1 X134.058 Y97.676 F7800
G1 E0.1200 F1800
G92 E0.0000
G1 X116.316 Y97.676 E0.7821 F1440
G1 X112.684 Y101.027 E0.9999
G1 X112.683 Y156.005 E3.4235
G1 X111.248 Y157.440 E3.5129
G1 X107.784 Y157.440 E3.6656
G1 X106.349 Y156.005 E3.7551
G1 X106.350 Y101.027 E6.1786
G1 X103.849 Y98.722 E6.3285
G1 X103.849 Y96.278 E6.4363
G1 X106.350 Y93.973 E6.5862
G1 X106.349 Y38.995 E9.0097
G1 X107.784 Y37.560 E9.0992
G1 X111.247 Y37.560 E9.2518
G1 X112.683 Y38.995 E9.3413
G1 X112.684 Y93.973 E11.7648
G1 X116.316 Y97.324 E11.9826
G1 X134.058 Y97.324 E12.7648
G1 X134.058 Y97.476 E12.7715
G1 X134.058 Y97.676 F1440
G92 E0.0000
G1 E-0.8000 F1800
G1 X115.825 Y97.500 F7800
G1 E0.1200 F1800
G92 E0.0000
G1 X112.222 Y100.824 E0.2161 F1440
G1 X112.221 Y155.814 E2.6401
G1 X111.056 Y156.978 E2.7127
G1 X107.975 Y156.978 E2.8485
G1 X106.811 Y155.814 E2.9211
G1 X106.812 Y100.824 E5.3452
G1 X104.311 Y98.520 E5.4950
G1 X104.311 Y96.480 E5.5850
G1 X106.812 Y94.176 E5.7348
G1 X106.811 Y39.186 E8.1589
G1 X107.975 Y38.022 E8.2315
G1 X111.056 Y38.022 E8.3673
G1 X112.221 Y39.186 E8.4399
G1 X112.222 Y94.175 E10.8639
G1 X115.678 Y97.364 E11.0712
G1 X115.825 Y97.500 F1440
G92 E0.0000
G1 E-0.8000 F1800
G1 X115.144 Y97.500 F7800
G1 E0.1200 F1800
G92 E0.0000
G1 X111.760 Y100.622 E0.2030 F1440
G1 X111.759 Y155.622 E2.6275
G1 X110.865 Y156.516 E2.6832
G1 X108.167 Y156.516 E2.8021
G1 X107.273 Y155.622 E2.8578
G1 X107.274 Y100.622 E5.2824
G1 X104.773 Y98.317 E5.4322
G1 X104.773 Y96.683 E5.5043
G1 X107.274 Y94.378 E5.6542
G1 X107.273 Y39.378 E8.0787
G1 X108.167 Y38.484 E8.1344
G1 X110.865 Y38.484 E8.2534
G1 X111.759 Y39.378 E8.3091
G1 X111.760 Y94.378 E10.7336
G1 X114.997 Y97.364 E10.9277
G1 X115.144 Y97.500 F1440
G92 E0.0000
G1 E-0.8000 F1800
G1 X114.463 Y97.500 F7800
G1 E0.1200 F1800
G92 E0.0000
G1 X111.298 Y100.420 E0.1898 F1440
G1 X111.297 Y155.431 E2.6148
G1 X110.674 Y156.054 E2.6536
G1 X108.358 Y156.054 E2.7557
G1 X107.735 Y155.431 E2.7945
G1 X107.736 Y100.419 E5.2196
G1 X105.235 Y98.115 E5.3695
G1 X105.235 Y96.885 E5.4237
G1 X107.736 Y94.581 E5.5736
G1 X107.735 Y39.569 E7.9986
G1 X108.358 Y38.946 E8.0374
G1 X110.674 Y38.946 E8.1395
