; G-Code generated by Simplify3D(R) Version 4.1.1
; Mar 6, 2019 at 8:36:38 PM
; Settings Summary
;   processName,wing2per_bottom
;   applyToModels,Il-2 elevator L1,Il-2 elevator R1
;   profileName,Default (modified)
;   profileVersion,2015-07-24 21:36:39
;   baseProfile,
;   printMaterial,
;   printQuality,
;   printExtruders,
;   extruderName,Primary Extruder
;   extruderToolheadNumber,0
;   extruderDiameter,0.4
;   extruderAutoWidth,0
;   extruderWidth,0.42
;   extrusionMultiplier,1.02
;   extruderUseRetract,1
;   extruderRetractionDistance,0.8
;   extruderExtraRestartDistance,0.12
;   extruderRetractionZLift,0
;   extruderRetractionSpeed,1800
;   extruderUseCoasting,1
;   extruderCoastingDistance,0.2
;   extruderUseWipe,1
;   extruderWipeDistance,2
;   primaryExtruder,0
;   layerHeight,0.25
;   topSolidLayers,0
;   bottomSolidLayers,4
;   perimeterOutlines,2
;   printPerimetersInsideOut,1
;   startPointOption,3
;   startPointOriginX,195
;   startPointOriginY,0
;   sequentialIslands,0
;   spiralVaseMode,0
;   firstLayerHeightPercentage,90
;   firstLayerWidthPercentage,110
;   firstLayerUnderspeed,0.5
;   useRaft,0
;   raftExtruder,0
;   raftTopLayers,3
;   raftBaseLayers,2
;   raftOffset,3
;   raftSeparationDistance,0.14
;   raftTopInfill,100
;   aboveRaftSpeedMultiplier,0.3
;   useSkirt,1
;   skirtExtruder,0
;   skirtLayers,1
;   skirtOutlines,1
;   skirtOffset,1.4
;   usePrimePillar,0
;   primePillarExtruder,999
;   primePillarWidth,12
;   primePillarLocation,7
;   primePillarSpeedMultiplier,1
;   useOozeShield,0
;   oozeShieldExtruder,999
;   oozeShieldOffset,2
;   oozeShieldOutlines,1
;   oozeShieldSidewallShape,1
;   oozeShieldSidewallAngle,30
;   oozeShieldSpeedMultiplier,1
;   infillExtruder,0
;   internalInfillPattern,Rectilinear
;   externalInfillPattern,Rectilinear
;   infillPercentage,0
;   outlineOverlapPercentage,15
;   infillExtrusionWidthPercentage,100
;   minInfillLength,5
;   infillLayerInterval,1
;   internalInfillAngles,45,-45
;   overlapInternalInfillAngles,0
;   externalInfillAngles,45,-45
;   generateSupport,0
;   supportExtruder,0
;   supportInfillPercentage,30
;   supportExtraInflation,0
;   supportBaseLayers,0
;   denseSupportExtruder,0
;   denseSupportLayers,0
;   denseSupportInfillPercentage,70
;   supportLayerInterval,1
;   supportHorizontalPartOffset,0.3
;   supportUpperSeparationLayers,1
;   supportLowerSeparationLayers,1
;   supportType,0
;   supportGridSpacing,4
;   maxOverhangAngle,45
;   supportAngles,0
;   temperatureName,Primary Extruder,Heated Bed
;   temperatureNumber,0,1
;   temperatureSetpointCount,1,1
;   temperatureSetpointLayers,1,1
;   temperatureSetpointTemperatures,230,56
;   temperatureStabilizeAtStartup,1,1
;   temperatureHeatedBed,0,1
;   fanLayers,1
;   fanSpeeds,0
;   blipFanToFullPower,1
;   adjustSpeedForCooling,1
;   minSpeedLayerTime,15
;   minCoolingSpeedSlowdown,20
;   increaseFanForCooling,0
;   minFanLayerTime,45
;   maxCoolingFanSpeed,100
;   increaseFanForBridging,0
;   bridgingFanSpeed,100
;   use5D,1
;   relativeEdistances,0
;   allowEaxisZeroing,1
;   independentExtruderAxes,0
;   includeM10123,0
;   stickySupport,1
;   applyToolheadOffsets,0
;   gcodeXoffset,0
;   gcodeYoffset,0
;   gcodeZoffset,0
;   overrideMachineDefinition,0
;   machineTypeOverride,0
;   strokeXoverride,195
;   strokeYoverride,195
;   strokeZoverride,150
;   originOffsetXoverride,0
;   originOffsetYoverride,0
;   originOffsetZoverride,0
;   homeXdirOverride,-1
;   homeYdirOverride,-1
;   homeZdirOverride,-1
;   flipXoverride,1
;   flipYoverride,-1
;   flipZoverride,1
;   toolheadOffsets,0,0|0,0|0,0|0,0|0,0|0,0
;   overrideFirmwareConfiguration,0
;   firmwareTypeOverride,RepRap (Marlin/Repetier/Sprinter)
;   GPXconfigOverride,r2
;   baudRateOverride,115200
;   overridePrinterModels,0
;   printerModelsOverride
;   startingGcode,G28,
;   layerChangeGcode,
;   retractionGcode,
;   toolChangeGcode,
;   endingGcode,M104 S0 ; turn off extruder,M140 S0 ; turn off bed,G28 X0 ; home X axis,M84 ; disable motors,M107 ; turn off fan
;   exportFileFormat,gcode
;   celebration,0
;   celebrationSong,Random Song
;   postProcessing,
;   defaultSpeed,3600
;   outlineUnderspeed,0.7
;   solidInfillUnderspeed,0.8
;   supportUnderspeed,0.8
;   rapidXYspeed,7800
;   rapidZspeed,1002
;   minBridgingArea,5
;   bridgingExtraInflation,0
;   bridgingExtrusionMultiplier,1
;   bridgingSpeedMultiplier,0.3
;   useFixedBridgingAngle,0
;   fixedBridgingAngle,0
;   applyBridgingToPerimeters,0
;   filamentDiameters,1.75|1.75|1.75|1.75|1.75|1.75
;   filamentPricesPerKg,1000|1000|1000|1000|1000|1000
;   filamentDensities,1.25|1.25|1.25|1.25|1.25|1.25
;   useMinPrintHeight,1
;   minPrintHeight,0
;   useMaxPrintHeight,1
;   maxPrintHeight,1
;   useDiaphragm,0
;   diaphragmLayerInterval,20
;   robustSlicing,1
;   mergeAllIntoSolid,0
;   onlyRetractWhenCrossingOutline,0
;   retractBetweenLayers,0
;   useRetractionMinTravel,0
;   retractionMinTravel,3
;   retractWhileWiping,0
;   onlyWipeOutlines,1
;   avoidCrossingOutline,0
;   maxMovementDetourFactor,3
;   toolChangeRetractionDistance,0
;   toolChangeExtraRestartDistance,0
;   toolChangeRetractionSpeed,360
;   externalThinWallType,0
;   internalThinWallType,2
;   thinWallAllowedOverlapPercentage,10
;   singleExtrusionMinLength,1
;   singleExtrusionMinPrintingWidthPercentage,50
;   singleExtrusionMaxPrintingWidthPercentage,200
;   singleExtrusionEndpointExtension,0.2
;   horizontalSizeCompensation,0
G90
M82
M106 S0
M140 S56
M190 S56
M104 S230 T0
M109 S230 T0
G28
; process wing2per_bottom
; layer 1, Z = 0.225
T0
G92 E0.0000
G1 E-0.8000 F1800
; feature skirt
; tool H0.225 W0.462
G1 Z0.225 F1002
G1 X78.266 Y54.078 F7800
G1 E0.1200 F1800
G92 E0.0000
G1 X79.097 Y62.472 E0.3718 F1800
G1 X79.857 Y70.635 E0.7332
G1 X79.829 Y70.720 E0.7372
G1 X79.874 Y70.811 E0.7416
G1 X81.172 Y86.090 E1.4176
G1 X81.172 Y86.096 E1.4179
G1 X81.809 Y94.320 E1.7815
G1 X81.810 Y94.325 E1.7817
G1 X82.934 Y110.241 E2.4851
G1 X82.934 Y110.247 E2.4853
G1 X83.437 Y118.136 E2.8338
G1 X83.438 Y118.141 E2.8340
G1 X84.325 Y133.778 E3.5244
G1 X84.324 Y133.877 E3.5288
G1 X84.265 Y134.797 E3.5694
G1 X84.251 Y134.903 E3.5741
G1 X84.070 Y135.819 E3.6153
G1 X84.043 Y135.921 E3.6199
G1 X83.753 Y136.785 E3.6601
G1 X83.713 Y136.882 E3.6647
G1 X83.305 Y137.721 E3.7059
G1 X83.252 Y137.814 E3.7106
G1 X82.739 Y138.590 E3.7516
G1 X82.674 Y138.676 E3.7563
G1 X82.031 Y139.414 E3.7995
G1 X81.952 Y139.494 E3.8044
G1 X81.230 Y140.124 E3.8467
G1 X81.145 Y140.189 E3.8514
G1 X80.384 Y140.696 E3.8917
G1 X80.292 Y140.749 E3.8964
G1 X79.451 Y141.164 E3.9377
G1 X79.348 Y141.206 E3.9426
G1 X78.411 Y141.519 E3.9862
G1 X78.306 Y141.546 E3.9909
G1 X77.407 Y141.719 E4.0313
G1 X77.304 Y141.732 E4.0359
G1 X76.408 Y141.788 E4.0755
G1 X76.306 Y141.788 E4.0800
G1 X75.411 Y141.732 E4.1195
G1 X75.307 Y141.719 E4.1241
G1 X74.408 Y141.546 E4.1645
G1 X74.304 Y141.519 E4.1692
G1 X73.366 Y141.206 E4.2128
G1 X73.264 Y141.164 E4.2177
G1 X72.423 Y140.749 E4.2590
G1 X72.331 Y140.696 E4.2637
G1 X71.569 Y140.189 E4.3040
G1 X71.485 Y140.124 E4.3087
G1 X70.762 Y139.494 E4.3510
G1 X70.683 Y139.414 E4.3559
G1 X70.040 Y138.676 E4.3991
G1 X69.975 Y138.590 E4.4038
G1 X69.463 Y137.814 E4.4448
G1 X69.410 Y137.721 E4.4495
G1 X69.001 Y136.882 E4.4907
G1 X68.961 Y136.785 E4.4953
G1 X68.671 Y135.921 E4.5355
G1 X68.644 Y135.819 E4.5401
G1 X68.463 Y134.903 E4.5813
G1 X68.450 Y134.797 E4.5860
G1 X68.390 Y133.877 E4.6266
G1 X68.390 Y133.778 E4.6310
G1 X69.277 Y118.140 E5.3215
G1 X69.277 Y118.133 E5.3218
G1 X70.318 Y102.370 E6.0181
G1 X70.319 Y102.363 E6.0185
G1 X71.515 Y86.448 E6.7220
G1 X71.515 Y86.442 E6.7223
G1 X72.194 Y78.216 E7.0861
G1 X72.842 Y70.808 E7.4139
G1 X72.885 Y70.719 E7.4183
G1 X72.857 Y70.635 E7.4222
G1 X73.617 Y62.467 E7.7838
G1 X74.444 Y54.078 E8.1554
G1 X75.377 Y53.233 E8.2108
G1 X77.334 Y53.233 E8.2971
G1 X78.266 Y54.078 E8.3526
G92 E0.0000
G1 E-0.8000 F1800
G1 X95.943 Y54.078 F7800
G1 E0.1200 F1800
G92 E0.0000
G1 X96.774 Y62.472 E0.3718 F1800
G1 X97.534 Y70.635 E0.7332
G1 X97.506 Y70.720 E0.7372
G1 X97.550 Y70.811 E0.7416
G1 X98.848 Y86.090 E1.4176
G1 X98.848 Y86.096 E1.4179
G1 X99.486 Y94.320 E1.7815
G1 X99.486 Y94.325 E1.7817
G1 X100.610 Y110.241 E2.4851
G1 X100.611 Y110.247 E2.4853
G1 X101.114 Y118.136 E2.8338
G1 X101.114 Y118.141 E2.8340
G1 X102.001 Y133.778 E3.5244
G1 X102.001 Y133.877 E3.5288
G1 X101.941 Y134.797 E3.5694
G1 X101.927 Y134.903 E3.5741
G1 X101.746 Y135.819 E3.6153
G1 X101.719 Y135.921 E3.6199
G1 X101.429 Y136.785 E3.6601
G1 X101.390 Y136.882 E3.6647
G1 X100.981 Y137.721 E3.7059
G1 X100.928 Y137.814 E3.7106
G1 X100.416 Y138.590 E3.7516
G1 X100.350 Y138.676 E3.7563
G1 X99.708 Y139.414 E3.7995
G1 X99.629 Y139.494 E3.8044
G1 X98.906 Y140.124 E3.8467
G1 X98.822 Y140.189 E3.8514
G1 X98.060 Y140.696 E3.8917
G1 X97.968 Y140.749 E3.8964
G1 X97.127 Y141.164 E3.9377
G1 X97.025 Y141.206 E3.9426
G1 X96.087 Y141.519 E3.9862
G1 X95.983 Y141.546 E3.9909
G1 X95.083 Y141.719 E4.0313
G1 X94.980 Y141.732 E4.0359
G1 X94.085 Y141.788 E4.0755
G1 X93.982 Y141.788 E4.0800
G1 X93.087 Y141.732 E4.1195
G1 X92.984 Y141.719 E4.1241
G1 X92.084 Y141.546 E4.1645
G1 X91.980 Y141.519 E4.1692
G1 X91.042 Y141.206 E4.2128
G1 X90.940 Y141.164 E4.2177
G1 X90.099 Y140.749 E4.2590
G1 X90.007 Y140.696 E4.2637
G1 X89.245 Y140.189 E4.3040
G1 X89.161 Y140.124 E4.3087
G1 X88.438 Y139.494 E4.3510
G1 X88.359 Y139.414 E4.3559
G1 X87.717 Y138.676 E4.3991
G1 X87.652 Y138.590 E4.4038
G1 X87.139 Y137.814 E4.4448
G1 X87.086 Y137.721 E4.4495
G1 X86.678 Y136.882 E4.4907
G1 X86.638 Y136.785 E4.4953
G1 X86.348 Y135.921 E4.5355
G1 X86.321 Y135.819 E4.5401
G1 X86.140 Y134.903 E4.5813
G1 X86.126 Y134.797 E4.5860
G1 X86.066 Y133.877 E4.6266
G1 X86.066 Y133.778 E4.6310
G1 X86.953 Y118.140 E5.3215
G1 X86.954 Y118.133 E5.3218
G1 X87.995 Y102.370 E6.0181
G1 X87.995 Y102.363 E6.0185
G1 X89.191 Y86.448 E6.7220
G1 X89.192 Y86.442 E6.7223
G1 X89.870 Y78.216 E7.0861
G1 X90.518 Y70.808 E7.4139
G1 X90.561 Y70.719 E7.4183
G1 X90.533 Y70.635 E7.4222
G1 X91.294 Y62.467 E7.7838
G1 X92.121 Y54.078 E8.1554
G1 X93.053 Y53.233 E8.2108
G1 X95.011 Y53.233 E8.2971
G1 X95.943 Y54.078 E8.3526
G92 E0.0000
G1 E-0.8000 F1800
; feature inner perimeter
G1 X76.545 Y60.280 F7800
G1 E0.1200 F1800
G92 E0.0000
G1 X76.784 Y62.692 E0.1069 F1530
G1 X77.484 Y70.207 E0.4396
G1 X76.865 Y70.891 E0.4802
G1 X77.607 Y71.579 E0.5248
G1 X78.205 Y78.413 E0.8272
G1 X78.855 Y86.280 E1.1752
G1 X79.492 Y94.493 E1.5383
G1 X80.078 Y102.530 E1.8936
G1 X80.615 Y110.399 E2.2412
G1 X81.118 Y118.277 E2.5892
G1 X81.572 Y125.979 E2.9293
G1 X81.844 Y130.974 E3.1499
G1 X81.519 Y131.062 E3.1647
G1 X81.304 Y130.640 E3.1856
G1 X80.559 Y129.706 E3.2383
G1 X79.639 Y128.941 E3.2910
G1 X78.592 Y128.381 E3.3433
G1 X77.482 Y128.049 E3.3944
G1 X76.359 Y127.940 E3.4441
G1 X75.299 Y128.036 E3.4911
G1 X74.218 Y128.343 E3.5406
G1 X73.176 Y128.874 E3.5921
G1 X72.242 Y129.619 E3.6448
G1 X71.477 Y130.539 E3.6976
G1 X71.191 Y131.074 E3.7243
G1 X70.869 Y130.984 E3.7390
G1 X71.142 Y125.979 E3.9600
G1 X71.597 Y118.277 E4.3001
G1 X72.099 Y110.401 E4.6480
G1 X72.637 Y102.532 E4.9957
G1 X73.223 Y94.495 E5.3509
G1 X73.832 Y86.630 E5.6987
G1 X74.509 Y78.412 E6.0621
G1 X75.107 Y71.579 E6.3645
G1 X75.849 Y70.891 E6.4091
G1 X75.231 Y70.207 E6.4498
G1 X75.931 Y62.690 E6.7826
G1 X76.168 Y60.280 E6.8893
G1 X76.345 Y60.280 E6.8971
G1 X76.545 Y60.280 F1530
G92 E0.0000
G1 E-0.8000 F1800
; feature outer perimeter
G1 X76.496 Y55.095 F7800
G1 E0.1200 F1800
G92 E0.0000
G1 X77.244 Y62.647 E0.3345 F1260
G1 X77.962 Y70.366 E0.6762
G1 X77.514 Y70.863 E0.7057
G1 X78.052 Y71.361 E0.7381
G1 X78.666 Y78.375 E1.0485
G1 X79.316 Y86.244 E1.3965
G1 X79.953 Y94.460 E1.7598
G1 X80.538 Y102.498 E2.1151
G1 X81.076 Y110.368 E2.4628
G1 X81.579 Y118.250 E2.8109
G1 X82.033 Y125.952 E3.1511
G1 X82.462 Y133.820 E3.4984
G1 X82.411 Y134.609 E3.5332
G1 X82.256 Y135.392 E3.5684
G1 X82.009 Y136.128 E3.6027
G1 X81.661 Y136.845 E3.6378
G1 X81.224 Y137.506 E3.6727
G1 X80.674 Y138.138 E3.7097
G1 X80.056 Y138.677 E3.7458
G1 X79.408 Y139.109 E3.7801
G1 X78.691 Y139.462 E3.8153
G1 X77.887 Y139.731 E3.8527
G1 X77.121 Y139.878 E3.8871
G1 X76.357 Y139.926 E3.9208
G1 X75.594 Y139.878 E3.9546
G1 X74.828 Y139.731 E3.9890
G1 X74.023 Y139.462 E4.0264
G1 X73.307 Y139.109 E4.0615
G1 X72.658 Y138.677 E4.0959
G1 X72.041 Y138.138 E4.1320
G1 X71.490 Y137.506 E4.1690
G1 X71.054 Y136.845 E4.2039
G1 X70.705 Y136.128 E4.2390
G1 X70.458 Y135.392 E4.2733
G1 X70.303 Y134.609 E4.3084
G1 X70.252 Y133.820 E4.3433
G1 X70.681 Y125.953 E4.6906
G1 X71.136 Y118.250 E5.0308
G1 X71.638 Y110.369 E5.3789
G1 X72.176 Y102.498 E5.7266
G1 X72.762 Y94.461 E6.0819
G1 X73.371 Y86.592 E6.4298
G1 X74.049 Y78.375 E6.7932
G1 X74.662 Y71.361 E7.1036
G1 X75.201 Y70.863 E7.1359
G1 X74.752 Y70.366 E7.1654
G1 X75.471 Y62.648 E7.5071
G1 X76.215 Y55.095 E7.8417
G1 X76.296 Y55.095 E7.8452
G1 X76.496 Y55.095 F1260
G92 E0.0000
G1 E-0.8000 F1800
G1 X76.693 Y57.086 F1260
G1 X80.227 Y130.031 F7800
G1 E0.1200 F1800
G92 E0.0000
G1 X79.380 Y129.326 E0.0486 F1260
G1 X78.415 Y128.810 E0.0968
G1 X77.392 Y128.504 E0.1439
G1 X76.358 Y128.404 E0.1897
G1 X75.384 Y128.493 E0.2328
G1 X74.388 Y128.775 E0.2784
G1 X73.428 Y129.265 E0.3259
G1 X72.567 Y129.951 E0.3745
G1 X71.862 Y130.799 E0.4231
G1 X71.347 Y131.763 E0.4713
G1 X71.075 Y132.669 E0.5129
G1 X70.990 Y133.551 E0.5520
G1 X70.940 Y133.809 E0.5636
G1 X71.029 Y134.795 E0.6072
G1 X71.311 Y135.790 E0.6528
G1 X71.801 Y136.750 E0.7004
G1 X72.487 Y137.611 E0.7489
G1 X73.335 Y138.316 E0.7975
G1 X74.299 Y138.832 E0.8457
G1 X75.322 Y139.138 E0.8928
G1 X76.357 Y139.238 E0.9386
G1 X77.331 Y139.149 E0.9817
G1 X78.326 Y138.867 E1.0273
G1 X79.286 Y138.377 E1.0748
G1 X80.147 Y137.691 E1.1234
G1 X80.852 Y136.843 E1.1720
G1 X81.368 Y135.879 E1.2202
G1 X81.674 Y134.856 E1.2672
G1 X81.774 Y133.822 E1.3130
G1 X81.686 Y132.847 E1.3562
G1 X81.403 Y131.852 E1.4018
G1 X80.914 Y130.892 E1.4493
G1 X80.352 Y130.187 E1.4890
G1 X80.227 Y130.031 F1260
G92 E0.0000
G1 E-0.8000 F1800
G1 X79.380 Y129.326 F1260
G1 X78.588 Y128.903
; feature gap fill
; tool H0.225 W0.420
G1 X81.683 Y131.408 F7800
G1 E0.1200 F1800
G92 E0.0000
G1 X81.974 Y131.699 E0.0165 F1800
G1 X82.007 Y132.293 E0.0404
G1 X82.009 Y132.327 F1800
G1 X81.891 Y132.210
G92 E0.0000
G1 E-0.8000 F1800
G1 X70.994 Y131.410 F7800
G1 E0.1200 F1800
G92 E0.0000
G1 X71.072 Y131.488 E0.0044 F1800
G1 X71.001 Y131.621 E0.0104
G1 X70.911 Y131.921 E0.0230
G1 X70.737 Y131.747 E0.0329
G1 X70.707 Y132.311 E0.0555
G1 X70.774 Y132.378 E0.0593
G1 X70.709 Y132.597 E0.0684
G1 X70.700 Y132.689 E0.0721
G1 X70.682 Y132.880 F1800
G1 X70.676 Y132.874
G92 E0.0000
G1 E-0.8000 F1800
G1 X76.327 Y57.746 F7800
G1 E0.1200 F1800
G92 E0.0000
G1 X76.391 Y57.809 E0.0036 F1800
G1 X76.457 Y58.469 E0.0302
G1 X76.274 Y58.286 E0.0405
G1 X76.221 Y58.827 E0.0623
G1 X76.522 Y59.128 E0.0793
G1 X76.587 Y59.787 E0.1059
G1 X76.309 Y59.509 E0.1217
G1 X76.167 Y59.368 F1800
G92 E0.0000
G1 E-0.8000 F1800
; feature solid layer
; tool H0.225 W0.462
G1 X76.343 Y62.513 F7800
G1 E0.1200 F1800
G92 E0.0000
G1 X76.375 Y62.545 E0.0020 F1440
G1 X76.393 Y62.728 E0.0101
G1 X76.443 Y63.266 E0.0339
G1 X76.286 Y63.109 E0.0437
G1 X76.230 Y63.707 E0.0702
G1 X76.510 Y63.987 E0.0876
G1 X76.577 Y64.707 E0.1195
G1 X76.175 Y64.305 E0.1446
G1 X76.119 Y64.902 E0.1711
G1 X76.644 Y65.428 E0.2038
G1 X76.711 Y66.148 E0.2357
G1 X76.063 Y65.500 E0.2761
G1 X76.008 Y66.098 E0.3025
G1 X76.778 Y66.868 E0.3506
G1 X76.845 Y67.589 E0.3824
G1 X75.952 Y66.696 E0.4381
G1 X75.897 Y67.293 E0.4646
G1 X76.912 Y68.309 E0.5279
G1 X76.980 Y69.030 E0.5598
G1 X75.841 Y67.891 E0.6308
G1 X75.785 Y68.489 E0.6573
G1 X77.047 Y69.750 E0.7359
G1 X77.076 Y70.072 E0.7501
G1 X76.905 Y70.262 E0.7614
G1 X75.730 Y69.087 E0.8347
G1 X75.674 Y69.684 E0.8611
G1 X76.453 Y70.464 E0.9097
G1 X76.595 Y70.605 F1440
G92 E0.0000
G1 E-0.8000 F1800
G1 X76.324 Y70.987 F7800
G1 E0.1200 F1800
G92 E0.0000
G1 X77.242 Y71.905 E0.0572 F1440
G1 X77.304 Y72.621 E0.0889
G1 X75.984 Y71.302 E0.1712
G1 X75.645 Y71.616 E0.1916
G1 X77.367 Y73.337 E0.2989
G1 X77.430 Y74.053 E0.3306
G1 X75.457 Y72.081 E0.4536
G1 X75.405 Y72.682 E0.4801
