; G-Code generated by Simplify3D(R) Version 4.1.1
; Mar 6, 2019 at 8:01:02 PM
; Settings Summary
;   processName,fuselage2per
;   applyToModels,Il-2 fuselage 1
;   profileName,Default (modified)
;   profileVersion,2015-07-24 21:36:39
;   baseProfile,
;   printMaterial,
;   printQuality,
;   printExtruders,
;   extruderName,Primary Extruder
;   extruderToolheadNumber,0
;   extruderDiameter,0.4
;   extruderAutoWidth,0
;   extruderWidth,0.42
;   extrusionMultiplier,1.02
;   extruderUseRetract,1
;   extruderRetractionDistance,0.8
;   extruderExtraRestartDistance,0.12
;   extruderRetractionZLift,0
;   extruderRetractionSpeed,1800
;   extruderUseCoasting,1
;   extruderCoastingDistance,0.2
;   extruderUseWipe,1
;   extruderWipeDistance,2
;   primaryExtruder,0
;   layerHeight,0.25
;   topSolidLayers,0
;   bottomSolidLayers,0
;   perimeterOutlines,2
;   printPerimetersInsideOut,1
;   startPointOption,3
;   startPointOriginX,100
;   startPointOriginY,100
;   sequentialIslands,0
;   spiralVaseMode,0
;   firstLayerHeightPercentage,90
;   firstLayerWidthPercentage,110
;   firstLayerUnderspeed,0.5
;   useRaft,0
;   raftExtruder,0
;   raftTopLayers,3
;   raftBaseLayers,2
;   raftOffset,3
;   raftSeparationDistance,0.14
;   raftTopInfill,100
;   aboveRaftSpeedMultiplier,0.3
;   useSkirt,1
;   skirtExtruder,0
;   skirtLayers,1
;   skirtOutlines,2
;   skirtOffset,1.4
;   usePrimePillar,0
;   primePillarExtruder,999
;   primePillarWidth,12
;   primePillarLocation,7
;   primePillarSpeedMultiplier,1
;   useOozeShield,0
;   oozeShieldExtruder,999
;   oozeShieldOffset,2
;   oozeShieldOutlines,1
;   oozeShieldSidewallShape,1
;   oozeShieldSidewallAngle,30
;   oozeShieldSpeedMultiplier,1
;   infillExtruder,0
;   internalInfillPattern,Rectilinear
;   externalInfillPattern,Rectilinear
;   infillPercentage,0
;   outlineOverlapPercentage,15
;   infillExtrusionWidthPercentage,100
;   minInfillLength,5
;   infillLayerInterval,1
;   internalInfillAngles,45,-45
;   overlapInternalInfillAngles,0
;   externalInfillAngles,45,-45
;   generateSupport,0
;   supportExtruder,0
;   supportInfillPercentage,30
;   supportExtraInflation,0
;   supportBaseLayers,0
;   denseSupportExtruder,0
;   denseSupportLayers,0
;   denseSupportInfillPercentage,70
;   supportLayerInterval,1
;   supportHorizontalPartOffset,0.3
;   supportUpperSeparationLayers,1
;   supportLowerSeparationLayers,1
;   supportType,0
;   supportGridSpacing,4
;   maxOverhangAngle,45
;   supportAngles,0
;   temperatureName,Primary Extruder,Heated Bed
;   temperatureNumber,0,1
;   temperatureSetpointCount,1,1
;   temperatureSetpointLayers,1,1
;   temperatureSetpointTemperatures,230,56
;   temperatureStabilizeAtStartup,1,1
;   temperatureHeatedBed,0,1
;   fanLayers,1
;   fanSpeeds,0
;   blipFanToFullPower,1
;   adjustSpeedForCooling,1
;   minSpeedLayerTime,15
;   minCoolingSpeedSlowdown,20
;   increaseFanForCooling,0
;   minFanLayerTime,45
;   maxCoolingFanSpeed,100
;   increaseFanForBridging,0
;   bridgingFanSpeed,100
;   use5D,1
;   relativeEdistances,0
;   allowEaxisZeroing,1
;   independentExtruderAxes,0
;   includeM10123,0
;   stickySupport,1
;   applyToolheadOffsets,0
;   gcodeXoffset,0
;   gcodeYoffset,0
;   gcodeZoffset,0
;   overrideMachineDefinition,0
;   machineTypeOverride,0
;   strokeXoverride,200
;   strokeYoverride,200
;   strokeZoverride,150
;   originOffsetXoverride,0
;   originOffsetYoverride,0
;   originOffsetZoverride,0
;   homeXdirOverride,-1
;   homeYdirOverride,-1
;   homeZdirOverride,-1
;   flipXoverride,1
;   flipYoverride,-1
;   flipZoverride,1
;   toolheadOffsets,0,0|0,0|0,0|0,0|0,0|0,0
;   overrideFirmwareConfiguration,0
;   firmwareTypeOverride,RepRap (Marlin/Repetier/Sprinter)
;   GPXconfigOverride,r2
;   baudRateOverride,115200
;   overridePrinterModels,0
;   printerModelsOverride
;   startingGcode,G28,
;   layerChangeGcode,
;   retractionGcode,
;   toolChangeGcode,
;   endingGcode,M104 S0 ; turn off extruder,M140 S0 ; turn off bed,G28 X0 ; home X axis,M84 ; disable motors,M107 ; turn off fan
;   exportFileFormat,gcode
;   celebration,0
;   celebrationSong,Random Song
;   postProcessing,
;   defaultSpeed,3600
;   outlineUnderspeed,0.7
;   solidInfillUnderspeed,0.8
;   supportUnderspeed,0.8
;   rapidXYspeed,7800
;   rapidZspeed,1002
;   minBridgingArea,5
;   bridgingExtraInflation,0
;   bridgingExtrusionMultiplier,1
;   bridgingSpeedMultiplier,0.3
;   useFixedBridgingAngle,0
;   fixedBridgingAngle,0
;   applyBridgingToPerimeters,0
;   filamentDiameters,1.75|1.75|1.75|1.75|1.75|1.75
;   filamentPricesPerKg,1000|1000|1000|1000|1000|1000
;   filamentDensities,1.25|1.25|1.25|1.25|1.25|1.25
;   useMinPrintHeight,1
;   minPrintHeight,0
;   useMaxPrintHeight,1
;   maxPrintHeight,1
;   useDiaphragm,0
;   diaphragmLayerInterval,20
;   robustSlicing,1
;   mergeAllIntoSolid,0
;   onlyRetractWhenCrossingOutline,0
;   retractBetweenLayers,0
;   useRetractionMinTravel,0
;   retractionMinTravel,3
;   retractWhileWiping,0
;   onlyWipeOutlines,1
;   avoidCrossingOutline,0
;   maxMovementDetourFactor,3
;   toolChangeRetractionDistance,0
;   toolChangeExtraRestartDistance,0
;   toolChangeRetractionSpeed,360
;   externalThinWallType,0
;   internalThinWallType,2
;   thinWallAllowedOverlapPercentage,10
;   singleExtrusionMinLength,1
;   singleExtrusionMinPrintingWidthPercentage,50
;   singleExtrusionMaxPrintingWidthPercentage,200
;   singleExtrusionEndpointExtension,0.2
;   horizontalSizeCompensation,0
G90
M82
M106 S0
M140 S56
M190 S56
M104 S230 T0
M109 S230 T0
G28
; process fuselage2per
; layer 1, Z = 0.225
T0
G92 E0.0000
G1 E-0.8000 F1800
; feature skirt
; tool H0.225 W0.462
G1 Z0.225 F1002
G1 X105.459 Y60.455 F7800
G1 E0.1200 F1800
G92 E0.0000
G1 X105.488 Y60.459 E0.0013 F1800
G1 X108.707 Y60.976 E0.1450
G1 X108.726 Y60.988 E0.1460
G1 X108.742 Y60.985 E0.1468
G1 X111.137 Y61.480 E0.2546
G1 X111.173 Y61.488 E0.2562
G1 X113.537 Y62.063 E0.3634
G1 X113.578 Y62.074 E0.3653
G1 X115.825 Y62.718 E0.4683
G1 X115.869 Y62.732 E0.4704
G1 X118.159 Y63.500 E0.5769
G1 X118.209 Y63.518 E0.5792
G1 X120.429 Y64.389 E0.6843
G1 X120.482 Y64.411 E0.6868
G1 X122.655 Y65.404 E0.7921
G1 X122.711 Y65.432 E0.7949
G1 X124.822 Y66.555 E0.9003
G1 X124.881 Y66.589 E0.9033
G1 X126.891 Y67.832 E1.0075
G1 X126.952 Y67.872 E1.0107
G1 X128.935 Y69.300 E1.1184
G1 X128.998 Y69.348 E1.1219
G1 X130.845 Y70.902 E1.2283
G1 X130.906 Y70.959 E1.2320
G1 X133.295 Y73.319 E1.3801
G1 X133.285 Y73.658 E1.3950
G1 X133.623 Y73.694 E1.4100
G1 X135.884 Y76.746 E1.5774
G1 X135.898 Y76.813 E1.5804
G1 X135.948 Y76.849 E1.5831
G1 X137.208 Y78.979 E1.6922
G1 X137.239 Y79.035 E1.6951
G1 X138.058 Y80.638 E1.7744
G1 X138.080 Y80.683 E1.7766
G1 X138.631 Y81.901 E1.8355
G1 X138.647 Y81.938 E1.8373
G1 X139.150 Y83.176 E1.8962
G1 X139.167 Y83.220 E1.8983
G1 X139.758 Y84.888 E1.9763
G1 X139.773 Y84.931 E1.9783
G1 X140.164 Y86.211 E2.0373
G1 X140.177 Y86.257 E2.0394
G1 X140.726 Y88.397 E2.1368
G1 X140.740 Y88.456 E2.1395
G1 X141.241 Y91.029 E2.2550
G1 X141.251 Y91.084 E2.2575
G1 X141.557 Y93.267 E2.3547
G1 X141.562 Y93.313 E2.3567
G1 X141.771 Y95.500 E2.4536
G1 X141.774 Y95.542 E2.4554
G1 X141.895 Y97.753 E2.5530
G1 X141.896 Y97.792 E2.5547
G1 X141.934 Y99.982 E2.6513
G1 X141.934 Y100.019 E2.6529
G1 X141.895 Y102.252 E2.7514
G1 X141.893 Y102.291 E2.7531
G1 X141.769 Y104.524 E2.8517
G1 X141.766 Y104.567 E2.8536
G1 X141.550 Y106.795 E2.9523
G1 X141.545 Y106.837 E2.9541
G1 X141.298 Y108.620 E3.0335
G1 X141.291 Y108.666 E3.0355
G1 X140.885 Y110.878 E3.1347
G1 X140.872 Y110.938 E3.1374
G1 X140.230 Y113.556 E3.2562
G1 X140.214 Y113.614 E3.2589
G1 X139.686 Y115.330 E3.3380
G1 X139.670 Y115.380 E3.3403
G1 X139.050 Y117.082 E3.4201
G1 X139.030 Y117.133 E3.4226
G1 X138.321 Y118.801 E3.5025
G1 X138.297 Y118.853 E3.5050
G1 X137.487 Y120.502 E3.5860
G1 X137.455 Y120.562 E3.5890
G1 X136.325 Y122.530 E3.6890
G1 X136.302 Y122.568 E3.6910
G1 X135.913 Y123.184 E3.7231
G1 X135.897 Y123.195 E3.7240
G1 X135.884 Y123.254 E3.7266
G1 X133.623 Y126.306 E3.8940
G1 X133.285 Y126.342 E3.9090
G1 X133.295 Y126.681 E3.9240
G1 X130.906 Y129.041 E4.0720
G1 X130.845 Y129.098 E4.0757
G1 X128.998 Y130.652 E4.1821
G1 X128.935 Y130.700 E4.1856
G1 X126.952 Y132.128 E4.2933
G1 X126.890 Y132.169 E4.2966
G1 X124.847 Y133.430 E4.4024
G1 X124.789 Y133.464 E4.4054
G1 X122.711 Y134.568 E4.5091
G1 X122.655 Y134.596 E4.5119
G1 X120.482 Y135.588 E4.6172
G1 X120.429 Y135.611 E4.6197
G1 X118.209 Y136.482 E4.7248
G1 X118.159 Y136.500 E4.7272
G1 X115.869 Y137.268 E4.8337
G1 X115.824 Y137.282 E4.8357
G1 X113.508 Y137.944 E4.9419
G1 X113.468 Y137.955 E4.9437
G1 X111.239 Y138.497 E5.0449
G1 X111.204 Y138.505 E5.0464
G1 X108.743 Y139.015 E5.1572
G1 X108.734 Y139.013 E5.1576
G1 X108.728 Y139.018 E5.1580
G1 X106.419 Y139.403 E5.2611
G1 X106.392 Y139.407 E5.2624
G1 X104.036 Y139.737 E5.3672
G1 X104.011 Y139.740 E5.3683
G1 X102.095 Y139.961 E5.4533
G1 X102.069 Y139.964 E5.4545
G1 X99.720 Y140.176 E5.5585
G1 X99.695 Y140.178 E5.5596
G1 X97.336 Y140.334 E5.6638
G1 X97.310 Y140.336 E5.6649
G1 X93.995 Y140.474 E5.8112
G1 X93.972 Y140.475 E5.8122
G1 X92.067 Y140.513 E5.8962
G1 X92.043 Y140.513 E5.8973
G1 X88.720 Y140.504 E6.0437
G1 X88.687 Y140.503 E6.0452
G1 X85.834 Y140.404 E6.1710
G1 X85.805 Y140.402 E6.1723
G1 X84.365 Y140.312 E6.2359
G1 X84.331 Y140.309 E6.2374
G1 X81.932 Y140.081 E6.3437
G1 X81.880 Y140.074 E6.3460
G1 X79.975 Y139.796 E6.4308
G1 X79.914 Y139.786 E6.4336
G1 X78.010 Y139.393 E6.5193
G1 X77.948 Y139.378 E6.5221
G1 X76.525 Y138.992 E6.5871
G1 X76.469 Y138.975 E6.5896
G1 X75.064 Y138.510 E6.6549
G1 X75.017 Y138.493 E6.6571
G1 X74.110 Y138.143 E6.7000
G1 X74.074 Y138.128 E6.7017
G1 X72.730 Y137.552 E6.7661
G1 X72.706 Y137.524 E6.7677
G1 X72.666 Y137.520 E6.7695
G1 X71.221 Y136.772 E6.8412
G1 X71.175 Y136.747 E6.8436
G1 X69.934 Y136.024 E6.9068
G1 X69.886 Y135.995 E6.9093
G1 X68.687 Y135.207 E6.9726
G1 X68.640 Y135.174 E6.9751
G1 X67.503 Y134.336 E7.0374
G1 X67.458 Y134.301 E7.0399
G1 X66.332 Y133.372 E7.1042
G1 X66.288 Y133.334 E7.1068
G1 X65.232 Y132.361 E7.1701
G1 X65.192 Y132.321 E7.1726
G1 X64.188 Y131.290 E7.2360
G1 X64.150 Y131.249 E7.2385
G1 X63.226 Y130.190 E7.3004
G1 X63.198 Y130.157 E7.3023
G1 X62.099 Y128.790 E7.3797
G1 X62.145 Y128.500 E7.3926
G1 X61.838 Y128.434 E7.4064
G1 X60.635 Y126.520 E7.5061
G1 X60.608 Y126.474 E7.5084
G1 X59.885 Y125.184 E7.5736
G1 X59.862 Y125.141 E7.5758
G1 X59.234 Y123.887 E7.6376
G1 X59.214 Y123.844 E7.6397
G1 X58.645 Y122.564 E7.7014
G1 X58.628 Y122.526 E7.7032
G1 X58.139 Y121.297 E7.7616
G1 X58.064 Y120.907 E7.7791
G1 X58.064 Y79.093 E9.6223
G1 X58.139 Y78.703 E9.6398
G1 X58.628 Y77.475 E9.6981
G1 X58.644 Y77.437 E9.6999
G1 X59.213 Y76.158 E9.7616
G1 X59.233 Y76.115 E9.7637
G1 X59.893 Y74.799 E9.8286
G1 X59.917 Y74.754 E9.8308
G1 X60.607 Y73.528 E9.8929
G1 X60.633 Y73.484 E9.8951
G1 X61.838 Y71.567 E9.9949
G1 X62.145 Y71.500 E10.0088
G1 X62.099 Y71.211 E10.0217
G1 X63.195 Y69.845 E10.0989
G1 X63.223 Y69.812 E10.1008
G1 X64.158 Y68.743 E10.1634
G1 X64.196 Y68.701 E10.1659
G1 X65.195 Y67.676 E10.2290
G1 X65.235 Y67.636 E10.2315
G1 X66.292 Y66.663 E10.2948
G1 X66.335 Y66.625 E10.2973
G1 X67.461 Y65.697 E10.3616
G1 X67.506 Y65.662 E10.3641
G1 X68.643 Y64.824 E10.4264
G1 X68.689 Y64.792 E10.4289
G1 X69.888 Y64.004 E10.4921
G1 X69.936 Y63.975 E10.4946
G1 X71.176 Y63.252 E10.5579
G1 X71.222 Y63.227 E10.5602
G1 X72.652 Y62.486 E10.6312
G1 X72.710 Y62.480 E10.6338
G1 X72.749 Y62.435 E10.6364
G1 X74.518 Y61.695 E10.7209
G1 X74.564 Y61.677 E10.7231
G1 X75.502 Y61.336 E10.7671
G1 X75.559 Y61.317 E10.7697
G1 X77.452 Y60.748 E10.8568
G1 X77.507 Y60.733 E10.8594
G1 X78.451 Y60.505 E10.9022
G1 X78.494 Y60.495 E10.9041
G1 X79.923 Y60.213 E10.9684
G1 X79.969 Y60.205 E10.9704
G1 X81.393 Y59.988 E11.0339
G1 X81.431 Y59.982 E11.0356
G1 X82.860 Y59.818 E11.0990
G1 X82.890 Y59.815 E11.1003
G1 X84.350 Y59.689 E11.1649
G1 X84.385 Y59.687 E11.1664
G1 X87.238 Y59.536 E11.2924
G1 X87.273 Y59.535 E11.2940
G1 X90.127 Y59.480 E11.4198
G1 X90.151 Y59.480 E11.4208
G1 X92.057 Y59.487 E11.5049
G1 X92.083 Y59.487 E11.5060
G1 X95.871 Y59.593 E11.6730
G1 X95.895 Y59.594 E11.6741
G1 X97.813 Y59.693 E11.7588
G1 X97.835 Y59.695 E11.7597
G1 X100.651 Y59.900 E11.8842
G1 X100.683 Y59.903 E11.8856
G1 X103.502 Y60.197 E12.0106
G1 X103.530 Y60.201 E12.0118
G1 X105.459 Y60.455 E12.0976
G92 E0.0000
G1 E-0.8000 F1800
G1 X105.395 Y60.912 F7800
G1 E0.1200 F1800
G92 E0.0000
G1 X105.418 Y60.916 E0.0010 F1800
G1 X108.537 Y61.417 E0.1403
G1 X108.630 Y61.477 E0.1451
G1 X108.739 Y61.456 E0.1500
G1 X111.040 Y61.932 E0.2536
G1 X111.067 Y61.938 E0.2549
G1 X113.423 Y62.511 E0.3617
G1 X113.455 Y62.519 E0.3632
G1 X115.693 Y63.161 E0.4658
G1 X115.727 Y63.171 E0.4674
G1 X118.007 Y63.936 E0.5734
G1 X118.045 Y63.950 E0.5752
G1 X120.255 Y64.817 E0.6798
G1 X120.296 Y64.834 E0.6818
G1 X122.456 Y65.822 E0.7865
G1 X122.500 Y65.843 E0.7887
G1 X124.598 Y66.959 E0.8934
G1 X124.645 Y66.986 E0.8958
G1 X126.641 Y68.220 E0.9992
G1 X126.689 Y68.252 E1.0018
G1 X128.658 Y69.669 E1.1087
G1 X128.707 Y69.707 E1.1115
G1 X130.540 Y71.250 E1.2171
G1 X130.588 Y71.294 E1.2199
G1 X132.828 Y73.506 E1.3587
G1 X132.811 Y74.072 E1.3837
G1 X133.372 Y74.132 E1.4085
G1 X135.453 Y76.940 E1.5626
G1 X135.483 Y77.085 E1.5691
G1 X135.600 Y77.168 E1.5754
G1 X136.807 Y79.208 E1.6799
G1 X136.831 Y79.252 E1.6821
G1 X137.645 Y80.843 E1.7609
G1 X137.661 Y80.878 E1.7626
G1 X138.208 Y82.087 E1.8211
G1 X138.221 Y82.116 E1.8225
G1 X138.720 Y83.345 E1.8810
G1 X138.733 Y83.380 E1.8826
G1 X139.321 Y85.038 E1.9601
G1 X139.332 Y85.071 E1.9617
G1 X139.721 Y86.341 E2.0203
G1 X139.731 Y86.377 E2.0219
G1 X140.277 Y88.505 E2.1187
G1 X140.287 Y88.552 E2.1208
G1 X140.787 Y91.111 E2.2358
G1 X140.794 Y91.154 E2.2377
G1 X141.099 Y93.326 E2.3344
G1 X141.103 Y93.362 E2.3360
G1 X141.311 Y95.539 E2.4324
G1 X141.313 Y95.572 E2.4339
G1 X141.433 Y97.774 E2.5311
G1 X141.435 Y97.804 E2.5324
G1 X141.472 Y99.986 E2.6286
G1 X141.472 Y100.015 E2.6299
G1 X141.433 Y102.239 E2.7279
G1 X141.432 Y102.270 E2.7293
G1 X141.308 Y104.494 E2.8275
G1 X141.306 Y104.527 E2.8290
G1 X141.090 Y106.745 E2.9272
G1 X141.086 Y106.778 E2.9287
G1 X140.841 Y108.552 E3.0076
G1 X140.835 Y108.587 E3.0092
G1 X140.432 Y110.788 E3.1078
G1 X140.422 Y110.835 E3.1099
G1 X139.783 Y113.439 E3.2281
G1 X139.771 Y113.485 E3.2302
G1 X139.246 Y115.189 E3.3088
G1 X139.233 Y115.228 E3.3106
G1 X138.618 Y116.918 E3.3899
G1 X138.602 Y116.958 E3.3918
G1 X137.898 Y118.615 E3.4711
G1 X137.879 Y118.655 E3.4731
G1 X137.076 Y120.292 E3.5535
G1 X137.051 Y120.339 E3.5558
G1 X135.927 Y122.295 E3.6553
G1 X135.909 Y122.325 E3.6568
G1 X135.572 Y122.858 E3.6846
G1 X135.483 Y122.920 E3.6894
G1 X135.453 Y123.060 E3.6957
G1 X133.372 Y125.868 E3.8498
G1 X132.811 Y125.928 E3.8746
G1 X132.828 Y126.494 E3.8996
G1 X130.588 Y128.706 E4.0384
G1 X130.540 Y128.750 E4.0413
G1 X128.707 Y130.293 E4.1469
G1 X128.658 Y130.331 E4.1496
G1 X126.688 Y131.748 E4.2566
G1 X126.640 Y131.780 E4.2591
G1 X124.611 Y133.033 E4.3642
G1 X124.565 Y133.059 E4.3666
G1 X122.500 Y134.157 E4.4697
G1 X122.456 Y134.178 E4.4718
G1 X120.296 Y135.166 E4.5765
G1 X120.255 Y135.183 E4.5785
G1 X118.045 Y136.050 E4.6831
G1 X118.007 Y136.064 E4.6849
G1 X115.727 Y136.829 E4.7909
G1 X115.692 Y136.840 E4.7926
G1 X113.385 Y137.499 E4.8983
G1 X113.354 Y137.507 E4.8997
G1 X111.133 Y138.047 E5.0005
G1 X111.106 Y138.053 E5.0017
G1 X108.739 Y138.544 E5.1083
G1 X108.636 Y138.525 E5.1129
G1 X108.555 Y138.578 E5.1172
G1 X106.346 Y138.946 E5.2159
G1 X106.325 Y138.950 E5.2168
G1 X103.974 Y139.279 E5.3215
G1 X103.955 Y139.281 E5.3223
G1 X102.045 Y139.502 E5.4071
G1 X102.025 Y139.504 E5.4080
G1 X99.681 Y139.716 E5.5117
G1 X99.661 Y139.717 E5.5126
G1 X97.308 Y139.873 E5.6165
G1 X97.288 Y139.874 E5.6174
G1 X93.978 Y140.012 E5.7635
G1 X93.961 Y140.013 E5.7642
G1 X92.061 Y140.051 E5.8480
G1 X92.042 Y140.051 E5.8488
G1 X88.726 Y140.042 E5.9950
G1 X88.700 Y140.041 E5.9962
G1 X85.854 Y139.942 E6.1217
G1 X85.831 Y139.941 E6.1227
G1 X84.398 Y139.851 E6.1860
G1 X84.371 Y139.849 E6.1872
G1 X81.982 Y139.621 E6.2930
G1 X81.941 Y139.616 E6.2948
G1 X80.048 Y139.340 E6.3791
G1 X80.001 Y139.332 E6.3812
