; G-Code generated by Simplify3D(R) Version 4.1.1
; Mar 6, 2019 at 8:26:14 PM
; Settings Summary
;   processName,Process1
;   applyToModels,Il-2 fuselage motor wall
;   profileName,Default (modified)
;   profileVersion,2018-08-08 22:14:55
;   baseProfile,Default
;   printMaterial,
;   printQuality,
;   printExtruders,
;   extruderName,Primary Extruder
;   extruderToolheadNumber,0
;   extruderDiameter,0.4
;   extruderAutoWidth,0
;   extruderWidth,0.42
;   extrusionMultiplier,1.02
;   extruderUseRetract,1
;   extruderRetractionDistance,0.8
;   extruderExtraRestartDistance,0.12
;   extruderRetractionZLift,0
;   extruderRetractionSpeed,1800
;   extruderUseCoasting,1
;   extruderCoastingDistance,0.2
;   extruderUseWipe,1
;   extruderWipeDistance,2
;   primaryExtruder,0
;   layerHeight,0.25
;   topSolidLayers,2
;   bottomSolidLayers,2
;   perimeterOutlines,2
;   printPerimetersInsideOut,1
;   startPointOption,3
;   startPointOriginX,200
;   startPointOriginY,0
;   sequentialIslands,0
;   spiralVaseMode,0
;   firstLayerHeightPercentage,90
;   firstLayerWidthPercentage,110
;   firstLayerUnderspeed,0.5
;   useRaft,0
;   raftExtruder,0
;   raftTopLayers,3
;   raftBaseLayers,2
;   raftOffset,3
;   raftSeparationDistance,0.14
;   raftTopInfill,100
;   aboveRaftSpeedMultiplier,0.3
;   useSkirt,1
;   skirtExtruder,0
;   skirtLayers,1
;   skirtOutlines,1
;   skirtOffset,1.4
;   usePrimePillar,0
;   primePillarExtruder,999
;   primePillarWidth,12
;   primePillarLocation,7
;   primePillarSpeedMultiplier,1
;   useOozeShield,0
;   oozeShieldExtruder,999
;   oozeShieldOffset,2
;   oozeShieldOutlines,1
;   oozeShieldSidewallShape,1
;   oozeShieldSidewallAngle,30
;   oozeShieldSpeedMultiplier,1
;   infillExtruder,0
;   internalInfillPattern,Rectilinear
;   externalInfillPattern,Rectilinear
;   infillPercentage,0
;   outlineOverlapPercentage,15
;   infillExtrusionWidthPercentage,100
;   minInfillLength,5
;   infillLayerInterval,1
;   internalInfillAngles,45,-45
;   overlapInternalInfillAngles,0
;   externalInfillAngles,45,-45
;   generateSupport,1
;   supportExtruder,0
;   supportInfillPercentage,30
;   supportExtraInflation,0
;   supportBaseLayers,0
;   denseSupportExtruder,0
;   denseSupportLayers,0
;   denseSupportInfillPercentage,70
;   supportLayerInterval,1
;   supportHorizontalPartOffset,0.3
;   supportUpperSeparationLayers,1
;   supportLowerSeparationLayers,1
;   supportType,0
;   supportGridSpacing,4
;   maxOverhangAngle,45
;   supportAngles,0
;   temperatureName,Primary Extruder,Heated Bed
;   temperatureNumber,0,1
;   temperatureSetpointCount,1,1
;   temperatureSetpointLayers,1,1
;   temperatureSetpointTemperatures,230,56
;   temperatureStabilizeAtStartup,1,1
;   temperatureHeatedBed,0,1
;   fanLayers,1
;   fanSpeeds,0
;   blipFanToFullPower,1
;   adjustSpeedForCooling,1
;   minSpeedLayerTime,15
;   minCoolingSpeedSlowdown,30
;   increaseFanForCooling,0
;   minFanLayerTime,45
;   maxCoolingFanSpeed,100
;   increaseFanForBridging,0
;   bridgingFanSpeed,100
;   use5D,1
;   relativeEdistances,0
;   allowEaxisZeroing,1
;   independentExtruderAxes,0
;   includeM10123,0
;   stickySupport,1
;   applyToolheadOffsets,0
;   gcodeXoffset,0
;   gcodeYoffset,0
;   gcodeZoffset,0
;   overrideMachineDefinition,0
;   machineTypeOverride,0
;   strokeXoverride,195
;   strokeYoverride,195
;   strokeZoverride,150
;   originOffsetXoverride,0
;   originOffsetYoverride,0
;   originOffsetZoverride,0
;   homeXdirOverride,-1
;   homeYdirOverride,-1
;   homeZdirOverride,-1
;   flipXoverride,1
;   flipYoverride,-1
;   flipZoverride,1
;   toolheadOffsets,0,0|0,0|0,0|0,0|0,0|0,0
;   overrideFirmwareConfiguration,0
;   firmwareTypeOverride,RepRap (Marlin/Repetier/Sprinter)
;   GPXconfigOverride,r2
;   baudRateOverride,115200
;   overridePrinterModels,0
;   printerModelsOverride
;   startingGcode,G28,
;   layerChangeGcode,
;   retractionGcode,
;   toolChangeGcode,
;   endingGcode,M104 S0 ; turn off extruder,M140 S0 ; turn off bed,G28 X0 ; home X axis,M84 ; disable motors,M107 ; turn off fan
;   exportFileFormat,gcode
;   celebration,0
;   celebrationSong,Random Song
;   postProcessing,
;   defaultSpeed,1200
;   outlineUnderspeed,0.7
;   solidInfillUnderspeed,0.8
;   supportUnderspeed,0.8
;   rapidXYspeed,7800
;   rapidZspeed,1002
;   minBridgingArea,5
;   bridgingExtraInflation,0
;   bridgingExtrusionMultiplier,1
;   bridgingSpeedMultiplier,0.3
;   useFixedBridgingAngle,0
;   fixedBridgingAngle,0
;   applyBridgingToPerimeters,0
;   filamentDiameters,1.75|1.75|1.75|1.75|1.75|1.75
;   filamentPricesPerKg,1000|1000|1000|1000|1000|1000
;   filamentDensities,1.25|1.25|1.25|1.25|1.25|1.25
;   useMinPrintHeight,1
;   minPrintHeight,0
;   useMaxPrintHeight,1
;   maxPrintHeight,1
;   useDiaphragm,0
;   diaphragmLayerInterval,20
;   robustSlicing,1
;   mergeAllIntoSolid,0
;   onlyRetractWhenCrossingOutline,0
;   retractBetweenLayers,0
;   useRetractionMinTravel,0
;   retractionMinTravel,3
;   retractWhileWiping,0
;   onlyWipeOutlines,1
;   avoidCrossingOutline,0
;   maxMovementDetourFactor,3
;   toolChangeRetractionDistance,0
;   toolChangeExtraRestartDistance,0
;   toolChangeRetractionSpeed,360
;   externalThinWallType,0
;   internalThinWallType,2
;   thinWallAllowedOverlapPercentage,10
;   singleExtrusionMinLength,1
;   singleExtrusionMinPrintingWidthPercentage,50
;   singleExtrusionMaxPrintingWidthPercentage,200
;   singleExtrusionEndpointExtension,0.2
;   horizontalSizeCompensation,0
G90
M82
M106 S0
M140 S56
M190 S56
M104 S230 T0
M109 S230 T0
G28
; process Process1
; layer 1, Z = 0.225
T0
G92 E0.0000
G1 E-0.8000 F1800
; feature skirt
; tool H0.225 W0.462
G1 Z0.225 F1002
G1 X116.670 Y78.301 F7800
G1 E0.1200 F1800
G92 E0.0000
G1 X116.699 Y78.330 E0.0019 F600
G1 X117.637 Y79.318 E0.0619
G1 X117.666 Y79.349 E0.0638
G1 X118.550 Y80.383 E0.1237
G1 X118.576 Y80.416 E0.1256
G1 X119.404 Y81.491 E0.1854
G1 X119.429 Y81.524 E0.1872
G1 X120.197 Y82.636 E0.2468
G1 X120.220 Y82.671 E0.2486
G1 X120.926 Y83.814 E0.3079
G1 X120.947 Y83.850 E0.3097
G1 X121.590 Y85.020 E0.3686
G1 X121.609 Y85.057 E0.3704
G1 X122.188 Y86.249 E0.4288
G1 X122.205 Y86.286 E0.4306
G1 X122.719 Y87.494 E0.4885
G1 X122.733 Y87.532 E0.4903
G1 X123.182 Y88.751 E0.5475
G1 X123.195 Y88.789 E0.5493
G1 X123.581 Y90.025 E0.6064
G1 X123.597 Y90.082 E0.6090
G1 X124.171 Y92.524 E0.7196
G1 X124.185 Y92.600 E0.7230
G1 X124.518 Y95.024 E0.8308
G1 X124.525 Y95.098 E0.8341
G1 X124.631 Y97.463 E0.9385
G1 X124.631 Y97.537 E0.9417
G1 X124.525 Y99.902 E1.0461
G1 X124.518 Y99.976 E1.0494
G1 X124.185 Y102.400 E1.1572
G1 X124.171 Y102.476 E1.1606
G1 X123.597 Y104.918 E1.2712
G1 X123.581 Y104.975 E1.2738
G1 X123.195 Y106.211 E1.3309
G1 X123.182 Y106.249 E1.3326
G1 X122.733 Y107.468 E1.3899
G1 X122.719 Y107.506 E1.3917
G1 X122.205 Y108.714 E1.4496
G1 X122.188 Y108.751 E1.4514
G1 X121.609 Y109.943 E1.5098
G1 X121.590 Y109.980 E1.5116
G1 X120.947 Y111.150 E1.5705
G1 X120.926 Y111.186 E1.5723
G1 X120.220 Y112.329 E1.6315
G1 X120.197 Y112.364 E1.6334
G1 X119.429 Y113.476 E1.6929
G1 X119.404 Y113.509 E1.6948
G1 X118.576 Y114.584 E1.7546
G1 X118.550 Y114.617 E1.7564
G1 X117.666 Y115.651 E1.8164
G1 X117.637 Y115.682 E1.8183
G1 X116.699 Y116.670 E1.8783
G1 X116.670 Y116.699 E1.8802
G1 X115.682 Y117.637 E1.9402
G1 X115.651 Y117.666 E1.9421
G1 X114.617 Y118.550 E2.0020
G1 X114.584 Y118.576 E2.0039
G1 X113.509 Y119.404 E2.0637
G1 X113.476 Y119.429 E2.0655
G1 X112.364 Y120.197 E2.1251
G1 X112.329 Y120.220 E2.1269
G1 X111.186 Y120.926 E2.1862
G1 X111.150 Y120.947 E2.1880
G1 X109.980 Y121.590 E2.2469
G1 X109.943 Y121.609 E2.2487
G1 X108.751 Y122.188 E2.3071
G1 X108.714 Y122.205 E2.3089
G1 X107.506 Y122.719 E2.3668
G1 X107.468 Y122.733 E2.3686
G1 X106.249 Y123.182 E2.4258
G1 X106.211 Y123.195 E2.4276
G1 X104.975 Y123.581 E2.4847
G1 X104.918 Y123.597 E2.4873
G1 X102.476 Y124.171 E2.5979
G1 X102.400 Y124.185 E2.6013
G1 X99.976 Y124.518 E2.7091
G1 X99.902 Y124.525 E2.7124
G1 X97.537 Y124.631 E2.8168
G1 X97.463 Y124.631 E2.8200
G1 X95.098 Y124.525 E2.9244
G1 X95.024 Y124.518 E2.9277
G1 X92.600 Y124.185 E3.0355
G1 X92.524 Y124.171 E3.0389
G1 X90.082 Y123.597 E3.1495
G1 X90.025 Y123.581 E3.1521
G1 X88.789 Y123.195 E3.2092
G1 X88.751 Y123.182 E3.2109
G1 X87.532 Y122.733 E3.2682
G1 X87.494 Y122.719 E3.2700
G1 X86.286 Y122.205 E3.3279
G1 X86.249 Y122.188 E3.3297
G1 X85.057 Y121.609 E3.3881
G1 X85.020 Y121.590 E3.3899
G1 X83.850 Y120.947 E3.4488
G1 X83.814 Y120.926 E3.4506
G1 X82.671 Y120.220 E3.5098
G1 X82.636 Y120.197 E3.5117
G1 X81.524 Y119.429 E3.5712
G1 X81.491 Y119.404 E3.5731
G1 X80.416 Y118.576 E3.6329
G1 X80.383 Y118.550 E3.6347
G1 X79.349 Y117.666 E3.6947
G1 X79.318 Y117.637 E3.6966
G1 X78.330 Y116.699 E3.7566
G1 X78.301 Y116.670 E3.7585
G1 X77.363 Y115.682 E3.8185
G1 X77.334 Y115.651 E3.8204
G1 X76.450 Y114.617 E3.8803
G1 X76.424 Y114.584 E3.8822
G1 X75.596 Y113.509 E3.9420
G1 X75.571 Y113.476 E3.9438
G1 X74.803 Y112.364 E4.0034
G1 X74.780 Y112.329 E4.0052
G1 X74.074 Y111.186 E4.0645
G1 X74.053 Y111.150 E4.0663
G1 X73.409 Y109.980 E4.1252
G1 X73.391 Y109.943 E4.1270
G1 X72.812 Y108.751 E4.1854
G1 X72.795 Y108.714 E4.1872
G1 X72.281 Y107.506 E4.2451
G1 X72.267 Y107.468 E4.2469
G1 X71.818 Y106.249 E4.3041
G1 X71.805 Y106.211 E4.3059
G1 X71.419 Y104.975 E4.3630
G1 X71.403 Y104.918 E4.3656
G1 X70.829 Y102.476 E4.4762
G1 X70.815 Y102.400 E4.4796
G1 X70.482 Y99.976 E4.5874
G1 X70.475 Y99.902 E4.5907
G1 X70.369 Y97.537 E4.6951
G1 X70.369 Y97.463 E4.6983
G1 X70.475 Y95.098 E4.8027
G1 X70.482 Y95.024 E4.8060
G1 X70.815 Y92.600 E4.9138
G1 X70.829 Y92.524 E4.9172
G1 X71.403 Y90.082 E5.0278
G1 X71.419 Y90.025 E5.0304
G1 X71.805 Y88.789 E5.0875
G1 X71.818 Y88.751 E5.0892
G1 X72.267 Y87.531 E5.1466
G1 X72.282 Y87.492 E5.1484
G1 X72.814 Y86.247 E5.2081
G1 X72.830 Y86.211 E5.2098
G1 X73.391 Y85.057 E5.2664
G1 X73.409 Y85.020 E5.2682
G1 X74.053 Y83.850 E5.3271
G1 X74.074 Y83.814 E5.3289
G1 X74.780 Y82.671 E5.3881
G1 X74.803 Y82.636 E5.3900
G1 X75.571 Y81.524 E5.4495
G1 X75.596 Y81.491 E5.4514
G1 X76.424 Y80.416 E5.5112
G1 X76.450 Y80.383 E5.5131
G1 X77.334 Y79.349 E5.5730
G1 X77.363 Y79.318 E5.5749
G1 X78.301 Y78.330 E5.6349
G1 X78.330 Y78.301 E5.6368
G1 X79.318 Y77.363 E5.6968
G1 X79.349 Y77.334 E5.6987
G1 X80.383 Y76.450 E5.7586
G1 X80.416 Y76.424 E5.7605
G1 X81.491 Y75.596 E5.8203
G1 X81.524 Y75.571 E5.8221
G1 X82.636 Y74.803 E5.8817
G1 X82.671 Y74.780 E5.8836
G1 X83.814 Y74.074 E5.9428
G1 X83.850 Y74.053 E5.9446
G1 X85.020 Y73.410 E6.0035
G1 X85.057 Y73.391 E6.0053
G1 X86.249 Y72.812 E6.0637
G1 X86.286 Y72.795 E6.0655
G1 X87.494 Y72.281 E6.1234
G1 X87.532 Y72.267 E6.1252
G1 X88.751 Y71.818 E6.1824
G1 X88.789 Y71.805 E6.1842
G1 X90.025 Y71.419 E6.2413
G1 X90.082 Y71.403 E6.2439
G1 X92.524 Y70.829 E6.3545
G1 X92.600 Y70.815 E6.3579
G1 X95.024 Y70.482 E6.4657
G1 X95.098 Y70.475 E6.4690
G1 X97.463 Y70.369 E6.5734
G1 X97.537 Y70.369 E6.5766
G1 X99.902 Y70.475 E6.6810
G1 X99.976 Y70.482 E6.6843
G1 X102.400 Y70.815 E6.7921
G1 X102.476 Y70.829 E6.7955
G1 X104.918 Y71.403 E6.9061
G1 X104.975 Y71.419 E6.9087
G1 X106.211 Y71.805 E6.9658
G1 X106.249 Y71.818 E6.9676
G1 X107.468 Y72.267 E7.0248
G1 X107.506 Y72.281 E7.0266
G1 X108.714 Y72.795 E7.0845
G1 X108.751 Y72.812 E7.0863
G1 X109.943 Y73.391 E7.1447
G1 X109.980 Y73.409 E7.1465
G1 X111.150 Y74.053 E7.2054
G1 X111.186 Y74.074 E7.2072
G1 X112.329 Y74.780 E7.2664
G1 X112.364 Y74.803 E7.2683
G1 X113.476 Y75.571 E7.3279
G1 X113.509 Y75.596 E7.3297
G1 X114.584 Y76.424 E7.3895
G1 X114.617 Y76.450 E7.3914
G1 X115.651 Y77.334 E7.4513
G1 X115.682 Y77.363 E7.4532
G1 X116.670 Y78.301 E7.5132
G92 E0.0000
G1 E-0.8000 F1800
; feature inner perimeter
G1 X115.041 Y79.959 F7800
G1 E0.1200 F1800
G92 E0.0000
G1 X115.925 Y80.890 E0.0566 F510
G1 X116.759 Y81.864 E0.1131
G1 X117.539 Y82.878 E0.1695
G1 X118.263 Y83.926 E0.2256
G1 X118.929 Y85.003 E0.2815
G1 X119.535 Y86.106 E0.3370
G1 X120.081 Y87.230 E0.3920
G1 X120.565 Y88.369 E0.4466
G1 X120.988 Y89.519 E0.5006
G1 X121.347 Y90.666 E0.5536
G1 X121.892 Y92.987 E0.6587
G1 X122.206 Y95.272 E0.7603
G1 X122.306 Y97.500 E0.8587
G1 X122.206 Y99.728 E0.9570
G1 X121.892 Y102.013 E1.0587
G1 X121.347 Y104.334 E1.1638
G1 X120.988 Y105.481 E1.2168
G1 X120.565 Y106.631 E1.2708
G1 X120.081 Y107.770 E1.3253
G1 X119.535 Y108.894 E1.3804
G1 X118.929 Y109.997 E1.4359
G1 X118.263 Y111.074 E1.4917
G1 X117.539 Y112.122 E1.5479
G1 X116.759 Y113.136 E1.6042
G1 X115.925 Y114.110 E1.6608
G1 X115.041 Y115.041 E1.7174
G1 X114.110 Y115.925 E1.7740
G1 X113.136 Y116.759 E1.8305
G1 X112.122 Y117.539 E1.8869
G1 X111.074 Y118.263 E1.9430
G1 X109.997 Y118.929 E1.9989
G1 X108.894 Y119.535 E2.0543
G1 X107.770 Y120.081 E2.1094
G1 X106.631 Y120.565 E2.1640
G1 X105.481 Y120.988 E2.2180
G1 X104.334 Y121.347 E2.2710
G1 X102.013 Y121.892 E2.3760
G1 X99.728 Y122.206 E2.4777
G1 X97.500 Y122.306 E2.5760
G1 X95.272 Y122.206 E2.6744
G1 X92.987 Y121.892 E2.7760
G1 X90.666 Y121.347 E2.8811
G1 X89.519 Y120.988 E2.9341
G1 X88.369 Y120.565 E2.9881
G1 X87.230 Y120.081 E3.0427
G1 X86.106 Y119.535 E3.0977
G1 X85.003 Y118.929 E3.1532
G1 X83.926 Y118.263 E3.2091
G1 X82.878 Y117.539 E3.2652
G1 X81.864 Y116.759 E3.3216
G1 X80.890 Y115.925 E3.3781
G1 X79.959 Y115.041 E3.4347
G1 X79.075 Y114.110 E3.4913
G1 X78.241 Y113.136 E3.5478
G1 X77.461 Y112.122 E3.6042
G1 X76.737 Y111.074 E3.6604
G1 X76.071 Y109.997 E3.7162
G1 X75.465 Y108.894 E3.7717
G1 X74.919 Y107.770 E3.8267
G1 X74.435 Y106.631 E3.8813
G1 X74.012 Y105.481 E3.9353
G1 X73.653 Y104.334 E3.9883
G1 X73.108 Y102.013 E4.0934
G1 X72.794 Y99.728 E4.1951
G1 X72.694 Y97.500 E4.2934
G1 X72.794 Y95.272 E4.3917
G1 X73.108 Y92.987 E4.4934
G1 X73.653 Y90.666 E4.5985
G1 X74.012 Y89.519 E4.6515
G1 X74.435 Y88.369 E4.7054
G1 X74.937 Y87.193 E4.7618
G1 X75.465 Y86.106 E4.8151
G1 X76.071 Y85.003 E4.8706
G1 X76.737 Y83.926 E4.9264
G1 X77.461 Y82.878 E4.9826
G1 X78.241 Y81.864 E5.0389
G1 X79.075 Y80.890 E5.0955
G1 X79.959 Y79.959 E5.1521
G1 X80.890 Y79.075 E5.2087
G1 X81.864 Y78.241 E5.2652
G1 X82.878 Y77.461 E5.3216
G1 X83.926 Y76.737 E5.3777
G1 X85.003 Y76.071 E5.4336
G1 X86.106 Y75.465 E5.4890
G1 X87.230 Y74.919 E5.5441
G1 X88.369 Y74.435 E5.5987
G1 X89.519 Y74.012 E5.6527
G1 X90.666 Y73.653 E5.7057
G1 X92.987 Y73.108 E5.8107
G1 X95.272 Y72.794 E5.9124
G1 X97.500 Y72.694 E6.0107
G1 X99.728 Y72.794 E6.1091
G1 X102.013 Y73.108 E6.2107
G1 X104.334 Y73.653 E6.3158
G1 X105.481 Y74.012 E6.3688
G1 X106.631 Y74.435 E6.4228
G1 X107.770 Y74.919 E6.4774
G1 X108.894 Y75.465 E6.5324
G1 X109.997 Y76.071 E6.5879
G1 X111.074 Y76.737 E6.6438
G1 X112.122 Y77.461 E6.6999
G1 X113.136 Y78.241 E6.7563
G1 X114.110 Y79.075 E6.8128
G1 X114.896 Y79.821 E6.8606
G1 X115.041 Y79.959 F510
G92 E0.0000
G1 E-0.8000 F1800
; feature outer perimeter
G1 X115.368 Y79.632 F7800
G1 E0.1200 F1800
G92 E0.0000
G1 X116.268 Y80.581 E0.0577 F420
G1 X117.118 Y81.573 E0.1152
G1 X117.912 Y82.605 E0.1727
G1 X118.650 Y83.673 E0.2299
G1 X119.328 Y84.770 E0.2867
G1 X119.946 Y85.894 E0.3433
G1 X120.502 Y87.039 E0.3993
G1 X120.995 Y88.199 E0.4549
G1 X121.425 Y89.370 E0.5099
G1 X121.793 Y90.544 E0.5642
G1 X122.347 Y92.902 E0.6709
G1 X122.667 Y95.230 E0.7745
G1 X122.769 Y97.500 E0.8747
G1 X122.667 Y99.770 E0.9749
G1 X122.347 Y102.098 E1.0784
G1 X121.793 Y104.455 E1.1852
G1 X121.425 Y105.630 E1.2395
G1 X120.995 Y106.801 E1.2944
G1 X120.502 Y107.961 E1.3500
G1 X119.946 Y109.106 E1.4061
G1 X119.328 Y110.230 E1.4626
G1 X118.650 Y111.327 E1.5195
G1 X117.912 Y112.395 E1.5767
G1 X117.118 Y113.427 E1.6341
G1 X116.268 Y114.419 E1.6917
G1 X115.368 Y115.368 E1.7494
G1 X114.419 Y116.268 E1.8070
G1 X113.427 Y117.118 E1.8646
G1 X112.395 Y117.912 E1.9220
G1 X111.327 Y118.650 E1.9792
G1 X110.230 Y119.328 E2.0361
G1 X109.106 Y119.946 E2.0926
G1 X107.961 Y120.502 E2.1487
G1 X106.801 Y120.995 E2.2043
G1 X105.630 Y121.425 E2.2593
G1 X104.456 Y121.793 E2.3135
G1 X102.098 Y122.347 E2.4203
G1 X99.770 Y122.667 E2.5239
G1 X97.500 Y122.769 E2.6240
G1 X95.230 Y122.667 E2.7242
G1 X92.902 Y122.347 E2.8278
G1 X90.544 Y121.793 E2.9345
G1 X89.370 Y121.425 E2.9888
G1 X88.199 Y120.995 E3.0438
G1 X87.039 Y120.502 E3.0994
G1 X85.894 Y119.946 E3.1555
