; G-Code generated by Simplify3D(R) Version 4.1.1
; Mar 6, 2019 at 8:16:53 PM
; Settings Summary
;   processName,thick
;   applyToModels,Il-2 fuselage battery holder
;   profileName,Default (modified)
;   profileVersion,2016-04-14 15:44:02
;   baseProfile,Default
;   printMaterial,
;   printQuality,
;   printExtruders,
;   extruderName,Primary Extruder
;   extruderToolheadNumber,0
;   extruderDiameter,0.4
;   extruderAutoWidth,0
;   extruderWidth,0.42
;   extrusionMultiplier,1.02
;   extruderUseRetract,1
;   extruderRetractionDistance,0.8
;   extruderExtraRestartDistance,0
;   extruderRetractionZLift,0
;   extruderRetractionSpeed,1800
;   extruderUseCoasting,1
;   extruderCoastingDistance,0.2
;   extruderUseWipe,1
;   extruderWipeDistance,2
;   primaryExtruder,0
;   layerHeight,0.25
;   topSolidLayers,3
;   bottomSolidLayers,3
;   perimeterOutlines,3
;   printPerimetersInsideOut,1
;   startPointOption,1
;   startPointOriginX,200
;   startPointOriginY,0
;   sequentialIslands,0
;   spiralVaseMode,0
;   firstLayerHeightPercentage,90
;   firstLayerWidthPercentage,103
;   firstLayerUnderspeed,0.5
;   useRaft,0
;   raftExtruder,0
;   raftTopLayers,3
;   raftBaseLayers,2
;   raftOffset,3
;   raftSeparationDistance,0.14
;   raftTopInfill,100
;   aboveRaftSpeedMultiplier,0.3
;   useSkirt,1
;   skirtExtruder,0
;   skirtLayers,1
;   skirtOutlines,1
;   skirtOffset,1.4
;   usePrimePillar,0
;   primePillarExtruder,999
;   primePillarWidth,12
;   primePillarLocation,7
;   primePillarSpeedMultiplier,1
;   useOozeShield,0
;   oozeShieldExtruder,999
;   oozeShieldOffset,2
;   oozeShieldOutlines,1
;   oozeShieldSidewallShape,1
;   oozeShieldSidewallAngle,30
;   oozeShieldSpeedMultiplier,1
;   infillExtruder,0
;   internalInfillPattern,Grid
;   externalInfillPattern,Rectilinear
;   infillPercentage,20
;   outlineOverlapPercentage,15
;   infillExtrusionWidthPercentage,100
;   minInfillLength,5
;   infillLayerInterval,1
;   internalInfillAngles,0,90
;   overlapInternalInfillAngles,1
;   externalInfillAngles,0,90
;   generateSupport,0
;   supportExtruder,0
;   supportInfillPercentage,30
;   supportExtraInflation,0
;   supportBaseLayers,0
;   denseSupportExtruder,0
;   denseSupportLayers,0
;   denseSupportInfillPercentage,70
;   supportLayerInterval,1
;   supportHorizontalPartOffset,0.3
;   supportUpperSeparationLayers,1
;   supportLowerSeparationLayers,1
;   supportType,0
;   supportGridSpacing,4
;   maxOverhangAngle,45
;   supportAngles,0
;   temperatureName,Primary Extruder,Heated Bed
;   temperatureNumber,0,1
;   temperatureSetpointCount,1,1
;   temperatureSetpointLayers,1,1
;   temperatureSetpointTemperatures,230,50
;   temperatureStabilizeAtStartup,1,1
;   temperatureHeatedBed,0,1
;   fanLayers,1,2
;   fanSpeeds,0,60
;   blipFanToFullPower,1
;   adjustSpeedForCooling,1
;   minSpeedLayerTime,15
;   minCoolingSpeedSlowdown,30
;   increaseFanForCooling,0
;   minFanLayerTime,45
;   maxCoolingFanSpeed,100
;   increaseFanForBridging,0
;   bridgingFanSpeed,100
;   use5D,1
;   relativeEdistances,0
;   allowEaxisZeroing,1
;   independentExtruderAxes,0
;   includeM10123,0
;   stickySupport,1
;   applyToolheadOffsets,0
;   gcodeXoffset,0
;   gcodeYoffset,0
;   gcodeZoffset,0
;   overrideMachineDefinition,0
;   machineTypeOverride,0
;   strokeXoverride,200
;   strokeYoverride,200
;   strokeZoverride,150
;   originOffsetXoverride,0
;   originOffsetYoverride,0
;   originOffsetZoverride,0
;   homeXdirOverride,-1
;   homeYdirOverride,-1
;   homeZdirOverride,-1
;   flipXoverride,1
;   flipYoverride,-1
;   flipZoverride,1
;   toolheadOffsets,0,0|0,0|0,0|0,0|0,0|0,0
;   overrideFirmwareConfiguration,0
;   firmwareTypeOverride,RepRap (Marlin/Repetier/Sprinter)
;   GPXconfigOverride,r2
;   baudRateOverride,115200
;   overridePrinterModels,0
;   printerModelsOverride
;   startingGcode,G28,
;   layerChangeGcode,
;   retractionGcode,
;   toolChangeGcode,
;   endingGcode,M104 S0 ; turn off extruder,M140 S0 ; turn off bed,G28 X0 ; home X axis,M84 ; disable motors,M107 ; turn off fan
;   exportFileFormat,gcode
;   celebration,0
;   celebrationSong,Random Song
;   postProcessing,
;   defaultSpeed,3600
;   outlineUnderspeed,0.7
;   solidInfillUnderspeed,0.8
;   supportUnderspeed,0.8
;   rapidXYspeed,7800
;   rapidZspeed,1002
;   minBridgingArea,5
;   bridgingExtraInflation,0
;   bridgingExtrusionMultiplier,1
;   bridgingSpeedMultiplier,0.3
;   useFixedBridgingAngle,0
;   fixedBridgingAngle,0
;   applyBridgingToPerimeters,0
;   filamentDiameters,1.75|1.75|1.75|1.75|1.75|1.75
;   filamentPricesPerKg,1000|1000|1000|1000|1000|1000
;   filamentDensities,1.25|1.25|1.25|1.25|1.25|1.25
;   useMinPrintHeight,0
;   minPrintHeight,0
;   useMaxPrintHeight,0
;   maxPrintHeight,1
;   useDiaphragm,0
;   diaphragmLayerInterval,20
;   robustSlicing,1
;   mergeAllIntoSolid,0
;   onlyRetractWhenCrossingOutline,0
;   retractBetweenLayers,0
;   useRetractionMinTravel,0
;   retractionMinTravel,3
;   retractWhileWiping,0
;   onlyWipeOutlines,1
;   avoidCrossingOutline,1
;   maxMovementDetourFactor,4
;   toolChangeRetractionDistance,0
;   toolChangeExtraRestartDistance,0
;   toolChangeRetractionSpeed,360
;   externalThinWallType,0
;   internalThinWallType,2
;   thinWallAllowedOverlapPercentage,50
;   singleExtrusionMinLength,1
;   singleExtrusionMinPrintingWidthPercentage,50
;   singleExtrusionMaxPrintingWidthPercentage,200
;   singleExtrusionEndpointExtension,0.2
;   horizontalSizeCompensation,0
G90
M82
M106 S0
M140 S50
M190 S50
M104 S230 T0
M109 S230 T0
G28
; process thick
; layer 1, Z = 0.225
T0
G92 E0.0000
G1 E-0.8000 F1800
; feature skirt
; tool H0.225 W0.433
G1 Z0.225 F1002
G1 X149.207 Y9.922 F7800
G1 E0.0000 F1800
G92 E0.0000
G1 X190.076 Y50.795 E2.3858 F1800
G1 X190.076 Y52.134 E2.4411
G1 X71.975 Y170.235 E9.3350
G1 X71.538 Y170.464 E9.3554
G1 X55.601 Y173.356 E10.0240
G1 X46.641 Y182.315 E10.5470
G1 X46.458 Y182.453 E10.5564
G1 X32.483 Y190.138 E11.2148
G1 X31.415 Y189.986 E11.2593
G1 X10.014 Y168.585 E12.5085
G1 X9.862 Y167.517 E12.5530
G1 X17.547 Y153.542 E13.2114
G1 X17.685 Y153.359 E13.2208
G1 X26.644 Y144.399 E13.7438
G1 X29.536 Y128.462 E14.4124
G1 X29.765 Y128.025 E14.4327
G1 X147.868 Y9.922 E21.3269
G1 X149.207 Y9.922 E21.3821
G92 E0.0000
G1 E-0.8000 F1800
; feature inner perimeter
G1 X148.538 Y11.844 F7800
G1 X141.220 Y19.162
G1 X106.873 Y58.896
G1 X100.749 Y65.019
G1 X100.506 Y65.319
G1 X100.315 Y65.695
G1 X100.209 Y66.120
G1 X100.203 Y66.565
G1 X100.211 Y66.603
G1 X90.394 Y77.960
G1 X90.447 Y78.003
G1 X90.858 Y78.413
G1 X91.113 Y78.732
G1 X91.301 Y79.124
G1 X91.397 Y79.555
G1 X91.391 Y80.000
G1 X91.284 Y80.425
G1 X91.093 Y80.801
G1 X90.850 Y81.100
G1 X76.341 Y95.610
G1 X76.022 Y95.865
G1 X75.632 Y96.056
G1 X75.201 Y96.155
G1 X74.756 Y96.152
G1 X74.683 Y96.134
G1 X12.877 Y167.633
G1 E0.0000 F1800
G92 E0.0000
G1 X19.782 Y155.077 E0.5915 F1530
G1 X29.148 Y145.711 E1.1382
G1 X32.086 Y129.519 E1.8175
G1 X148.537 Y13.068 E8.6152
G1 X186.930 Y51.465 E10.8564
G1 X70.481 Y167.914 E17.6540
G1 X54.289 Y170.852 E18.3332
G1 X44.923 Y180.218 E18.8799
G1 X32.367 Y187.123 E19.4714
G1 X13.019 Y167.775 E20.6008
G1 X12.877 Y167.633 F1530
G92 E0.0000
G1 E-0.8000 F1800
G1 X70.691 Y168.315 F7800
G1 E0.0000 F1800
G92 E0.0000
G1 X54.500 Y171.253 E0.6792 F1530
G1 X45.186 Y180.567 E1.2229
G1 X32.291 Y187.658 E1.8304
G1 X12.342 Y167.709 E2.9948
G1 X19.433 Y154.814 E3.6023
G1 X28.747 Y145.500 E4.1460
G1 X31.685 Y129.309 E4.8252
G1 X148.537 Y12.456 E11.6464
G1 X187.542 Y51.465 E13.9233
G1 X70.833 Y168.174 E20.7361
G1 X70.691 Y168.315 F1530
G92 E0.0000
G1 E-0.8000 F1800
; feature outer perimeter
G1 X61.743 Y159.410 F7800
G1 X61.295 Y159.826
G1 X60.030 Y160.837
G1 X58.695 Y161.752
G1 X57.295 Y162.562
G1 X55.834 Y163.259
G1 X54.316 Y163.834
G1 X52.754 Y164.274
G1 X51.159 Y164.564
G1 X49.787 Y164.682
G1 X48.411 Y164.673
G1 X47.043 Y164.527
G1 X45.694 Y164.235
G1 X44.379 Y163.785
G1 X43.137 Y163.182
G1 X41.984 Y162.423
G1 X40.938 Y161.515
G1 X38.415 Y159.002
G1 X37.504 Y157.962
G1 X36.743 Y156.815
G1 X36.136 Y155.578
G1 X35.684 Y154.268
G1 X35.388 Y152.923
G1 X35.241 Y151.558
G1 X35.231 Y150.185
G1 X35.349 Y148.816
G1 X35.639 Y147.224
G1 X36.080 Y145.665
G1 X36.657 Y144.152
G1 X37.357 Y142.695
G1 X38.169 Y141.300
G1 X39.086 Y139.969
G1 X40.100 Y138.710
G1 X40.505 Y138.276
G1 X31.283 Y129.099
G1 E0.0000 F1800
G92 E0.0000
G1 X148.538 Y11.844 E6.8446 F1260
G1 X188.153 Y51.465 E9.1572
G1 X70.901 Y168.717 E16.0017
G1 X54.710 Y171.655 E16.6809
G1 X45.448 Y180.917 E17.2216
G1 X32.214 Y188.194 E17.8450
G1 X11.806 Y167.786 E19.0363
G1 X19.083 Y154.552 E19.6596
G1 X28.345 Y145.290 E20.2003
G1 X31.248 Y129.295 E20.8713
G1 X31.283 Y129.099 F1260
G92 E0.0000
G1 E-0.8000 F1800
G1 X32.697 Y127.684 F1260
; feature inner perimeter
G1 X41.688 Y137.060 F7800
G1 X43.048 Y135.747
G1 X43.906 Y134.986
G1 X44.887 Y134.290
G1 X45.938 Y133.704
G1 X47.050 Y133.234
G1 X48.201 Y132.883
G1 X49.378 Y132.653
G1 X50.571 Y132.541
G1 X51.771 Y132.544
G1 X53.048 Y132.672
G1 X54.303 Y132.923
G1 X55.528 Y133.292
G1 X56.714 Y133.772
G1 X57.850 Y134.357
G1 X58.928 Y135.039
G1 X59.942 Y135.814
G1 X60.881 Y136.671
G1 X63.443 Y139.223
G1 X64.075 Y139.911
G1 X64.259 Y140.114
G1 X65.035 Y141.121
G1 X65.721 Y142.194
G1 X66.308 Y143.325
G1 X66.791 Y144.507
G1 X67.162 Y145.728
G1 X67.414 Y146.980
G1 X67.543 Y148.253
G1 X67.546 Y149.450
G1 X67.433 Y150.640
G1 X67.201 Y151.814
G1 X66.849 Y152.961
G1 X66.375 Y154.068
G1 X65.787 Y155.114
G1 X65.088 Y156.090
G1 X64.285 Y156.984
G1 X62.476 Y158.731
G1 X62.471 Y158.735
G1 X63.070 Y159.359
G1 E0.0000 F1800
G92 E0.0000
G1 X64.908 Y157.585 E0.1055 F1530
G1 X65.764 Y156.633 E0.1583
G1 X66.518 Y155.580 E0.2118
G1 X67.152 Y154.452 E0.2652
G1 X67.662 Y153.259 E0.3187
G1 X68.042 Y152.025 E0.3720
G1 X68.290 Y150.765 E0.4250
G1 X68.412 Y149.490 E0.4779
G1 X68.408 Y148.209 E0.5308
G1 X68.271 Y146.850 E0.5871
G1 X68.001 Y145.516 E0.6433
G1 X67.607 Y144.217 E0.6994
G1 X67.094 Y142.961 E0.7553
G1 X66.471 Y141.761 E0.8112
G1 X65.744 Y140.623 E0.8669
G1 X64.924 Y139.558 E0.9224
G1 X64.714 Y139.327 E0.9353
G1 X64.067 Y138.623 E0.9747
G1 X61.478 Y136.044 E1.1256
G1 X60.497 Y135.149 E1.1804
G1 X59.423 Y134.329 E1.2362
G1 X58.280 Y133.605 E1.2920
G1 X57.075 Y132.985 E1.3480
G1 X55.815 Y132.475 E1.4040
G1 X54.513 Y132.083 E1.4602
G1 X53.176 Y131.816 E1.5165
G1 X51.816 Y131.679 E1.5729
G1 X50.532 Y131.676 E1.6259
G1 X49.254 Y131.796 E1.6788
G1 X47.992 Y132.043 E1.7319
G1 X46.754 Y132.419 E1.7853
G1 X45.558 Y132.926 E1.8390
G1 X44.425 Y133.557 E1.8925
G1 X43.367 Y134.308 E1.9460
G1 X42.460 Y135.112 E1.9961
G1 X40.581 Y136.925 E2.1038
G1 X39.445 Y138.143 E2.1726
G1 X38.392 Y139.452 E2.2419
G1 X37.438 Y140.836 E2.3113
G1 X36.592 Y142.289 E2.3807
G1 X35.862 Y143.810 E2.4503
G1 X35.258 Y145.393 E2.5203
G1 X34.796 Y147.028 E2.5904
G1 X34.490 Y148.701 E2.6606
G1 X34.365 Y150.151 E2.7207
G1 X34.376 Y151.608 E2.7808
G1 X34.533 Y153.063 E2.8412
G1 X34.849 Y154.502 E2.9021
G1 X35.336 Y155.911 E2.9636
G1 X35.991 Y157.246 E3.0250
G1 X36.815 Y158.489 E3.0865
G1 X37.783 Y159.594 E3.1472
G1 X40.348 Y162.148 E3.2966
G1 X41.460 Y163.115 E3.3574
G1 X42.709 Y163.935 E3.4191
G1 X44.049 Y164.587 E3.4806
G1 X45.462 Y165.070 E3.5422
G1 X46.905 Y165.383 E3.6031
G1 X48.362 Y165.538 E3.6637
G1 X49.822 Y165.548 E3.7239
G1 X51.274 Y165.422 E3.7841
G1 X52.949 Y165.118 E3.8543
G1 X54.587 Y164.657 E3.9246
G1 X56.174 Y164.055 E3.9946
G1 X57.698 Y163.328 E4.0643
G1 X59.156 Y162.484 E4.1339
G1 X60.546 Y161.533 E4.2034
G1 X61.860 Y160.482 E4.2728
G1 X62.923 Y159.495 E4.3327
G1 X63.070 Y159.359 F1530
G92 E0.0000
G1 E-0.8000 F1800
G1 X59.356 Y161.299 F7800
G1 X58.695 Y161.752
G1 X57.295 Y162.562
G1 X55.834 Y163.259
G1 X54.991 Y163.579
G1 X52.852 Y164.696
G1 E0.0000 F1800
G92 E0.0000
G1 X54.452 Y164.246 E0.0686 F1530
G1 X56.004 Y163.657 E0.1371
G1 X57.497 Y162.945 E0.2054
G1 X58.926 Y162.118 E0.2735
G1 X60.288 Y161.185 E0.3417
G1 X61.577 Y160.154 E0.4099
G1 X62.773 Y159.045 E0.4772
G1 X64.597 Y157.285 E0.5818
G1 X65.426 Y156.362 E0.6330
G1 X66.153 Y155.347 E0.6845
G1 X66.764 Y154.260 E0.7360
G1 X67.255 Y153.110 E0.7876
G1 X67.621 Y151.919 E0.8390
G1 X67.862 Y150.703 E0.8902
G1 X67.979 Y149.470 E0.9413
G1 X67.976 Y148.231 E0.9925
G1 X67.843 Y146.915 E1.0471
G1 X67.582 Y145.622 E1.1015
G1 X67.199 Y144.362 E1.1559
G1 X66.701 Y143.143 E1.2102
G1 X66.096 Y141.977 E1.2644
G1 X65.390 Y140.872 E1.3186
G1 X64.591 Y139.836 E1.3726
G1 X64.395 Y139.619 E1.3847
G1 X63.755 Y138.923 E1.4237
G1 X61.179 Y136.357 E1.5737
G1 X60.219 Y135.481 E1.6274
G1 X59.175 Y134.684 E1.6816
G1 X58.065 Y133.981 E1.7359
G1 X56.894 Y133.378 E1.7902
G1 X55.671 Y132.883 E1.8446
G1 X54.408 Y132.503 E1.8991
G1 X53.112 Y132.244 E1.9537
G1 X51.793 Y132.112 E2.0084
G1 X50.551 Y132.108 E2.0596
G1 X49.316 Y132.224 E2.1108
G1 X48.096 Y132.463 E2.1621
G1 X46.902 Y132.826 E2.2137
G1 X45.748 Y133.315 E2.2654
G1 X44.656 Y133.923 E2.3170
G1 X43.636 Y134.647 E2.3686
G1 X42.754 Y135.429 E2.4173
G1 X40.890 Y137.229 E2.5242
G1 X39.772 Y138.427 E2.5918
G1 X38.739 Y139.710 E2.6599
G1 X37.804 Y141.068 E2.7279
G1 X36.975 Y142.492 E2.7959
G1 X36.260 Y143.981 E2.8641
G1 X35.669 Y145.529 E2.9325
G1 X35.217 Y147.126 E3.0010
G1 X34.920 Y148.759 E3.0695
G1 X34.798 Y150.168 E3.1279
G1 X34.808 Y151.583 E3.1863
G1 X34.961 Y152.993 E3.2448
G1 X35.266 Y154.385 E3.3037
G1 X35.736 Y155.745 E3.3630
G1 X36.367 Y157.030 E3.4221
G1 X37.159 Y158.226 E3.4813
G1 X38.099 Y159.298 E3.5402
G1 X40.643 Y161.831 E3.6884
G1 X41.722 Y162.769 E3.7474
G1 X42.923 Y163.559 E3.8067
G1 X44.214 Y164.186 E3.8660
G1 X45.578 Y164.652 E3.9255
G1 X46.974 Y164.955 E3.9844
G1 X48.387 Y165.106 E4.0431
G1 X49.805 Y165.115 E4.1016
G1 X51.216 Y164.993 E4.1601
G1 X52.655 Y164.732 E4.2204
G1 X52.852 Y164.696 F1530
G92 E0.0000
G1 E-0.8000 F1800
; feature outer perimeter
G1 X51.872 Y164.434 F7800
G1 X51.159 Y164.564
G1 X49.787 Y164.682
G1 X48.411 Y164.673
G1 X47.043 Y164.527
G1 X45.694 Y164.235
G1 X44.379 Y163.785
G1 X43.137 Y163.182
G1 X41.984 Y162.423
G1 X40.938 Y161.515
G1 E0.0000 F1800
G92 E0.0000
G1 X41.984 Y162.423 E0.0572 F1260
G1 X43.137 Y163.182 E0.1142
G1 X44.379 Y163.785 E0.1712
G1 X45.694 Y164.235 E0.2285
G1 X47.043 Y164.527 E0.2855
G1 X48.411 Y164.673 E0.3423
G1 X49.787 Y164.682 E0.3991
G1 X51.159 Y164.564 E0.4559
G1 X52.754 Y164.274 E0.5229
G1 X54.316 Y163.834 E0.5898
G1 X55.834 Y163.259 E0.6568
G1 X57.295 Y162.562 E0.7236
G1 X58.695 Y161.752 E0.7904
G1 X60.030 Y160.837 E0.8572
G1 X61.295 Y159.826 E0.9241
G1 X62.476 Y158.731 E0.9905
G1 X64.285 Y156.984 E1.0943
G1 X65.088 Y156.090 E1.1439
G1 X65.787 Y155.114 E1.1935
G1 X66.375 Y154.068 E1.2430
G1 X66.849 Y152.961 E1.2927
G1 X67.201 Y151.814 E1.3423
G1 X67.433 Y150.640 E1.3917
G1 X67.546 Y149.450 E1.4410
G1 X67.543 Y148.253 E1.4904
G1 X67.414 Y146.980 E1.5432
G1 X67.162 Y145.728 E1.5959
G1 X66.791 Y144.507 E1.6486
G1 X66.308 Y143.325 E1.7013
G1 X65.721 Y142.194 E1.7539
G1 X65.035 Y141.121 E1.8065
G1 X64.259 Y140.114 E1.8590
G1 X64.075 Y139.911 E1.8703
G1 X63.443 Y139.223 E1.9088
G1 X60.881 Y136.671 E2.0581
G1 X59.942 Y135.814 E2.1106
G1 X58.928 Y135.039 E2.1632
G1 X57.850 Y134.357 E2.2159
G1 X56.714 Y133.772 E2.2686
G1 X55.528 Y133.292 E2.3215
G1 X54.303 Y132.923 E2.3743
G1 X53.048 Y132.672 E2.4271
G1 X51.771 Y132.544 E2.4800
G1 X50.571 Y132.541 E2.5296
G1 X49.378 Y132.653 E2.5790
G1 X48.201 Y132.883 E2.6285
G1 X47.050 Y133.234 E2.6782
G1 X45.938 Y133.704 E2.7280
G1 X44.887 Y134.290 E2.7777
G1 X43.906 Y134.986 E2.8274
G1 X43.048 Y135.747 E2.8747
G1 X41.199 Y137.532 E2.9808
G1 X40.100 Y138.710 E3.0473
G1 X39.086 Y139.969 E3.1140
G1 X38.169 Y141.300 E3.1807
G1 X37.357 Y142.695 E3.2473
G1 X36.657 Y144.152 E3.3140
G1 X36.080 Y145.665 E3.3809
G1 X35.639 Y147.224 E3.4478
G1 X35.349 Y148.816 E3.5146
G1 X35.231 Y150.185 E3.5713
G1 X35.241 Y151.558 E3.6279
G1 X35.388 Y152.923 E3.6846
G1 X35.684 Y154.268 E3.7415
G1 X36.136 Y155.578 E3.7987
G1 X36.743 Y156.815 E3.8555
G1 X37.504 Y157.962 E3.9124
G1 X38.415 Y159.002 E3.9694
G1 X40.796 Y161.373 E4.1081
G1 X40.938 Y161.515 F1260
G92 E0.0000
G1 E-0.8000 F1800
G1 X41.984 Y162.423 F1260
G1 X42.497 Y162.761
; feature inner perimeter
