; G-Code generated by Simplify3D(R) Version 4.1.1
; Mar 6, 2019 at 8:15:25 PM
; Settings Summary
;   processName,fuselage2per
;   applyToModels,Il-2 fuselage 7
;   profileName,Default (modified)
;   profileVersion,2015-07-24 21:36:39
;   baseProfile,
;   printMaterial,
;   printQuality,
;   printExtruders,
;   extruderName,Primary Extruder
;   extruderToolheadNumber,0
;   extruderDiameter,0.4
;   extruderAutoWidth,0
;   extruderWidth,0.42
;   extrusionMultiplier,1.02
;   extruderUseRetract,1
;   extruderRetractionDistance,0.8
;   extruderExtraRestartDistance,0.12
;   extruderRetractionZLift,0
;   extruderRetractionSpeed,1800
;   extruderUseCoasting,1
;   extruderCoastingDistance,0.2
;   extruderUseWipe,1
;   extruderWipeDistance,2
;   primaryExtruder,0
;   layerHeight,0.25
;   topSolidLayers,0
;   bottomSolidLayers,0
;   perimeterOutlines,2
;   printPerimetersInsideOut,1
;   startPointOption,3
;   startPointOriginX,200
;   startPointOriginY,0
;   sequentialIslands,0
;   spiralVaseMode,0
;   firstLayerHeightPercentage,90
;   firstLayerWidthPercentage,110
;   firstLayerUnderspeed,0.5
;   useRaft,0
;   raftExtruder,0
;   raftTopLayers,3
;   raftBaseLayers,2
;   raftOffset,3
;   raftSeparationDistance,0.14
;   raftTopInfill,100
;   aboveRaftSpeedMultiplier,0.3
;   useSkirt,1
;   skirtExtruder,0
;   skirtLayers,1
;   skirtOutlines,1
;   skirtOffset,1.4
;   usePrimePillar,0
;   primePillarExtruder,999
;   primePillarWidth,12
;   primePillarLocation,7
;   primePillarSpeedMultiplier,1
;   useOozeShield,0
;   oozeShieldExtruder,999
;   oozeShieldOffset,2
;   oozeShieldOutlines,1
;   oozeShieldSidewallShape,1
;   oozeShieldSidewallAngle,30
;   oozeShieldSpeedMultiplier,1
;   infillExtruder,0
;   internalInfillPattern,Rectilinear
;   externalInfillPattern,Rectilinear
;   infillPercentage,0
;   outlineOverlapPercentage,15
;   infillExtrusionWidthPercentage,100
;   minInfillLength,5
;   infillLayerInterval,1
;   internalInfillAngles,45,-45
;   overlapInternalInfillAngles,0
;   externalInfillAngles,45,-45
;   generateSupport,0
;   supportExtruder,0
;   supportInfillPercentage,30
;   supportExtraInflation,0
;   supportBaseLayers,0
;   denseSupportExtruder,0
;   denseSupportLayers,0
;   denseSupportInfillPercentage,70
;   supportLayerInterval,1
;   supportHorizontalPartOffset,0.3
;   supportUpperSeparationLayers,1
;   supportLowerSeparationLayers,1
;   supportType,0
;   supportGridSpacing,4
;   maxOverhangAngle,45
;   supportAngles,0
;   temperatureName,Primary Extruder,Heated Bed
;   temperatureNumber,0,1
;   temperatureSetpointCount,1,1
;   temperatureSetpointLayers,1,1
;   temperatureSetpointTemperatures,230,56
;   temperatureStabilizeAtStartup,1,1
;   temperatureHeatedBed,0,1
;   fanLayers,1
;   fanSpeeds,0
;   blipFanToFullPower,1
;   adjustSpeedForCooling,1
;   minSpeedLayerTime,15
;   minCoolingSpeedSlowdown,20
;   increaseFanForCooling,0
;   minFanLayerTime,45
;   maxCoolingFanSpeed,100
;   increaseFanForBridging,0
;   bridgingFanSpeed,100
;   use5D,1
;   relativeEdistances,0
;   allowEaxisZeroing,1
;   independentExtruderAxes,0
;   includeM10123,0
;   stickySupport,1
;   applyToolheadOffsets,0
;   gcodeXoffset,0
;   gcodeYoffset,0
;   gcodeZoffset,0
;   overrideMachineDefinition,0
;   machineTypeOverride,0
;   strokeXoverride,200
;   strokeYoverride,200
;   strokeZoverride,150
;   originOffsetXoverride,0
;   originOffsetYoverride,0
;   originOffsetZoverride,0
;   homeXdirOverride,-1
;   homeYdirOverride,-1
;   homeZdirOverride,-1
;   flipXoverride,1
;   flipYoverride,-1
;   flipZoverride,1
;   toolheadOffsets,0,0|0,0|0,0|0,0|0,0|0,0
;   overrideFirmwareConfiguration,0
;   firmwareTypeOverride,RepRap (Marlin/Repetier/Sprinter)
;   GPXconfigOverride,r2
;   baudRateOverride,115200
;   overridePrinterModels,0
;   printerModelsOverride
;   startingGcode,G28,
;   layerChangeGcode,
;   retractionGcode,
;   toolChangeGcode,
;   endingGcode,M104 S0 ; turn off extruder,M140 S0 ; turn off bed,G28 X0 ; home X axis,M84 ; disable motors,M107 ; turn off fan
;   exportFileFormat,gcode
;   celebration,0
;   celebrationSong,Random Song
;   postProcessing,
;   defaultSpeed,3600
;   outlineUnderspeed,0.7
;   solidInfillUnderspeed,0.8
;   supportUnderspeed,0.8
;   rapidXYspeed,7800
;   rapidZspeed,1002
;   minBridgingArea,5
;   bridgingExtraInflation,0
;   bridgingExtrusionMultiplier,1
;   bridgingSpeedMultiplier,0.3
;   useFixedBridgingAngle,0
;   fixedBridgingAngle,0
;   applyBridgingToPerimeters,0
;   filamentDiameters,1.75|1.75|1.75|1.75|1.75|1.75
;   filamentPricesPerKg,1000|1000|1000|1000|1000|1000
;   filamentDensities,1.25|1.25|1.25|1.25|1.25|1.25
;   useMinPrintHeight,1
;   minPrintHeight,0
;   useMaxPrintHeight,1
;   maxPrintHeight,1
;   useDiaphragm,0
;   diaphragmLayerInterval,20
;   robustSlicing,1
;   mergeAllIntoSolid,0
;   onlyRetractWhenCrossingOutline,0
;   retractBetweenLayers,0
;   useRetractionMinTravel,0
;   retractionMinTravel,3
;   retractWhileWiping,0
;   onlyWipeOutlines,1
;   avoidCrossingOutline,0
;   maxMovementDetourFactor,3
;   toolChangeRetractionDistance,0
;   toolChangeExtraRestartDistance,0
;   toolChangeRetractionSpeed,360
;   externalThinWallType,0
;   internalThinWallType,2
;   thinWallAllowedOverlapPercentage,10
;   singleExtrusionMinLength,1
;   singleExtrusionMinPrintingWidthPercentage,50
;   singleExtrusionMaxPrintingWidthPercentage,200
;   singleExtrusionEndpointExtension,0.2
;   horizontalSizeCompensation,0
G90
M82
M106 S0
M140 S56
M190 S56
M104 S230 T0
M109 S230 T0
G28
; process fuselage2per
; layer 1, Z = 0.225
T0
G92 E0.0000
G1 E-0.8000 F1800
; feature skirt
; tool H0.225 W0.462
G1 Z0.225 F1002
G1 X170.912 Y30.172 F7800
G1 E0.1200 F1800
G92 E0.0000
G1 X171.750 Y31.060 E0.0538 F1800
G1 X171.782 Y31.096 E0.0559
G1 X172.568 Y32.035 E0.1099
G1 X172.598 Y32.073 E0.1120
G1 X173.347 Y33.084 E0.1675
G1 X173.375 Y33.125 E0.1697
G1 X174.063 Y34.181 E0.2253
G1 X174.089 Y34.223 E0.2274
G1 X174.698 Y35.295 E0.2818
G1 X174.721 Y35.338 E0.2840
G1 X175.281 Y36.475 E0.3398
G1 X175.301 Y36.520 E0.3420
G1 X175.784 Y37.672 E0.3970
G1 X175.801 Y37.717 E0.3992
G1 X176.214 Y38.896 E0.4542
G1 X176.229 Y38.943 E0.4564
G1 X176.571 Y40.144 E0.5114
G1 X176.583 Y40.191 E0.5136
G1 X176.852 Y41.410 E0.5686
G1 X176.861 Y41.458 E0.5708
G1 X177.058 Y42.700 E0.6262
G1 X177.064 Y42.749 E0.6284
G1 X177.185 Y44.001 E0.6838
G1 X177.189 Y44.049 E0.6860
G1 X177.234 Y45.279 E0.7402
G1 X177.235 Y45.328 E0.7424
G1 X177.206 Y46.593 E0.7982
G1 X177.204 Y46.642 E0.8003
G1 X177.103 Y47.869 E0.8546
G1 X177.097 Y47.919 E0.8568
G1 X177.052 Y48.231 E0.8707
G1 X177.414 Y48.853 E0.9024
G1 X176.989 Y50.765 E0.9888
G1 X176.901 Y51.917 E1.0397
G1 X176.969 Y53.059 E1.0902
G1 X177.201 Y54.293 E1.1455
G1 X177.575 Y55.492 E1.2009
G1 X178.036 Y56.593 E1.2535
G1 X178.641 Y57.749 E1.3110
G1 X179.305 Y58.819 E1.3665
G1 X180.398 Y60.310 E1.4480
G1 X181.716 Y61.838 E1.5370
G1 X184.449 Y64.802 E1.7147
G1 X186.316 Y66.731 E1.8330
G1 X186.305 Y68.066 E1.8919
G1 X183.867 Y70.504 E2.0439
G1 X182.516 Y70.504 E2.1034
G1 X165.045 Y53.034 E3.1925
G1 X161.357 Y56.721 E3.4224
G1 X178.828 Y74.192 E4.5116
G1 X178.828 Y75.543 E4.5711
G1 X176.390 Y77.981 E4.7231
G1 X175.055 Y77.992 E4.7819
G1 X173.082 Y76.083 E4.9030
G1 X167.400 Y70.829 E5.2441
G1 X166.319 Y69.839 E5.3087
G1 X165.589 Y69.219 E5.3509
G1 X164.836 Y68.669 E5.3921
G1 X164.129 Y68.236 E5.4286
G1 X163.424 Y67.883 E5.4634
G1 X162.673 Y67.594 E5.4988
G1 X161.918 Y67.390 E5.5333
G1 X161.308 Y67.289 E5.5606
G1 X160.745 Y67.243 E5.5854
G1 X159.521 Y67.292 E5.6395
G1 X158.233 Y67.524 E5.6971
G1 X156.210 Y68.085 E5.7897
G1 X155.379 Y67.609 E5.8319
G1 X155.015 Y67.626 E5.8480
G1 X154.964 Y67.627 E5.8502
G1 X153.689 Y67.607 E5.9064
G1 X153.647 Y67.605 E5.9083
G1 X152.698 Y67.541 E5.9502
G1 X152.667 Y67.538 E5.9515
G1 X149.581 Y67.211 E6.0884
G1 X148.809 Y67.196 E6.1224
G1 X148.113 Y67.253 E6.1532
G1 X147.523 Y67.369 E6.1797
G1 X146.930 Y67.563 E6.2072
G1 X146.308 Y67.854 E6.2375
G1 X145.756 Y68.182 E6.2658
G1 X144.553 Y69.075 E6.3318
G1 X143.390 Y70.083 E6.3997
G1 X139.688 Y73.536 E6.6228
G1 X139.415 Y73.641 E6.6357
G1 X139.299 Y73.908 E6.6485
G1 X137.737 Y75.396 E6.7436
G1 X137.732 Y75.401 E6.7439
G1 X97.979 Y112.640 E9.1451
G1 X80.917 Y128.582 E10.1745
G1 X70.276 Y138.457 E10.8144
G1 X70.271 Y138.462 E10.8147
G1 X63.034 Y145.055 E11.2463
G1 X63.026 Y145.063 E11.2468
G1 X57.678 Y149.803 E11.5618
G1 X57.668 Y149.812 E11.5624
G1 X53.070 Y153.752 E11.8293
G1 X52.968 Y153.787 E11.8340
G1 X52.922 Y153.876 E11.8385
G1 X49.468 Y156.636 E12.0334
G1 X49.447 Y156.652 E12.0345
G1 X48.030 Y157.710 E12.1125
G1 X48.010 Y157.725 E12.1136
G1 X46.909 Y158.496 E12.1728
G1 X46.871 Y158.520 E12.1748
G1 X45.449 Y159.403 E12.2486
G1 X45.382 Y159.440 E12.2520
G1 X44.804 Y159.728 E12.2804
G1 X44.723 Y159.763 E12.2843
G1 X44.102 Y159.992 E12.3135
G1 X43.906 Y160.038 E12.3224
G1 X43.189 Y160.116 E12.3542
G1 X42.872 Y160.089 E12.3682
G1 X42.348 Y159.937 E12.3923
G1 X42.131 Y159.839 E12.4028
G1 X41.862 Y159.666 E12.4168
G1 X41.727 Y159.557 E12.4245
G1 X41.444 Y159.274 E12.4421
G1 X41.319 Y159.113 E12.4511
G1 X41.137 Y158.807 E12.4668
G1 X41.051 Y158.603 E12.4766
G1 X40.920 Y158.119 E12.4987
G1 X40.896 Y157.815 E12.5121
G1 X40.973 Y157.103 E12.5437
G1 X41.020 Y156.904 E12.5527
G1 X41.268 Y156.244 E12.5838
G1 X41.307 Y156.154 E12.5881
G1 X41.649 Y155.495 E12.6208
G1 X41.679 Y155.441 E12.6235
G1 X42.403 Y154.269 E12.6843
G1 X42.428 Y154.231 E12.6863
G1 X43.285 Y153.003 E12.7523
G1 X43.300 Y152.981 E12.7535
G1 X44.359 Y151.564 E12.8315
G1 X44.376 Y151.543 E12.8326
G1 X47.135 Y148.089 E13.0275
G1 X47.224 Y148.044 E13.0319
G1 X47.258 Y147.944 E13.0365
G1 X50.302 Y144.371 E13.2435
G1 X50.311 Y144.361 E13.2441
G1 X54.827 Y139.241 E13.5450
G1 X54.832 Y139.235 E13.5454
G1 X57.986 Y135.727 E13.7533
G1 X57.991 Y135.721 E13.7536
G1 X62.551 Y130.738 E14.0514
G1 X62.554 Y130.734 E14.0516
G1 X72.431 Y120.092 E14.6916
G1 X92.625 Y98.489 E15.9952
G1 X125.610 Y63.279 E18.1220
G1 X125.615 Y63.274 E18.1223
G1 X127.103 Y61.712 E18.2174
G1 X127.370 Y61.596 E18.2303
G1 X127.475 Y61.323 E18.2431
G1 X130.952 Y57.595 E18.4679
G1 X131.946 Y56.447 E18.5348
G1 X132.854 Y55.215 E18.6023
G1 X133.183 Y54.656 E18.6309
G1 X133.426 Y54.134 E18.6562
G1 X133.643 Y53.484 E18.6865
G1 X133.758 Y52.898 E18.7128
G1 X133.815 Y52.202 E18.7436
G1 X133.800 Y51.430 E18.7776
G1 X133.473 Y48.344 E18.9144
G1 X133.470 Y48.313 E18.9158
G1 X133.406 Y47.364 E18.9577
G1 X133.404 Y47.322 E18.9595
G1 X133.384 Y46.047 E19.0158
G1 X133.385 Y45.996 E19.0180
G1 X133.402 Y45.632 E19.0341
G1 X132.926 Y44.801 E19.0763
G1 X133.487 Y42.778 E19.1688
G1 X133.719 Y41.491 E19.2265
G1 X133.768 Y40.266 E19.2805
G1 X133.723 Y39.703 E19.3054
G1 X133.621 Y39.093 E19.3327
G1 X133.417 Y38.338 E19.3671
G1 X133.128 Y37.587 E19.4026
G1 X132.775 Y36.882 E19.4374
G1 X132.342 Y36.175 E19.4739
G1 X131.792 Y35.422 E19.5150
G1 X131.172 Y34.692 E19.5572
G1 X130.182 Y33.611 E19.6218
G1 X124.928 Y27.929 E19.9630
G1 X123.019 Y25.956 E20.0840
G1 X123.030 Y24.621 E20.1429
G1 X125.468 Y22.183 E20.2948
G1 X126.819 Y22.183 E20.3544
G1 X144.290 Y39.654 E21.4435
G1 X147.977 Y35.966 E21.6734
G1 X130.507 Y18.495 E22.7626
G1 X130.507 Y17.144 E22.8221
G1 X132.945 Y14.707 E22.9741
G1 X134.280 Y14.696 E23.0330
G1 X136.207 Y16.561 E23.1512
G1 X139.994 Y20.028 E23.3775
G1 X140.688 Y20.603 E23.4172
G1 X142.193 Y21.706 E23.4995
G1 X143.262 Y22.370 E23.5550
G1 X144.418 Y22.975 E23.6125
G1 X145.519 Y23.436 E23.6651
G1 X146.718 Y23.810 E23.7205
G1 X147.952 Y24.042 E23.7758
G1 X149.094 Y24.110 E23.8262
G1 X150.246 Y24.022 E23.8772
G1 X152.158 Y23.597 E23.9635
G1 X152.780 Y23.959 E23.9953
G1 X153.092 Y23.914 E24.0092
G1 X153.142 Y23.909 E24.0114
G1 X154.369 Y23.807 E24.0657
G1 X154.418 Y23.805 E24.0678
G1 X155.683 Y23.776 E24.1236
G1 X155.732 Y23.777 E24.1258
G1 X156.962 Y23.822 E24.1800
G1 X157.010 Y23.826 E24.1821
G1 X158.263 Y23.947 E24.2376
G1 X158.311 Y23.953 E24.2398
G1 X159.553 Y24.150 E24.2952
G1 X159.601 Y24.159 E24.2973
G1 X160.820 Y24.428 E24.3524
G1 X160.867 Y24.440 E24.3545
G1 X162.069 Y24.782 E24.4096
G1 X162.116 Y24.797 E24.4118
G1 X163.311 Y25.217 E24.4676
G1 X163.356 Y25.234 E24.4697
G1 X164.491 Y25.710 E24.5240
G1 X164.535 Y25.730 E24.5261
G1 X165.640 Y26.273 E24.5804
G1 X165.683 Y26.295 E24.5825
G1 X166.771 Y26.912 E24.6377
G1 X166.813 Y26.938 E24.6398
G1 X167.876 Y27.628 E24.6957
G1 X167.916 Y27.656 E24.6979
G1 X168.921 Y28.399 E24.7529
G1 X168.959 Y28.429 E24.7551
G1 X169.915 Y29.229 E24.8100
G1 X169.952 Y29.262 E24.8122
G1 X170.879 Y30.139 E24.8685
G1 X170.912 Y30.172 E24.8705
G92 E0.0000
G1 E-0.8000 F1800
; feature inner perimeter
G1 X134.732 Y33.382 F7800
G1 E0.1200 F1800
G92 E0.0000
G1 X133.835 Y34.279 E0.0559 F1530
G1 X133.619 Y33.982 E0.0721
G1 X132.915 Y33.155 E0.1200
G1 X131.892 Y32.037 E0.1868
G1 X126.616 Y26.333 E0.5293
G1 X125.628 Y25.310 E0.5920
G1 X126.144 Y24.794 E0.6241
G1 X134.590 Y33.241 E1.1507
G1 X134.732 Y33.382 F1530
G92 E0.0000
G1 E-0.8000 F1800
G1 X169.251 Y31.798 F7800
G1 E0.1200 F1800
G92 E0.0000
G1 X170.029 Y32.622 E0.0499 F1530
G1 X170.757 Y33.492 E0.1000
G1 X171.453 Y34.431 E0.1515
G1 X172.091 Y35.411 E0.2030
G1 X172.656 Y36.405 E0.2534
G1 X173.176 Y37.460 E0.3053
G1 X173.623 Y38.528 E0.3563
G1 X174.006 Y39.622 E0.4074
G1 X174.323 Y40.736 E0.4585
G1 X174.573 Y41.867 E0.5095
G1 X174.755 Y43.018 E0.5609
G1 X174.868 Y44.181 E0.6124
G1 X174.910 Y45.321 E0.6627
G1 X174.884 Y46.496 E0.7145
G1 X174.790 Y47.632 E0.7647
G1 X174.521 Y49.494 E0.8477
G1 X174.862 Y49.597 E0.8634
G1 X174.747 Y50.090 E0.8857
G1 X174.683 Y50.435 E0.9011
G1 X174.572 Y51.899 E0.9659
G1 X174.658 Y53.344 E1.0297
G1 X174.942 Y54.855 E1.0975
G1 X175.419 Y56.386 E1.1681
G1 X173.551 Y58.254 E1.2846
G1 X165.045 Y49.747 E1.8149
G1 X158.071 Y56.721 E2.2497
G1 X166.577 Y65.228 E2.7800
G1 X165.472 Y66.333 E2.8489
G1 X165.257 Y66.202 E2.8600
G1 X164.363 Y65.755 E2.9040
G1 X163.395 Y65.382 E2.9497
G1 X162.414 Y65.117 E2.9946
G1 X161.592 Y64.980 E3.0313
G1 X160.792 Y64.916 E3.0667
G1 X159.267 Y64.977 E3.1339
G1 X157.716 Y65.256 E3.2034
G1 X156.920 Y65.477 E3.2399
G1 X156.850 Y65.214 E3.2518
G1 X154.954 Y65.303 E3.3355
G1 X153.765 Y65.284 E3.3879
G1 X152.887 Y65.224 E3.4267
G1 X151.092 Y65.018 E3.5064
G1 X149.721 Y64.889 E3.5670
G1 X148.738 Y64.871 E3.6104
G1 X147.794 Y64.947 E3.6521
G1 X146.934 Y65.116 E3.6908
G1 X146.073 Y65.398 E3.7307
G1 X145.220 Y65.797 E3.7722
G1 X144.466 Y66.245 E3.8109
G1 X143.097 Y67.261 E3.8860
G1 X141.838 Y68.352 E3.9595
G1 X140.589 Y69.501 E4.0343
G1 X138.536 Y71.431 E4.1585
G1 X138.309 Y71.428 E4.1685
G1 X137.031 Y70.150 E4.2482
G1 X135.980 Y71.201 E4.3137
G1 X137.249 Y72.470 E4.3928
G1 X137.246 Y72.654 E4.4009
G1 X136.139 Y73.708 E4.4683
G1 X115.162 Y93.359 E5.7354
G1 X107.651 Y85.848 E6.2036
G1 X127.303 Y64.872 E7.4707
G1 X128.357 Y63.765 E7.5381
G1 X128.537 Y63.763 E7.5460
G1 X129.818 Y65.023 E7.6252
G1 X130.861 Y63.981 E7.6903
G1 X129.583 Y62.702 E7.7699
G1 X129.580 Y62.476 E7.7799
G1 X131.544 Y60.386 E7.9064
G1 X132.682 Y59.147 E7.9805
G1 X133.762 Y57.899 E8.0533
G1 X134.797 Y56.497 E8.1301
G1 X135.243 Y55.738 E8.1689
G1 X135.588 Y54.996 E8.2050
G1 X135.894 Y54.079 E8.2476
G1 X136.064 Y53.217 E8.2863
G1 X136.140 Y52.273 E8.3280
G1 X136.122 Y51.290 E8.3714
G1 X135.993 Y49.920 E8.4321
G1 X135.787 Y48.124 E8.5117
G1 X135.727 Y47.246 E8.5505
G1 X135.709 Y46.057 E8.6029
G1 X135.797 Y44.161 E8.6866
G1 X135.535 Y44.092 E8.6986
G1 X135.755 Y43.295 E8.7350
G1 X136.034 Y41.744 E8.8045
G1 X136.095 Y40.219 E8.8718
G1 X136.031 Y39.419 E8.9072
G1 X135.894 Y38.597 E8.9439
G1 X135.629 Y37.616 E8.9887
G1 X135.256 Y36.648 E9.0344
G1 X134.809 Y35.754 E9.0785
G1 X134.678 Y35.539 E9.0896
G1 X135.783 Y34.434 E9.1585
G1 X144.290 Y42.940 E9.6888
G1 X151.264 Y35.966 E10.1235
G1 X142.758 Y27.460 E10.6539
G1 X144.625 Y25.592 E10.7703
G1 X146.156 Y26.069 E10.8410
G1 X147.667 Y26.353 E10.9088
G1 X149.113 Y26.439 E10.9726
G1 X150.576 Y26.328 E11.0373
G1 X150.921 Y26.264 E11.0528
G1 X151.414 Y26.149 E11.0751
G1 X151.517 Y26.491 E11.0908
G1 X153.379 Y26.221 E11.1737
G1 X154.515 Y26.127 E11.2239
G1 X155.690 Y26.101 E11.2758
