; G-Code generated by Simplify3D(R) Version 4.1.1
; Mar 6, 2019 at 8:50:22 PM
; Settings Summary
;   processName,fuse pins
;   applyToModels,Il-2 wing pin,Il-2 wing pin(2),Il-2 wing pin(3),Il-2 wing pin(4),Il-2 wing pin(5),Il-2 wing pin(6),Il-2 wing pin(7),Il-2 wing pin(8),Il-2 wing pin(9),Il-2 wing pin(10),Il-2 wing pin(11),Il-2 wing pin(12),Il-2 wing pin(13),Il-2 wing pin(14),Il-2 wing pin(15),Il-2 wing pin(16),Il-2 wing pin(17),Il-2 wing pin(18),Il-2 wing pin(19),Il-2 wing pin(20)
;   profileName,Default (modified)
;   profileVersion,2016-02-16 16:48:59
;   baseProfile,Prusa Mendel (modified)
;   printMaterial,PLA
;   printQuality,NORMAL
;   printExtruders,
;   extruderName,Primary Extruder
;   extruderToolheadNumber,0
;   extruderDiameter,0.4
;   extruderAutoWidth,0
;   extruderWidth,0.45
;   extrusionMultiplier,1.04
;   extruderUseRetract,1
;   extruderRetractionDistance,0.8
;   extruderExtraRestartDistance,0
;   extruderRetractionZLift,0
;   extruderRetractionSpeed,1398
;   extruderUseCoasting,1
;   extruderCoastingDistance,0.2
;   extruderUseWipe,1
;   extruderWipeDistance,2
;   primaryExtruder,0
;   layerHeight,0.2
;   topSolidLayers,3
;   bottomSolidLayers,3
;   perimeterOutlines,3
;   printPerimetersInsideOut,1
;   startPointOption,2
;   startPointOriginX,0
;   startPointOriginY,0
;   sequentialIslands,0
;   spiralVaseMode,0
;   firstLayerHeightPercentage,100
;   firstLayerWidthPercentage,100
;   firstLayerUnderspeed,0.6
;   useRaft,0
;   raftExtruder,0
;   raftTopLayers,3
;   raftBaseLayers,2
;   raftOffset,3
;   raftSeparationDistance,0.14
;   raftTopInfill,100
;   aboveRaftSpeedMultiplier,0.3
;   useSkirt,0
;   skirtExtruder,0
;   skirtLayers,1
;   skirtOutlines,1
;   skirtOffset,1.8
;   usePrimePillar,0
;   primePillarExtruder,999
;   primePillarWidth,12
;   primePillarLocation,7
;   primePillarSpeedMultiplier,1
;   useOozeShield,0
;   oozeShieldExtruder,999
;   oozeShieldOffset,2
;   oozeShieldOutlines,1
;   oozeShieldSidewallShape,1
;   oozeShieldSidewallAngle,30
;   oozeShieldSpeedMultiplier,1
;   infillExtruder,0
;   internalInfillPattern,Grid
;   externalInfillPattern,Rectilinear
;   infillPercentage,39
;   outlineOverlapPercentage,21
;   infillExtrusionWidthPercentage,100
;   minInfillLength,2
;   infillLayerInterval,1
;   internalInfillAngles,45,-45
;   overlapInternalInfillAngles,1
;   externalInfillAngles,45,-45
;   generateSupport,0
;   supportExtruder,0
;   supportInfillPercentage,30
;   supportExtraInflation,1.4
;   supportBaseLayers,0
;   denseSupportExtruder,0
;   denseSupportLayers,0
;   denseSupportInfillPercentage,70
;   supportLayerInterval,1
;   supportHorizontalPartOffset,0.2
;   supportUpperSeparationLayers,1
;   supportLowerSeparationLayers,1
;   supportType,0
;   supportGridSpacing,4
;   maxOverhangAngle,45
;   supportAngles,0
;   temperatureName,Primary Extruder,Heated Bed
;   temperatureNumber,0,1
;   temperatureSetpointCount,1,1
;   temperatureSetpointLayers,1,1
;   temperatureSetpointTemperatures,230,50
;   temperatureStabilizeAtStartup,1,1
;   temperatureHeatedBed,0,1
;   fanLayers,1
;   fanSpeeds,0
;   blipFanToFullPower,1
;   adjustSpeedForCooling,1
;   minSpeedLayerTime,15
;   minCoolingSpeedSlowdown,20
;   increaseFanForCooling,0
;   minFanLayerTime,45
;   maxCoolingFanSpeed,100
;   increaseFanForBridging,1
;   bridgingFanSpeed,100
;   use5D,1
;   relativeEdistances,1
;   allowEaxisZeroing,1
;   independentExtruderAxes,0
;   includeM10123,0
;   stickySupport,1
;   applyToolheadOffsets,0
;   gcodeXoffset,0
;   gcodeYoffset,0
;   gcodeZoffset,0
;   overrideMachineDefinition,0
;   machineTypeOverride,0
;   strokeXoverride,195
;   strokeYoverride,195
;   strokeZoverride,175
;   originOffsetXoverride,0
;   originOffsetYoverride,0
;   originOffsetZoverride,0
;   homeXdirOverride,-1
;   homeYdirOverride,-1
;   homeZdirOverride,-1
;   flipXoverride,1
;   flipYoverride,-1
;   flipZoverride,1
;   toolheadOffsets,0,0|0,0|0,0|0,0|0,0|0,0
;   overrideFirmwareConfiguration,0
;   firmwareTypeOverride,RepRap (Marlin/Repetier/Sprinter)
;   GPXconfigOverride,r2
;   baudRateOverride,250000
;   overridePrinterModels,1
;   printerModelsOverride
;   startingGcode,G28,
;   layerChangeGcode,
;   retractionGcode,
;   toolChangeGcode,
;   endingGcode,M104 S0 ; turn off temperature,M140 S0 ; turn off heatbed,G28 X0  ; home X axis,M84     ; disable motors,M107 ; turn off fan
;   exportFileFormat,gcode
;   celebration,0
;   celebrationSong,Random Song
;   postProcessing,
;   defaultSpeed,2400
;   outlineUnderspeed,1
;   solidInfillUnderspeed,1
;   supportUnderspeed,0.8
;   rapidXYspeed,4800
;   rapidZspeed,1002
;   minBridgingArea,50
;   bridgingExtraInflation,1
;   bridgingExtrusionMultiplier,1
;   bridgingSpeedMultiplier,1
;   useFixedBridgingAngle,0
;   fixedBridgingAngle,0
;   applyBridgingToPerimeters,0
;   filamentDiameters,1.75|1.75|1.75|1.75|1.75|1.75
;   filamentPricesPerKg,560|560|560|560|560|560
;   filamentDensities,1.25|1.25|1.25|1.25|1.25|1.25
;   useMinPrintHeight,0
;   minPrintHeight,0
;   useMaxPrintHeight,0
;   maxPrintHeight,12.5
;   useDiaphragm,0
;   diaphragmLayerInterval,20
;   robustSlicing,1
;   mergeAllIntoSolid,0
;   onlyRetractWhenCrossingOutline,0
;   retractBetweenLayers,1
;   useRetractionMinTravel,1
;   retractionMinTravel,3
;   retractWhileWiping,1
;   onlyWipeOutlines,1
;   avoidCrossingOutline,0
;   maxMovementDetourFactor,3
;   toolChangeRetractionDistance,12
;   toolChangeExtraRestartDistance,-0.5
;   toolChangeRetractionSpeed,600
;   externalThinWallType,0
;   internalThinWallType,2
;   thinWallAllowedOverlapPercentage,10
;   singleExtrusionMinLength,1
;   singleExtrusionMinPrintingWidthPercentage,50
;   singleExtrusionMaxPrintingWidthPercentage,200
;   singleExtrusionEndpointExtension,0.2
;   horizontalSizeCompensation,0
G90
M83
M106 S0
M140 S50
M190 S50
M104 S230 T0
M109 S230 T0
G28
; process fuse pins
; layer 1, Z = 0.200
T0
G1 E-0.8000 F1398
; feature inner perimeter
; tool H0.200 W0.450
G1 Z0.200 F1002
G1 X53.098 Y55.149 F4800
G1 E0.8000 F1398
G1 X65.642 Y55.138 E0.4881 F1440
G1 X65.733 Y55.418 E0.0115
G1 X62.190 Y57.997 E0.1705
G1 X56.554 Y58.001 E0.2193
G1 X53.007 Y55.429 E0.1705
G1 X53.036 Y55.339 E0.0037
G1 X53.098 Y55.149 F1440
G1 X51.713 Y54.700 F4800
G1 X67.026 Y54.687 E0.5959 F1440
G1 X67.118 Y54.967 E0.0115
G1 X62.337 Y58.447 E0.2301
G1 X56.408 Y58.452 E0.2307
G1 X51.622 Y54.980 E0.2301
G1 X51.651 Y54.890 E0.0037
G1 X51.713 Y54.700 F1440
; feature outer perimeter
G1 X49.851 Y54.251 F4800
G1 X68.887 Y54.236 E0.7408 F1440
G1 X62.483 Y58.897 E0.3082
G1 X62.312 Y58.897 E0.0067
G1 X56.263 Y58.902 E0.2354
G1 X50.013 Y54.369 E0.3004
G1 X49.851 Y54.251 F1440
G1 X51.851 Y54.250 F1440
; feature gap fill
G1 X52.509 Y55.055 F4800
G1 X52.550 Y55.095 E0.0022 F1440
G1 X52.691 Y55.237 F1440
G1 E-0.8000 F1398
; feature solid layer
G1 X55.590 Y56.863 F4800
G1 E0.8000 F1398
G1 X54.230 Y55.503 E0.0748 F1440
G1 X54.866 Y55.503 E0.0247
G1 X57.009 Y57.646 E0.1179
G1 X57.645 Y57.645 E0.0247
G1 X55.502 Y55.502 E0.1179
G1 X56.138 Y55.502 E0.0247
G1 X58.281 Y57.644 E0.1179
G1 X58.917 Y57.644 E0.0247
G1 X56.774 Y55.501 E0.1179
G1 X57.410 Y55.501 E0.0247
G1 X59.553 Y57.643 E0.1179
G1 X60.188 Y57.643 E0.0247
G1 X58.046 Y55.500 E0.1179
G1 X58.682 Y55.500 E0.0247
G1 X60.824 Y57.642 E0.1179
G1 X61.460 Y57.642 E0.0247
G1 X59.317 Y55.499 E0.1179
G1 X59.953 Y55.499 E0.0247
G1 X62.087 Y57.632 E0.1174
G1 X62.455 Y57.364 E0.0177
G1 X60.589 Y55.498 E0.1027
G1 X61.225 Y55.497 E0.0247
G1 X62.824 Y57.096 E0.0880
G1 X63.192 Y56.828 E0.0177
G1 X61.861 Y55.497 E0.0733
G1 X62.497 Y55.496 E0.0247
G1 X63.560 Y56.560 E0.0585
G1 X63.929 Y56.292 E0.0177
G1 X63.133 Y55.496 E0.0438
G1 X63.768 Y55.495 E0.0247
G1 X64.297 Y56.024 E0.0291
G1 X64.665 Y55.756 E0.0177
G1 X64.546 Y55.636 E0.0066
G1 X64.404 Y55.495 F1440
G1 E-0.8000 F1398
; feature inner perimeter
G1 X62.190 Y63.419 F4800
G1 E0.8000 F1398
G1 X65.733 Y65.998 E0.1705 F1440
G1 X65.642 Y66.278 E0.0115
G1 X53.098 Y66.267 E0.4881
G1 X53.007 Y65.987 E0.0115
G1 X56.554 Y63.415 E0.1705
G1 X61.990 Y63.419 E0.2115
G1 X62.190 Y63.419 F1440
G1 X62.337 Y62.969 F4800
G1 X67.118 Y66.449 E0.2301 F1440
G1 X67.026 Y66.729 E0.0115
G1 X51.713 Y66.716 E0.5959
G1 X51.622 Y66.436 E0.0115
G1 X56.408 Y62.964 E0.2301
G1 X62.137 Y62.969 E0.2229
G1 X62.337 Y62.969 F1440
; feature outer perimeter
G1 X62.312 Y62.519 F4800
G1 X62.483 Y62.520 E0.0067 F1440
G1 X68.887 Y67.180 E0.3082
G1 X49.851 Y67.165 E0.7408
G1 X56.263 Y62.514 E0.3082
G1 X62.112 Y62.519 E0.2276
G1 X62.312 Y62.519 F1440
G1 X62.483 Y62.520 F1440
G1 X63.962 Y63.596
; feature solid layer
G1 X63.645 Y64.918 F4800
G1 X64.649 Y65.921 E0.0552 F1440
G1 X64.012 Y65.921 E0.0248
G1 X61.865 Y63.774 E0.1181
G1 X61.228 Y63.774 E0.0248
G1 X63.375 Y65.920 E0.1181
G1 X62.738 Y65.920 E0.0248
G1 X60.591 Y63.773 E0.1181
G1 X59.955 Y63.773 E0.0248
G1 X62.101 Y65.919 E0.1181
G1 X61.464 Y65.919 E0.0248
G1 X59.318 Y63.772 E0.1181
G1 X58.681 Y63.772 E0.0248
G1 X60.827 Y65.918 E0.1181
G1 X60.190 Y65.918 E0.0248
G1 X58.044 Y63.771 E0.1181
G1 X57.407 Y63.771 E0.0248
G1 X59.553 Y65.917 E0.1181
G1 X58.916 Y65.917 E0.0248
G1 X56.770 Y63.770 E0.1181
G1 X56.670 Y63.770 E0.0039
G1 X56.359 Y63.996 E0.0149
G1 X58.279 Y65.916 E0.1057
G1 X57.642 Y65.916 E0.0248
G1 X55.990 Y64.263 E0.0909
G1 X55.621 Y64.531 E0.0177
G1 X57.006 Y65.915 E0.0762
G1 X56.369 Y65.915 E0.0248
G1 X55.252 Y64.798 E0.0614
G1 X54.883 Y65.066 E0.0177
G1 X55.732 Y65.914 E0.0467
G1 X55.095 Y65.913 E0.0248
G1 X54.515 Y65.333 E0.0319
G1 X54.146 Y65.601 E0.0177
G1 X54.458 Y65.913 E0.0172
G1 X53.959 Y65.913 E0.0194
G1 X53.821 Y65.912 F1440
G1 X53.777 Y65.868
G1 E-0.8000 F1398
; feature inner perimeter
G1 X53.098 Y73.545 F4800
G1 E0.8000 F1398
G1 X65.642 Y73.534 E0.4881 F1440
G1 X65.733 Y73.814 E0.0115
G1 X62.190 Y76.393 E0.1705
G1 X56.554 Y76.397 E0.2193
G1 X53.007 Y73.825 E0.1705
G1 X53.036 Y73.735 E0.0037
G1 X53.098 Y73.545 F1440
G1 X51.713 Y73.096 F4800
G1 X67.026 Y73.083 E0.5959 F1440
G1 X67.118 Y73.363 E0.0115
G1 X62.337 Y76.843 E0.2301
G1 X56.408 Y76.848 E0.2307
G1 X51.622 Y73.376 E0.2301
G1 X51.651 Y73.286 E0.0037
G1 X51.713 Y73.096 F1440
; feature outer perimeter
G1 X49.851 Y72.647 F4800
G1 X68.887 Y72.632 E0.7408 F1440
G1 X62.483 Y77.293 E0.3082
G1 X62.312 Y77.293 E0.0067
G1 X56.263 Y77.298 E0.2354
G1 X50.013 Y72.765 E0.3004
G1 X49.851 Y72.647 F1440
G1 X51.851 Y72.646 F1440
; feature gap fill
G1 X52.450 Y73.451 F4800
G1 X52.535 Y73.536 E0.0047 F1440
G1 X52.676 Y73.678 F1440
; feature solid layer
G1 X54.171 Y73.899 F4800
G1 X55.373 Y75.102 E0.0662 F1440
G1 X56.670 Y76.042 E0.0623
G1 X56.950 Y76.042 E0.0109
G1 X54.807 Y73.899 E0.1179
G1 X55.443 Y73.898 E0.0247
G1 X57.586 Y76.041 E0.1179
G1 X58.221 Y76.041 E0.0247
G1 X56.079 Y73.898 E0.1179
G1 X56.715 Y73.897 E0.0247
G1 X58.857 Y76.040 E0.1179
G1 X59.493 Y76.039 E0.0247
G1 X57.350 Y73.897 E0.1179
G1 X57.986 Y73.896 E0.0247
G1 X60.129 Y76.039 E0.1179
G1 X60.765 Y76.038 E0.0247
G1 X58.622 Y73.896 E0.1179
G1 X59.258 Y73.895 E0.0247
G1 X61.401 Y76.038 E0.1179
G1 X62.037 Y76.037 E0.0247
G1 X59.894 Y73.895 E0.1179
G1 X60.530 Y73.894 E0.0247
G1 X62.421 Y75.785 E0.1041
G1 X62.789 Y75.517 E0.0177
G1 X61.166 Y73.893 E0.0894
G1 X61.801 Y73.893 E0.0247
G1 X63.157 Y75.249 E0.0746
G1 X63.526 Y74.981 E0.0177
G1 X62.437 Y73.892 E0.0599
G1 X63.073 Y73.892 E0.0247
G1 X63.894 Y74.713 E0.0452
G1 X64.262 Y74.445 E0.0177
G1 X63.709 Y73.891 E0.0305
G1 X64.345 Y73.891 E0.0247
G1 X64.631 Y74.177 E0.0157
G1 X64.858 Y74.011 E0.0109
G1 X64.999 Y73.909 F1440
G1 X64.981 Y73.890
G1 E-0.8000 F1398
; feature inner perimeter
G1 X62.190 Y81.815 F4800
G1 E0.8000 F1398
G1 X65.733 Y84.394 E0.1705 F1440
G1 X65.642 Y84.674 E0.0115
G1 X53.098 Y84.663 E0.4881
G1 X53.007 Y84.383 E0.0115
G1 X56.554 Y81.811 E0.1705
G1 X61.990 Y81.815 E0.2115
G1 X62.190 Y81.815 F1440
G1 X62.337 Y81.365 F4800
G1 X67.118 Y84.845 E0.2301 F1440
G1 X67.026 Y85.125 E0.0115
G1 X51.713 Y85.112 E0.5959
G1 X51.622 Y84.832 E0.0115
G1 X56.408 Y81.360 E0.2301
G1 X62.137 Y81.365 E0.2229
G1 X62.337 Y81.365 F1440
; feature outer perimeter
G1 X62.312 Y80.915 F4800
G1 X62.483 Y80.915 E0.0067 F1440
G1 X68.887 Y85.576 E0.3082
G1 X49.851 Y85.561 E0.7408
G1 X56.263 Y80.910 E0.3082
G1 X62.112 Y80.915 E0.2276
G1 X62.312 Y80.915 F1440
G1 X62.483 Y80.915 E-0.1665 F1440
G1 X63.011 Y81.300 E-0.6335
G1 X63.962 Y81.992 F1440
; feature gap fill
G1 X66.069 Y84.525 F4800
G1 E0.8000 F1398
G1 X66.172 Y84.627 E0.0057 F1440
G1 X66.313 Y84.769 F1440
G1 E-0.8000 F1398
; feature solid layer
G1 X63.427 Y83.155 F4800
G1 E0.8000 F1398
G1 X64.589 Y84.317 E0.0640 F1440
G1 X63.952 Y84.317 E0.0248
G1 X61.806 Y82.170 E0.1181
G1 X61.169 Y82.170 E0.0248
G1 X63.315 Y84.316 E0.1181
G1 X62.678 Y84.316 E0.0248
G1 X60.532 Y82.169 E0.1181
G1 X59.895 Y82.169 E0.0248
G1 X62.041 Y84.315 E0.1181
G1 X61.404 Y84.315 E0.0248
G1 X59.258 Y82.168 E0.1181
G1 X58.621 Y82.168 E0.0248
G1 X60.768 Y84.314 E0.1181
G1 X60.131 Y84.314 E0.0248
G1 X57.984 Y82.167 E0.1181
G1 X57.347 Y82.167 E0.0248
G1 X59.494 Y84.313 E0.1181
G1 X58.857 Y84.313 E0.0248
G1 X56.710 Y82.166 E0.1181
G1 X56.670 Y82.166 E0.0016
G1 X56.324 Y82.417 E0.0166
G1 X58.220 Y84.312 E0.1043
G1 X57.583 Y84.312 E0.0248
G1 X55.955 Y82.684 E0.0896
G1 X55.587 Y82.952 E0.0177
G1 X56.946 Y84.311 E0.0748
G1 X56.309 Y84.310 E0.0248
G1 X55.218 Y83.219 E0.0601
G1 X54.849 Y83.487 E0.0177
G1 X55.672 Y84.310 E0.0453
G1 X55.035 Y84.309 E0.0248
G1 X54.480 Y83.754 E0.0306
G1 X54.111 Y84.022 E0.0177
G1 X54.398 Y84.309 E0.0158
G1 X53.934 Y84.309 E0.0180
G1 X53.761 Y84.308 F1440
G1 X53.742 Y84.289
G1 E-0.8000 F1398
; feature inner perimeter
G1 X53.098 Y91.941 F4800
G1 E0.8000 F1398
G1 X65.642 Y91.930 E0.4881 F1440
G1 X65.733 Y92.210 E0.0115
G1 X62.190 Y94.789 E0.1705
G1 X56.554 Y94.793 E0.2193
G1 X53.007 Y92.221 E0.1705
G1 X53.036 Y92.131 E0.0037
G1 X53.098 Y91.941 F1440
G1 X51.713 Y91.492 F4800
G1 X67.026 Y91.479 E0.5959 F1440
G1 X67.118 Y91.759 E0.0115
G1 X62.337 Y95.239 E0.2301
G1 X56.408 Y95.244 E0.2307
G1 X51.622 Y91.772 E0.2301
G1 X51.651 Y91.682 E0.0037
G1 X51.713 Y91.492 F1440
; feature outer perimeter
G1 X49.851 Y91.043 F4800
G1 X68.887 Y91.028 E0.7408 F1440
G1 X62.483 Y95.689 E0.3082
G1 X62.312 Y95.689 E0.0067
G1 X56.263 Y95.694 E0.2354
G1 X50.013 Y91.161 E0.3004
G1 X49.851 Y91.043 F1440
G1 X51.851 Y91.042 F1440
; feature gap fill
G1 X52.390 Y91.847 F4800
G1 X52.406 Y91.862 E0.0008 F1440
G1 X52.547 Y92.004 F1440
; feature solid layer
G1 X54.112 Y92.295 F4800
G1 X55.157 Y93.341 E0.0575 F1440
G1 X56.670 Y94.438 E0.0727
G1 X56.890 Y94.438 E0.0086
G1 X54.747 Y92.295 E0.1179
G1 X55.383 Y92.294 E0.0247
G1 X57.526 Y94.437 E0.1179
G1 X58.162 Y94.437 E0.0247
G1 X56.019 Y92.294 E0.1179
G1 X56.655 Y92.293 E0.0247
G1 X58.798 Y94.436 E0.1179
G1 X59.434 Y94.436 E0.0247
G1 X57.291 Y92.293 E0.1179
G1 X57.927 Y92.292 E0.0247
G1 X60.070 Y94.435 E0.1179
G1 X60.705 Y94.434 E0.0247
G1 X58.563 Y92.292 E0.1179
G1 X59.199 Y92.291 E0.0247
G1 X61.341 Y94.434 E0.1179
G1 X61.977 Y94.433 E0.0247
G1 X59.834 Y92.291 E0.1179
G1 X60.470 Y92.290 E0.0247
G1 X62.386 Y94.206 E0.1055
G1 X62.755 Y93.938 E0.0177
G1 X61.106 Y92.290 E0.0907
G1 X61.742 Y92.289 E0.0247
G1 X63.123 Y93.670 E0.0760
G1 X63.491 Y93.402 E0.0177
G1 X62.378 Y92.288 E0.0613
G1 X63.014 Y92.288 E0.0247
G1 X63.860 Y93.134 E0.0466
G1 X64.228 Y92.866 E0.0177
G1 X63.650 Y92.287 E0.0318
G1 X64.285 Y92.287 E0.0247
G1 X64.596 Y92.598 E0.0171
G1 X64.852 Y92.411 E0.0123
G1 X64.965 Y92.330 F1440
G1 X64.921 Y92.286
G1 E-0.8000 F1398
; feature inner perimeter
G1 X62.190 Y100.211 F4800
G1 E0.8000 F1398
G1 X65.733 Y102.790 E0.1705 F1440
G1 X65.642 Y103.070 E0.0115
G1 X53.098 Y103.059 E0.4881
G1 X53.007 Y102.779 E0.0115
G1 X56.554 Y100.207 E0.1705
G1 X61.990 Y100.211 E0.2115
G1 X62.190 Y100.211 F1440
G1 X62.337 Y99.761 F4800
G1 X67.118 Y103.241 E0.2301 F1440
G1 X67.026 Y103.521 E0.0115
G1 X51.713 Y103.508 E0.5959
G1 X51.622 Y103.228 E0.0115
G1 X56.408 Y99.756 E0.2301
G1 X62.137 Y99.761 E0.2229
G1 X62.337 Y99.761 F1440
; feature outer perimeter
G1 X62.312 Y99.311 F4800
G1 X62.483 Y99.311 E0.0067 F1440
G1 X68.887 Y103.972 E0.3082
G1 X49.851 Y103.957 E0.7408
