; G-Code generated by Simplify3D(R) Version 4.1.1
; Mar 6, 2019 at 8:43:01 PM
; Settings Summary
;   processName,wing2per
;   applyToModels,Il-2 gear bay L1,Il-2 gear bay L2,Il-2 gear bay L3,Il-2 gear bay L1(2),Il-2 gear bay L2(2),Il-2 gear bay L3(2)
;   profileName,Default (modified)
;   profileVersion,2016-04-14 15:44:02
;   baseProfile,Default
;   printMaterial,
;   printQuality,
;   printExtruders,
;   extruderName,Primary Extruder
;   extruderToolheadNumber,0
;   extruderDiameter,0.4
;   extruderAutoWidth,0
;   extruderWidth,0.42
;   extrusionMultiplier,1.02
;   extruderUseRetract,1
;   extruderRetractionDistance,0.8
;   extruderExtraRestartDistance,0.12
;   extruderRetractionZLift,0
;   extruderRetractionSpeed,1800
;   extruderUseCoasting,1
;   extruderCoastingDistance,0.2
;   extruderUseWipe,1
;   extruderWipeDistance,2
;   primaryExtruder,0
;   layerHeight,0.25
;   topSolidLayers,0
;   bottomSolidLayers,0
;   perimeterOutlines,2
;   printPerimetersInsideOut,1
;   startPointOption,3
;   startPointOriginX,200
;   startPointOriginY,100
;   sequentialIslands,0
;   spiralVaseMode,0
;   firstLayerHeightPercentage,90
;   firstLayerWidthPercentage,110
;   firstLayerUnderspeed,0.5
;   useRaft,0
;   raftExtruder,0
;   raftTopLayers,3
;   raftBaseLayers,2
;   raftOffset,3
;   raftSeparationDistance,0.14
;   raftTopInfill,100
;   aboveRaftSpeedMultiplier,0.3
;   useSkirt,1
;   skirtExtruder,0
;   skirtLayers,1
;   skirtOutlines,1
;   skirtOffset,1.4
;   usePrimePillar,0
;   primePillarExtruder,999
;   primePillarWidth,12
;   primePillarLocation,7
;   primePillarSpeedMultiplier,1
;   useOozeShield,0
;   oozeShieldExtruder,999
;   oozeShieldOffset,2
;   oozeShieldOutlines,1
;   oozeShieldSidewallShape,1
;   oozeShieldSidewallAngle,30
;   oozeShieldSpeedMultiplier,1
;   infillExtruder,0
;   internalInfillPattern,Rectilinear
;   externalInfillPattern,Rectilinear
;   infillPercentage,0
;   outlineOverlapPercentage,15
;   infillExtrusionWidthPercentage,100
;   minInfillLength,5
;   infillLayerInterval,1
;   internalInfillAngles,45,-45
;   overlapInternalInfillAngles,0
;   externalInfillAngles,45,-45
;   generateSupport,0
;   supportExtruder,0
;   supportInfillPercentage,30
;   supportExtraInflation,0
;   supportBaseLayers,0
;   denseSupportExtruder,0
;   denseSupportLayers,0
;   denseSupportInfillPercentage,70
;   supportLayerInterval,1
;   supportHorizontalPartOffset,0.3
;   supportUpperSeparationLayers,1
;   supportLowerSeparationLayers,1
;   supportType,0
;   supportGridSpacing,4
;   maxOverhangAngle,45
;   supportAngles,0
;   temperatureName,Primary Extruder,Heated Bed
;   temperatureNumber,0,1
;   temperatureSetpointCount,1,1
;   temperatureSetpointLayers,1,1
;   temperatureSetpointTemperatures,230,56
;   temperatureStabilizeAtStartup,1,1
;   temperatureHeatedBed,0,1
;   fanLayers,1
;   fanSpeeds,0
;   blipFanToFullPower,1
;   adjustSpeedForCooling,1
;   minSpeedLayerTime,15
;   minCoolingSpeedSlowdown,30
;   increaseFanForCooling,0
;   minFanLayerTime,45
;   maxCoolingFanSpeed,100
;   increaseFanForBridging,0
;   bridgingFanSpeed,100
;   use5D,1
;   relativeEdistances,0
;   allowEaxisZeroing,1
;   independentExtruderAxes,0
;   includeM10123,0
;   stickySupport,1
;   applyToolheadOffsets,0
;   gcodeXoffset,0
;   gcodeYoffset,0
;   gcodeZoffset,0
;   overrideMachineDefinition,0
;   machineTypeOverride,0
;   strokeXoverride,200
;   strokeYoverride,200
;   strokeZoverride,175
;   originOffsetXoverride,0
;   originOffsetYoverride,0
;   originOffsetZoverride,0
;   homeXdirOverride,-1
;   homeYdirOverride,-1
;   homeZdirOverride,-1
;   flipXoverride,1
;   flipYoverride,-1
;   flipZoverride,1
;   toolheadOffsets,0,0|0,0|0,0|0,0|0,0|0,0
;   overrideFirmwareConfiguration,0
;   firmwareTypeOverride,RepRap (Marlin/Repetier/Sprinter)
;   GPXconfigOverride,r2
;   baudRateOverride,115200
;   overridePrinterModels,0
;   printerModelsOverride
;   startingGcode,G28,
;   layerChangeGcode,
;   retractionGcode,
;   toolChangeGcode,
;   endingGcode,M104 S0 ; turn off extruder,M140 S0 ; turn off bed,G28 X0 ; home X axis,M84 ; disable motors,M107 ; turn off fan
;   exportFileFormat,gcode
;   celebration,0
;   celebrationSong,Random Song
;   postProcessing,
;   defaultSpeed,3600
;   outlineUnderspeed,0.7
;   solidInfillUnderspeed,0.8
;   supportUnderspeed,0.8
;   rapidXYspeed,7800
;   rapidZspeed,1002
;   minBridgingArea,5
;   bridgingExtraInflation,0
;   bridgingExtrusionMultiplier,1
;   bridgingSpeedMultiplier,0.3
;   useFixedBridgingAngle,0
;   fixedBridgingAngle,0
;   applyBridgingToPerimeters,0
;   filamentDiameters,1.75|1.75|1.75|1.75|1.75|1.75
;   filamentPricesPerKg,1000|1000|1000|1000|1000|1000
;   filamentDensities,1.25|1.25|1.25|1.25|1.25|1.25
;   useMinPrintHeight,1
;   minPrintHeight,0
;   useMaxPrintHeight,1
;   maxPrintHeight,1
;   useDiaphragm,0
;   diaphragmLayerInterval,20
;   robustSlicing,1
;   mergeAllIntoSolid,0
;   onlyRetractWhenCrossingOutline,0
;   retractBetweenLayers,0
;   useRetractionMinTravel,0
;   retractionMinTravel,3
;   retractWhileWiping,0
;   onlyWipeOutlines,1
;   avoidCrossingOutline,0
;   maxMovementDetourFactor,3
;   toolChangeRetractionDistance,0
;   toolChangeExtraRestartDistance,0
;   toolChangeRetractionSpeed,360
;   externalThinWallType,0
;   internalThinWallType,2
;   thinWallAllowedOverlapPercentage,10
;   singleExtrusionMinLength,1
;   singleExtrusionMinPrintingWidthPercentage,50
;   singleExtrusionMaxPrintingWidthPercentage,200
;   singleExtrusionEndpointExtension,0.2
;   horizontalSizeCompensation,0
G90
M82
M106 S0
M140 S56
M190 S56
M104 S230 T0
M109 S230 T0
G28
; process wing2per
; layer 1, Z = 0.225
T0
G92 E0.0000
G1 E-0.8000 F1800
; feature skirt
; tool H0.225 W0.462
G1 Z0.225 F1002
G1 X93.208 Y76.861 F7800
G1 E0.1200 F1800
G92 E0.0000
G1 X93.197 Y76.904 E0.0020 F1800
G1 X92.991 Y77.676 E0.0372
G1 X92.978 Y77.720 E0.0392
G1 X92.748 Y78.418 E0.0716
G1 X92.733 Y78.460 E0.0736
G1 X92.418 Y79.265 E0.1117
G1 X92.397 Y79.313 E0.1140
G1 X92.030 Y80.100 E0.1523
G1 X92.007 Y80.146 E0.1545
G1 X91.621 Y80.856 E0.1902
G1 X91.595 Y80.900 E0.1924
G1 X91.137 Y81.630 E0.2304
G1 X91.099 Y81.686 E0.2334
G1 X90.274 Y82.787 E0.2940
G1 X90.222 Y82.849 E0.2976
G1 X89.540 Y83.593 E0.3421
G1 X89.497 Y83.637 E0.3448
G1 X88.866 Y84.230 E0.3830
G1 X88.825 Y84.266 E0.3854
G1 X88.227 Y84.758 E0.4195
G1 X88.184 Y84.791 E0.4219
G1 X87.444 Y85.321 E0.4620
G1 X87.396 Y85.353 E0.4646
G1 X86.733 Y85.760 E0.4989
G1 X86.684 Y85.788 E0.5014
G1 X85.938 Y86.178 E0.5385
G1 X85.884 Y86.203 E0.5411
G1 X85.116 Y86.536 E0.5780
G1 X85.060 Y86.557 E0.5806
G1 X84.267 Y86.834 E0.6177
G1 X84.192 Y86.856 E0.6211
G1 X82.918 Y87.168 E0.6789
G1 X82.825 Y87.185 E0.6831
G1 X81.538 Y87.345 E0.7402
G1 X81.468 Y87.351 E0.7433
G1 X80.809 Y87.376 E0.7724
G1 X80.717 Y87.374 E0.7765
G1 X79.969 Y87.318 E0.8095
G1 X79.920 Y87.313 E0.8117
G1 X78.980 Y87.185 E0.8535
G1 X78.926 Y87.176 E0.8560
G1 X78.014 Y86.989 E0.8970
G1 X77.963 Y86.977 E0.8993
G1 X77.124 Y86.747 E0.9376
G1 X77.076 Y86.733 E0.9398
G1 X76.254 Y86.452 E0.9781
G1 X76.206 Y86.434 E0.9804
G1 X75.346 Y86.079 E1.0214
G1 X75.298 Y86.057 E1.0237
G1 X74.518 Y85.675 E1.0620
G1 X74.473 Y85.651 E1.0643
G1 X73.718 Y85.221 E1.1026
G1 X73.675 Y85.195 E1.1048
G1 X72.898 Y84.686 E1.1457
G1 X72.855 Y84.655 E1.1481
G1 X72.157 Y84.130 E1.1866
G1 X72.115 Y84.096 E1.1890
G1 X71.365 Y83.449 E1.2326
G1 X71.326 Y83.413 E1.2350
G1 X70.794 Y82.890 E1.2678
G1 X70.758 Y82.852 E1.2702
G1 X70.105 Y82.121 E1.3133
G1 X70.070 Y82.078 E1.3158
G1 X69.613 Y81.491 E1.3486
G1 X69.582 Y81.448 E1.3509
G1 X69.076 Y80.702 E1.3906
G1 X69.046 Y80.654 E1.3931
G1 X68.575 Y79.843 E1.4345
G1 X68.548 Y79.793 E1.4370
G1 X68.163 Y79.008 E1.4755
G1 X68.141 Y78.958 E1.4780
G1 X67.809 Y78.148 E1.5165
G1 X67.790 Y78.097 E1.5189
G1 X67.514 Y77.268 E1.5574
G1 X67.499 Y77.216 E1.5598
G1 X67.278 Y76.370 E1.5984
G1 X67.266 Y76.318 E1.6008
G1 X67.101 Y75.454 E1.6395
G1 X67.091 Y75.390 E1.6423
G1 X66.908 Y73.738 E1.7156
G1 X67.005 Y73.479 E1.7278
G1 X66.909 Y73.226 E1.7397
G1 X67.074 Y71.670 E1.8087
G1 X67.083 Y71.604 E1.8116
G1 X67.251 Y70.714 E1.8516
G1 X67.262 Y70.663 E1.8539
G1 X67.494 Y69.757 E1.8951
G1 X67.511 Y69.701 E1.8977
G1 X67.808 Y68.814 E1.9389
G1 X67.827 Y68.761 E1.9414
G1 X68.160 Y67.956 E1.9798
G1 X68.183 Y67.906 E1.9822
G1 X68.541 Y67.179 E2.0180
G1 X68.566 Y67.133 E2.0203
G1 X69.032 Y66.326 E2.0614
G1 X69.063 Y66.276 E2.0639
G1 X69.551 Y65.554 E2.1024
G1 X69.582 Y65.511 E2.1047
G1 X70.113 Y64.827 E2.1429
G1 X70.151 Y64.782 E2.1455
G1 X70.761 Y64.102 E2.1857
G1 X70.797 Y64.065 E2.1880
G1 X71.370 Y63.503 E2.2234
G1 X71.412 Y63.464 E2.2259
G1 X72.140 Y62.842 E2.2681
G1 X72.180 Y62.811 E2.2704
G1 X72.874 Y62.290 E2.3086
G1 X72.915 Y62.261 E2.3108
G1 X73.639 Y61.785 E2.3490
G1 X73.682 Y61.758 E2.3513
G1 X74.434 Y61.327 E2.3895
G1 X74.480 Y61.303 E2.3917
G1 X75.311 Y60.895 E2.4325
G1 X75.358 Y60.874 E2.4348
G1 X76.159 Y60.541 E2.4730
G1 X76.206 Y60.524 E2.4753
G1 X77.027 Y60.241 E2.5135
G1 X77.076 Y60.226 E2.5158
G1 X77.967 Y59.980 E2.5565
G1 X78.020 Y59.968 E2.5589
G1 X78.928 Y59.781 E2.5998
G1 X78.982 Y59.772 E2.6022
G1 X79.920 Y59.645 E2.6440
G1 X79.969 Y59.639 E2.6462
G1 X80.715 Y59.584 E2.6791
G1 X80.804 Y59.582 E2.6830
G1 X81.448 Y59.604 E2.7115
G1 X81.521 Y59.610 E2.7147
G1 X82.857 Y59.776 E2.7740
G1 X82.956 Y59.794 E2.7784
G1 X84.299 Y60.133 E2.8395
G1 X84.369 Y60.154 E2.8427
G1 X85.044 Y60.391 E2.8742
G1 X85.100 Y60.413 E2.8769
G1 X85.899 Y60.760 E2.9153
G1 X85.952 Y60.786 E2.9179
G1 X86.702 Y61.179 E2.9553
G1 X86.750 Y61.206 E2.9577
G1 X87.400 Y61.606 E2.9913
G1 X87.446 Y61.636 E2.9937
G1 X88.142 Y62.131 E3.0314
G1 X88.189 Y62.167 E3.0340
G1 X88.887 Y62.745 E3.0740
G1 X88.926 Y62.779 E3.0762
G1 X89.440 Y63.263 E3.1073
G1 X89.476 Y63.299 E3.1096
G1 X90.061 Y63.921 E3.1472
G1 X90.100 Y63.966 E3.1499
G1 X90.654 Y64.650 E3.1886
G1 X90.687 Y64.693 E3.1911
G1 X91.183 Y65.397 E3.2290
G1 X91.209 Y65.436 E3.2311
G1 X91.592 Y66.051 E3.2630
G1 X91.616 Y66.092 E3.2651
G1 X92.011 Y66.817 E3.3015
G1 X92.033 Y66.861 E3.3037
G1 X92.367 Y67.574 E3.3384
G1 X92.386 Y67.618 E3.3405
G1 X92.711 Y68.432 E3.3791
G1 X92.728 Y68.479 E3.3814
G1 X92.986 Y69.261 E3.4177
G1 X93.005 Y69.327 E3.4207
G1 X93.361 Y70.819 E3.4883
G1 X93.374 Y70.886 E3.4913
G1 X93.500 Y71.715 E3.5282
G1 X93.505 Y71.759 E3.5302
G1 X93.584 Y72.576 E3.5664
G1 X93.588 Y72.624 E3.5685
G1 X93.619 Y73.461 E3.6054
G1 X93.618 Y73.547 E3.6092
G1 X93.507 Y75.173 E3.6811
G1 X93.499 Y75.241 E3.6841
G1 X93.373 Y76.068 E3.7210
G1 X93.365 Y76.112 E3.7229
G1 X93.208 Y76.861 E3.7567
G92 E0.0000
G1 E-0.8000 F1800
G1 X114.665 Y113.911 F7800
G1 E0.1200 F1800
G92 E0.0000
G1 X114.673 Y113.972 E0.0027 F1800
G1 X114.788 Y115.249 E0.0592
G1 X114.790 Y115.350 E0.0637
G1 X114.753 Y116.465 E0.1129
G1 X114.747 Y116.536 E0.1160
G1 X114.636 Y117.451 E0.1566
G1 X114.627 Y117.506 E0.1591
G1 X114.465 Y118.349 E0.1969
G1 X114.450 Y118.416 E0.1999
G1 X114.102 Y119.659 E0.2568
G1 X114.076 Y119.736 E0.2604
G1 X113.606 Y120.936 E0.3172
G1 X113.578 Y121.000 E0.3203
G1 X113.159 Y121.847 E0.3620
G1 X113.125 Y121.909 E0.3651
G1 X112.455 Y123.013 E0.4220
G1 X112.409 Y123.081 E0.4256
G1 X111.630 Y124.115 E0.4827
G1 X111.578 Y124.178 E0.4863
G1 X110.701 Y125.126 E0.5432
G1 X110.646 Y125.181 E0.5467
G1 X109.715 Y126.012 E0.6017
G1 X109.657 Y126.060 E0.6050
G1 X108.655 Y126.801 E0.6599
G1 X108.593 Y126.843 E0.6632
G1 X107.529 Y127.489 E0.7181
G1 X107.464 Y127.524 E0.7214
G1 X106.346 Y128.071 E0.7762
G1 X106.278 Y128.100 E0.7795
G1 X105.115 Y128.544 E0.8344
G1 X105.044 Y128.567 E0.8376
G1 X103.845 Y128.903 E0.8925
G1 X103.772 Y128.920 E0.8958
G1 X102.548 Y129.145 E0.9507
G1 X102.474 Y129.156 E0.9540
G1 X101.219 Y129.269 E1.0096
G1 X101.114 Y129.272 E1.0142
G1 X100.299 Y129.241 E1.0501
G1 X100.224 Y129.235 E1.0534
G1 X99.051 Y129.081 E1.1056
G1 X98.965 Y129.065 E1.1095
G1 X97.809 Y128.785 E1.1619
G1 X97.725 Y128.760 E1.1657
G1 X96.599 Y128.355 E1.2185
G1 X96.525 Y128.324 E1.2221
G1 X95.577 Y127.872 E1.2683
G1 X95.511 Y127.837 E1.2716
G1 X94.564 Y127.273 E1.3202
G1 X94.497 Y127.229 E1.3237
G1 X93.521 Y126.507 E1.3773
G1 X93.457 Y126.455 E1.3809
G1 X92.565 Y125.646 E1.4340
G1 X92.520 Y125.602 E1.4368
G1 X92.037 Y125.090 E1.4678
G1 X91.994 Y125.041 E1.4706
G1 X91.167 Y124.011 E1.5289
G1 X91.120 Y123.946 E1.5324
G1 X90.458 Y122.932 E1.5858
G1 X90.420 Y122.868 E1.5891
G1 X89.856 Y121.801 E1.6423
G1 X89.825 Y121.735 E1.6455
G1 X89.358 Y120.621 E1.6987
G1 X89.332 Y120.550 E1.7021
G1 X88.931 Y119.272 E1.7611
G1 X88.912 Y119.197 E1.7645
G1 X88.637 Y117.899 E1.8230
G1 X88.625 Y117.826 E1.8263
G1 X88.482 Y116.636 E1.8791
G1 X88.477 Y116.574 E1.8819
G1 X88.436 Y115.613 E1.9243
G1 X88.437 Y115.531 E1.9279
G1 X88.514 Y114.187 E1.9872
G1 X88.522 Y114.110 E1.9906
G1 X88.722 Y112.800 E2.0490
G1 X88.737 Y112.725 E2.0524
G1 X89.064 Y111.424 E2.1115
G1 X89.085 Y111.352 E2.1148
G1 X89.487 Y110.212 E2.1681
G1 X89.515 Y110.141 E2.1715
G1 X90.072 Y108.931 E2.2302
G1 X90.108 Y108.863 E2.2336
G1 X90.715 Y107.819 E2.2868
G1 X90.755 Y107.756 E2.2901
G1 X91.455 Y106.773 E2.3433
G1 X91.503 Y106.713 E2.3467
G1 X92.290 Y105.804 E2.3997
G1 X92.335 Y105.756 E2.4026
G1 X92.920 Y105.181 E2.4388
G1 X92.970 Y105.136 E2.4418
G1 X93.897 Y104.365 E2.4949
G1 X93.963 Y104.315 E2.4986
G1 X94.971 Y103.638 E2.5521
G1 X95.045 Y103.594 E2.5559
G1 X96.119 Y103.025 E2.6095
G1 X96.198 Y102.988 E2.6133
G1 X97.329 Y102.536 E2.6670
G1 X97.409 Y102.508 E2.6707
G1 X98.488 Y102.203 E2.7202
G1 X98.575 Y102.183 E2.7241
G1 X99.835 Y101.970 E2.7804
G1 X99.925 Y101.960 E2.7844
G1 X101.092 Y101.895 E2.8359
G1 X101.211 Y101.897 E2.8412
G1 X102.474 Y102.012 E2.8971
G1 X102.548 Y102.022 E2.9004
G1 X103.772 Y102.247 E2.9553
G1 X103.845 Y102.264 E2.9585
G1 X105.044 Y102.600 E3.0134
G1 X105.115 Y102.623 E3.0167
G1 X106.278 Y103.067 E3.0716
G1 X106.346 Y103.096 E3.0748
G1 X107.464 Y103.643 E3.1297
G1 X107.529 Y103.679 E3.1330
G1 X108.593 Y104.325 E3.1879
G1 X108.655 Y104.366 E3.1911
G1 X109.656 Y105.107 E3.2460
G1 X109.714 Y105.154 E3.2493
G1 X110.640 Y105.979 E3.3040
G1 X110.686 Y106.024 E3.3068
G1 X111.229 Y106.590 E3.3414
G1 X111.260 Y106.625 E3.3435
G1 X111.759 Y107.208 E3.3773
G1 X111.799 Y107.259 E3.3802
G1 X112.548 Y108.292 E3.4364
G1 X112.592 Y108.360 E3.4400
G1 X113.239 Y109.470 E3.4966
G1 X113.274 Y109.538 E3.5000
G1 X113.756 Y110.578 E3.5505
G1 X113.785 Y110.649 E3.5539
G1 X114.214 Y111.861 E3.6106
G1 X114.238 Y111.939 E3.6142
G1 X114.543 Y113.188 E3.6709
G1 X114.555 Y113.249 E3.6736
G1 X114.665 Y113.911 E3.7032
G92 E0.0000
G1 E-0.8000 F1800
G1 X142.811 Y113.231 F7800
G1 E0.1200 F1800
G92 E0.0000
G1 X142.826 Y113.311 E0.0036 F1800
G1 X143.005 Y114.609 E0.0613
G1 X143.012 Y114.685 E0.0647
G1 X143.054 Y115.683 E0.1088
G1 X143.054 Y115.761 E0.1122
G1 X143.023 Y116.334 E0.1375
G1 X143.018 Y116.391 E0.1400
G1 X142.865 Y117.643 E0.1956
G1 X142.851 Y117.723 E0.1992
G1 X142.568 Y118.979 E0.2560
G1 X142.548 Y119.053 E0.2593
G1 X142.195 Y120.133 E0.3094
G1 X142.168 Y120.205 E0.3128
G1 X141.661 Y121.376 E0.3691
G1 X141.635 Y121.431 E0.3717
G1 X141.326 Y122.018 E0.4010
G1 X141.296 Y122.070 E0.4036
G1 X140.624 Y123.148 E0.4596
G1 X140.580 Y123.211 E0.4630
G1 X139.879 Y124.129 E0.5139
G1 X139.830 Y124.188 E0.5173
G1 X138.962 Y125.128 E0.5737
G1 X138.905 Y125.183 E0.5772
G1 X137.974 Y126.014 E0.6322
G1 X137.916 Y126.061 E0.6355
G1 X136.915 Y126.801 E0.6904
G1 X136.853 Y126.843 E0.6937
G1 X135.788 Y127.489 E0.7486
G1 X135.724 Y127.524 E0.7518
G1 X134.605 Y128.071 E0.8067
G1 X134.538 Y128.100 E0.8100
G1 X133.374 Y128.544 E0.8648
G1 X133.304 Y128.567 E0.8681
G1 X132.105 Y128.903 E0.9230
G1 X132.032 Y128.920 E0.9263
G1 X130.807 Y129.145 E0.9812
G1 X130.733 Y129.156 E0.9845
G1 X129.478 Y129.269 E1.0400
G1 X129.373 Y129.272 E1.0446
G1 X128.559 Y129.241 E1.0806
G1 X128.484 Y129.235 E1.0839
G1 X127.311 Y129.081 E1.1361
G1 X127.225 Y129.065 E1.1399
G1 X126.069 Y128.785 E1.1923
G1 X125.985 Y128.760 E1.1962
G1 X124.859 Y128.355 E1.2489
G1 X124.784 Y128.324 E1.2525
G1 X123.837 Y127.872 E1.2988
G1 X123.771 Y127.837 E1.3021
G1 X122.824 Y127.273 E1.3506
G1 X122.757 Y127.229 E1.3542
