; G-Code generated by Simplify3D(R) Version 4.1.1
; Mar 6, 2019 at 8:59:32 PM
; Settings Summary
;   processName,thick
;   applyToModels,Il-2 wing servo cover,Il-2 wing servo cover(2)
;   profileName,Default (modified)
;   profileVersion,2016-04-14 15:44:02
;   baseProfile,Default
;   printMaterial,
;   printQuality,
;   printExtruders,
;   extruderName,Primary Extruder
;   extruderToolheadNumber,0
;   extruderDiameter,0.4
;   extruderAutoWidth,0
;   extruderWidth,0.42
;   extrusionMultiplier,1.02
;   extruderUseRetract,1
;   extruderRetractionDistance,0.8
;   extruderExtraRestartDistance,0.07
;   extruderRetractionZLift,0
;   extruderRetractionSpeed,1800
;   extruderUseCoasting,1
;   extruderCoastingDistance,0.2
;   extruderUseWipe,1
;   extruderWipeDistance,2
;   primaryExtruder,0
;   layerHeight,0.25
;   topSolidLayers,2
;   bottomSolidLayers,2
;   perimeterOutlines,2
;   printPerimetersInsideOut,1
;   startPointOption,3
;   startPointOriginX,200
;   startPointOriginY,100
;   sequentialIslands,0
;   spiralVaseMode,0
;   firstLayerHeightPercentage,90
;   firstLayerWidthPercentage,108
;   firstLayerUnderspeed,0.5
;   useRaft,0
;   raftExtruder,0
;   raftTopLayers,3
;   raftBaseLayers,2
;   raftOffset,3
;   raftSeparationDistance,0.14
;   raftTopInfill,100
;   aboveRaftSpeedMultiplier,0.3
;   useSkirt,1
;   skirtExtruder,0
;   skirtLayers,1
;   skirtOutlines,1
;   skirtOffset,1.4
;   usePrimePillar,0
;   primePillarExtruder,999
;   primePillarWidth,12
;   primePillarLocation,7
;   primePillarSpeedMultiplier,1
;   useOozeShield,0
;   oozeShieldExtruder,999
;   oozeShieldOffset,2
;   oozeShieldOutlines,1
;   oozeShieldSidewallShape,1
;   oozeShieldSidewallAngle,30
;   oozeShieldSpeedMultiplier,1
;   infillExtruder,0
;   internalInfillPattern,Rectilinear
;   externalInfillPattern,Rectilinear
;   infillPercentage,30
;   outlineOverlapPercentage,15
;   infillExtrusionWidthPercentage,100
;   minInfillLength,5
;   infillLayerInterval,1
;   internalInfillAngles,45,-45
;   overlapInternalInfillAngles,0
;   externalInfillAngles,45,-45
;   generateSupport,0
;   supportExtruder,0
;   supportInfillPercentage,30
;   supportExtraInflation,0
;   supportBaseLayers,0
;   denseSupportExtruder,0
;   denseSupportLayers,0
;   denseSupportInfillPercentage,70
;   supportLayerInterval,1
;   supportHorizontalPartOffset,0.3
;   supportUpperSeparationLayers,1
;   supportLowerSeparationLayers,1
;   supportType,0
;   supportGridSpacing,4
;   maxOverhangAngle,45
;   supportAngles,0
;   temperatureName,Primary Extruder,Heated Bed
;   temperatureNumber,0,1
;   temperatureSetpointCount,1,1
;   temperatureSetpointLayers,1,1
;   temperatureSetpointTemperatures,230,56
;   temperatureStabilizeAtStartup,1,1
;   temperatureHeatedBed,0,1
;   fanLayers,1
;   fanSpeeds,0
;   blipFanToFullPower,1
;   adjustSpeedForCooling,1
;   minSpeedLayerTime,15
;   minCoolingSpeedSlowdown,30
;   increaseFanForCooling,0
;   minFanLayerTime,45
;   maxCoolingFanSpeed,100
;   increaseFanForBridging,0
;   bridgingFanSpeed,100
;   use5D,1
;   relativeEdistances,0
;   allowEaxisZeroing,1
;   independentExtruderAxes,0
;   includeM10123,0
;   stickySupport,1
;   applyToolheadOffsets,0
;   gcodeXoffset,0
;   gcodeYoffset,0
;   gcodeZoffset,0
;   overrideMachineDefinition,0
;   machineTypeOverride,0
;   strokeXoverride,200
;   strokeYoverride,200
;   strokeZoverride,175
;   originOffsetXoverride,0
;   originOffsetYoverride,0
;   originOffsetZoverride,0
;   homeXdirOverride,-1
;   homeYdirOverride,-1
;   homeZdirOverride,-1
;   flipXoverride,1
;   flipYoverride,-1
;   flipZoverride,1
;   toolheadOffsets,0,0|0,0|0,0|0,0|0,0|0,0
;   overrideFirmwareConfiguration,0
;   firmwareTypeOverride,RepRap (Marlin/Repetier/Sprinter)
;   GPXconfigOverride,r2
;   baudRateOverride,115200
;   overridePrinterModels,0
;   printerModelsOverride
;   startingGcode,G28,
;   layerChangeGcode,
;   retractionGcode,
;   toolChangeGcode,
;   endingGcode,M104 S0 ; turn off extruder,M140 S0 ; turn off bed,G28 X0 ; home X axis,M84 ; disable motors,M107 ; turn off fan
;   exportFileFormat,gcode
;   celebration,0
;   celebrationSong,Random Song
;   postProcessing,
;   defaultSpeed,3600
;   outlineUnderspeed,0.7
;   solidInfillUnderspeed,0.8
;   supportUnderspeed,0.8
;   rapidXYspeed,7800
;   rapidZspeed,1002
;   minBridgingArea,5
;   bridgingExtraInflation,0
;   bridgingExtrusionMultiplier,1
;   bridgingSpeedMultiplier,0.3
;   useFixedBridgingAngle,0
;   fixedBridgingAngle,0
;   applyBridgingToPerimeters,0
;   filamentDiameters,1.75|1.75|1.75|1.75|1.75|1.75
;   filamentPricesPerKg,1000|1000|1000|1000|1000|1000
;   filamentDensities,1.25|1.25|1.25|1.25|1.25|1.25
;   useMinPrintHeight,0
;   minPrintHeight,0
;   useMaxPrintHeight,0
;   maxPrintHeight,0.5
;   useDiaphragm,0
;   diaphragmLayerInterval,20
;   robustSlicing,1
;   mergeAllIntoSolid,0
;   onlyRetractWhenCrossingOutline,0
;   retractBetweenLayers,0
;   useRetractionMinTravel,0
;   retractionMinTravel,3
;   retractWhileWiping,0
;   onlyWipeOutlines,1
;   avoidCrossingOutline,1
;   maxMovementDetourFactor,3
;   toolChangeRetractionDistance,0
;   toolChangeExtraRestartDistance,0
;   toolChangeRetractionSpeed,360
;   externalThinWallType,0
;   internalThinWallType,2
;   thinWallAllowedOverlapPercentage,40
;   singleExtrusionMinLength,1
;   singleExtrusionMinPrintingWidthPercentage,50
;   singleExtrusionMaxPrintingWidthPercentage,200
;   singleExtrusionEndpointExtension,0.2
;   horizontalSizeCompensation,0
G90
M82
M106 S0
M140 S56
M190 S56
M104 S230 T0
M109 S230 T0
G28
; process thick
; layer 1, Z = 0.225
T0
G92 E0.0000
G1 E-0.8000 F1800
; feature skirt
; tool H0.225 W0.454
G1 Z0.225 F1002
G1 X98.471 Y69.242 F7800
G1 E0.0700 F1800
G92 E0.0000
G1 X98.232 Y69.830 E0.0275 F1800
G1 X70.649 Y98.263 E1.7420
G1 X70.531 Y98.364 E1.7487
G1 X69.906 Y98.801 E1.7817
G1 X69.617 Y98.929 E1.7954
G1 X68.772 Y99.122 E1.8329
G1 X68.451 Y99.131 E1.8468
G1 X67.604 Y98.986 E1.8840
G1 X67.315 Y98.878 E1.8973
G1 X66.689 Y98.496 E1.9291
G1 X66.570 Y98.408 E1.9355
G1 X48.476 Y82.263 E2.9850
G1 X48.415 Y82.203 E2.9887
G1 X48.132 Y81.890 E3.0070
G1 X48.030 Y81.751 E3.0144
G1 X47.794 Y81.345 E3.0347
G1 X47.724 Y81.187 E3.0422
G1 X47.579 Y80.742 E3.0625
G1 X47.544 Y80.575 E3.0699
G1 X47.501 Y80.159 E3.0880
G1 X47.496 Y80.075 E3.0916
G1 X47.496 Y65.736 E3.7122
G1 X47.509 Y65.595 E3.7183
G1 X47.618 Y64.976 E3.7456
G1 X47.655 Y64.838 E3.7517
G1 X54.621 Y45.714 E4.6326
G1 X54.672 Y45.601 E4.6380
G1 X54.966 Y45.065 E4.6644
G1 X55.119 Y44.866 E4.6753
G1 X55.615 Y44.392 E4.7050
G1 X55.824 Y44.248 E4.7160
G1 X56.438 Y43.950 E4.7455
G1 X56.674 Y43.877 E4.7562
G1 X57.264 Y43.790 E4.7820
G1 X57.384 Y43.781 E4.7872
G1 X88.506 Y43.781 E6.1342
G1 X88.629 Y43.790 E6.1395
G1 X89.231 Y43.882 E6.1659
G1 X89.469 Y43.957 E6.1767
G1 X90.083 Y44.260 E6.2063
G1 X90.290 Y44.405 E6.2173
G1 X90.779 Y44.878 E6.2467
G1 X90.928 Y45.074 E6.2574
G1 X91.214 Y45.596 E6.2831
G1 X91.263 Y45.705 E6.2883
G1 X98.420 Y65.131 E7.1843
G1 X98.471 Y65.414 E7.1968
G1 X98.471 Y69.242 E7.3624
G92 E0.0000
G1 E-0.8000 F1800
G1 X103.383 Y68.833 F7800
G1 X105.237 Y70.744
G1 X131.641 Y76.606
G1 X132.363 Y76.438
G1 X145.576 Y79.512
G1 X146.095 Y79.695
G1 X146.183 Y79.834
G1 X150.384 Y80.767
G1 X150.422 Y80.725
G1 X150.547 Y80.510
G1 X152.276 Y81.187
G1 E0.0700 F1800
G92 E0.0000
G1 X152.206 Y81.345 E0.0075 F1800
G1 X151.970 Y81.751 E0.0278
G1 X151.868 Y81.890 E0.0352
G1 X151.585 Y82.203 E0.0535
G1 X151.524 Y82.263 E0.0572
G1 X133.430 Y98.408 E1.1068
G1 X133.311 Y98.496 E1.1132
G1 X132.685 Y98.878 E1.1449
G1 X132.396 Y98.986 E1.1582
G1 X131.549 Y99.131 E1.1954
G1 X131.228 Y99.122 E1.2093
G1 X130.383 Y98.929 E1.2469
G1 X130.094 Y98.801 E1.2605
G1 X129.469 Y98.364 E1.2936
G1 X129.351 Y98.263 E1.3002
G1 X101.768 Y69.830 E3.0148
G1 X101.529 Y69.242 E3.0422
G1 X101.529 Y65.414 E3.2079
G1 X101.580 Y65.131 E3.2204
G1 X108.737 Y45.705 E4.1164
G1 X108.786 Y45.596 E4.1216
G1 X109.072 Y45.074 E4.1473
G1 X109.221 Y44.878 E4.1580
G1 X109.710 Y44.405 E4.1874
G1 X109.917 Y44.260 E4.1983
G1 X110.531 Y43.957 E4.2280
G1 X110.769 Y43.882 E4.2388
G1 X111.371 Y43.790 E4.2652
G1 X111.494 Y43.781 E4.2705
G1 X142.616 Y43.781 E5.6175
G1 X142.736 Y43.790 E5.6227
G1 X143.326 Y43.877 E5.6485
G1 X143.562 Y43.950 E5.6592
G1 X144.176 Y44.248 E5.6887
G1 X144.385 Y44.392 E5.6997
G1 X144.881 Y44.866 E5.7294
G1 X145.034 Y45.065 E5.7402
G1 X145.328 Y45.601 E5.7667
G1 X145.379 Y45.714 E5.7720
G1 X152.333 Y64.805 E6.6514
G1 X152.354 Y64.873 E6.6545
G1 X152.445 Y65.211 E6.6697
G1 X152.470 Y65.351 E6.6758
G1 X152.500 Y65.701 E6.6910
G1 X152.504 Y65.772 E6.6941
G1 X152.504 Y80.075 E7.3131
G1 X152.499 Y80.159 E7.3168
G1 X152.456 Y80.575 E7.3349
G1 X152.421 Y80.742 E7.3423
G1 X152.276 Y81.187 E7.3625
G92 E0.0000
G1 E-0.8000 F1800
G1 X152.333 Y121.897 F7800
G1 E0.0700 F1800
G92 E0.0000
G1 X152.354 Y121.965 E0.0031 F1800
G1 X152.445 Y122.304 E0.0182
G1 X152.470 Y122.444 E0.0244
G1 X152.500 Y122.793 E0.0396
G1 X152.504 Y122.864 E0.0427
G1 X152.504 Y137.168 E0.6617
G1 X152.499 Y137.252 E0.6654
G1 X152.456 Y137.667 E0.6834
G1 X152.421 Y137.834 E0.6908
G1 X152.276 Y138.280 E0.7111
G1 X152.206 Y138.438 E0.7186
G1 X151.970 Y138.844 E0.7389
G1 X151.868 Y138.982 E0.7463
G1 X151.585 Y139.295 E0.7646
G1 X151.524 Y139.355 E0.7683
G1 X133.430 Y155.501 E1.8179
G1 X133.311 Y155.589 E1.8243
G1 X132.685 Y155.970 E1.8560
G1 X132.396 Y156.078 E1.8693
G1 X131.549 Y156.223 E1.9065
G1 X131.228 Y156.214 E1.9204
G1 X130.383 Y156.022 E1.9580
G1 X130.094 Y155.894 E1.9716
G1 X129.469 Y155.456 E2.0047
G1 X129.351 Y155.356 E2.0113
G1 X101.768 Y126.923 E3.7259
G1 X101.529 Y126.335 E3.7533
G1 X101.529 Y122.506 E3.9190
G1 X101.580 Y122.223 E3.9315
G1 X108.737 Y102.797 E4.8275
G1 X108.786 Y102.688 E4.8327
G1 X109.072 Y102.166 E4.8584
G1 X109.221 Y101.971 E4.8690
G1 X109.710 Y101.498 E4.8985
G1 X109.917 Y101.352 E4.9094
G1 X110.531 Y101.050 E4.9391
G1 X110.769 Y100.974 E4.9499
G1 X111.371 Y100.883 E4.9763
G1 X111.494 Y100.873 E4.9816
G1 X142.616 Y100.873 E6.3285
G1 X142.736 Y100.882 E6.3338
G1 X143.326 Y100.970 E6.3596
G1 X143.562 Y101.043 E6.3702
G1 X144.176 Y101.340 E6.3998
G1 X144.385 Y101.485 E6.4108
G1 X144.881 Y101.959 E6.4405
G1 X145.034 Y102.157 E6.4513
G1 X145.328 Y102.693 E6.4778
G1 X145.379 Y102.806 E6.4831
G1 X152.333 Y121.897 E7.3625
G92 E0.0000
G1 E-0.8000 F1800
G1 X150.576 Y122.489 F7800
G1 X150.365 Y121.909
G1 X103.567 Y122.192
G1 X103.383 Y122.691
G1 X98.420 Y122.223
G1 E0.0700 F1800
G92 E0.0000
G1 X98.471 Y122.506 E0.0125 F1800
G1 X98.471 Y126.335 E0.1782
G1 X98.232 Y126.923 E0.2056
G1 X70.649 Y155.356 E1.9201
G1 X70.531 Y155.456 E1.9268
G1 X69.906 Y155.894 E1.9599
G1 X69.617 Y156.022 E1.9735
G1 X68.772 Y156.214 E2.0111
G1 X68.451 Y156.223 E2.0249
G1 X67.604 Y156.078 E2.0621
G1 X67.315 Y155.970 E2.0755
G1 X66.689 Y155.589 E2.1072
G1 X66.570 Y155.501 E2.1136
G1 X48.476 Y139.355 E3.1632
G1 X48.415 Y139.295 E3.1669
G1 X48.132 Y138.982 E3.1851
G1 X48.030 Y138.844 E3.1926
G1 X47.794 Y138.438 E3.2129
G1 X47.724 Y138.280 E3.2204
G1 X47.579 Y137.834 E3.2407
G1 X47.544 Y137.667 E3.2480
G1 X47.501 Y137.252 E3.2661
G1 X47.496 Y137.168 E3.2698
G1 X47.496 Y122.829 E3.8903
G1 X47.509 Y122.687 E3.8965
G1 X47.618 Y122.068 E3.9237
G1 X47.655 Y121.931 E3.9299
G1 X54.621 Y102.806 E4.8108
G1 X54.672 Y102.693 E4.8161
G1 X54.966 Y102.157 E4.8426
G1 X55.119 Y101.959 E4.8534
G1 X55.615 Y101.485 E4.8832
G1 X55.824 Y101.340 E4.8941
G1 X56.438 Y101.043 E4.9237
G1 X56.674 Y100.970 E4.9344
G1 X57.264 Y100.882 E4.9602
G1 X57.384 Y100.873 E4.9654
G1 X88.506 Y100.873 E6.3123
G1 X88.629 Y100.883 E6.3177
G1 X89.231 Y100.974 E6.3440
G1 X89.469 Y101.050 E6.3549
G1 X90.083 Y101.352 E6.3845
G1 X90.290 Y101.498 E6.3954
G1 X90.779 Y101.971 E6.4249
G1 X90.928 Y102.166 E6.4355
G1 X91.214 Y102.688 E6.4613
G1 X91.263 Y102.797 E6.4665
G1 X98.420 Y122.223 E7.3624
G92 E0.0000
G1 E-0.8000 F1800
; feature inner perimeter
G1 X69.387 Y96.902 F7800
G1 X96.190 Y69.274
G1 X96.164 Y68.649
G1 E0.0700 F1800
G92 E0.0000
G1 X83.193 Y82.019 E0.8062 F1530
G1 X83.009 Y81.913 E0.8154
G1 X83.114 Y81.545 E0.8319
G1 X82.316 Y79.803 E0.9149
G1 X81.034 Y79.089 E0.9784
G1 X67.637 Y75.972 E1.5737
G1 X54.256 Y79.090 E2.1683
G1 X53.605 Y79.320 E2.1982
G1 X52.073 Y81.759 E2.3229
G1 X52.521 Y82.465 E2.3591
G1 X52.340 Y82.619 E2.3693
G1 X50.071 Y80.594 E2.5009
G1 X49.946 Y80.456 E2.5090
G1 X49.870 Y80.324 E2.5156
G1 X49.823 Y80.180 E2.5222
G1 X49.804 Y79.998 E2.5301
G1 X49.804 Y65.867 E3.1417
G1 X49.867 Y65.505 E3.1576
G1 X56.750 Y46.610 E4.0279
G1 X56.878 Y46.376 E4.0395
G1 X57.039 Y46.223 E4.0491
G1 X57.239 Y46.126 E4.0587
G1 X57.494 Y46.088 E4.0699
G1 X88.392 Y46.088 E5.4071
G1 X88.655 Y46.128 E5.4186
G1 X88.854 Y46.226 E5.4282
G1 X89.013 Y46.380 E5.4378
G1 X89.137 Y46.606 E5.4490
G1 X96.164 Y65.679 E6.3287
G1 X96.164 Y68.449 E6.4486
G1 X96.164 Y68.649 F1530
G92 E0.0000
G1 E-0.8000 F1800
G1 X82.224 Y83.019 F7800
G1 X82.193 Y83.126
G1 X81.987 Y83.262
G1 X80.555 Y84.738
G1 E0.0700 F1800
G92 E0.0000
G1 X69.092 Y96.555 E0.7126 F1530
G1 X68.821 Y96.744 E0.7268
G1 X68.548 Y96.806 E0.7390
G1 X68.273 Y96.759 E0.7511
G1 X68.005 Y96.596 E0.7646
G1 X54.729 Y84.750 E1.5347
G1 X54.826 Y84.563 E1.5439
G1 X67.637 Y87.543 E2.1131
G1 X80.455 Y84.561 E2.6827
G1 X80.555 Y84.738 F1530
G92 E0.0000
G1 E-0.8000 F1800
; feature outer perimeter
G1 X82.164 Y83.145 F7800
G1 X82.193 Y83.126
G1 X82.197 Y83.113
G1 X96.617 Y68.833
G1 E0.0700 F1800
G92 E0.0000
G1 X69.387 Y96.902 E1.6925 F1260
G1 X69.009 Y97.167 E1.7125
G1 X68.561 Y97.269 E1.7324
G1 X68.111 Y97.192 E1.7522
G1 X67.733 Y96.962 E1.7713
G1 X49.751 Y80.916 E2.8144
G1 X49.578 Y80.725 E2.8255
G1 X49.453 Y80.510 E2.8363
G1 X49.376 Y80.274 E2.8470
G1 X49.350 Y80.021 E2.8581
G1 X49.350 Y65.827 E3.4724
G1 X49.428 Y65.387 E3.4917
G1 X56.336 Y46.422 E4.3653
G1 X56.514 Y46.097 E4.3813
G1 X56.777 Y45.846 E4.3971
G1 X57.104 Y45.688 E4.4128
G1 X57.461 Y45.634 E4.4284
G1 X88.427 Y45.634 E5.7686
G1 X88.793 Y45.690 E5.7846
G1 X89.118 Y45.851 E5.8003
G1 X89.378 Y46.102 E5.8160
G1 X89.551 Y46.418 E5.8316
G1 X96.617 Y65.598 E6.7162
G1 X96.617 Y68.633 E6.8476
G1 X96.617 Y68.833 F1260
G92 E0.0000
G1 E-0.8000 F1800
G1 X95.225 Y70.269 F1260
G1 X82.632 Y81.582 F7800
G1 E0.0700 F1800
G92 E0.0000
G1 X81.966 Y80.127 E0.0693 F1260
G1 X80.869 Y79.516 E0.1236
G1 X67.637 Y76.438 E0.7116
G1 X54.383 Y79.526 E1.3006
G1 X53.905 Y79.695 E1.3225
G1 X52.610 Y81.758 E1.4279
G1 X53.921 Y83.828 E1.5340
G1 X54.425 Y84.003 E1.5571
G1 X67.637 Y87.077 E2.1442
G1 X80.878 Y83.997 E2.7326
G1 X82.193 Y83.126 E2.8008
G1 X82.577 Y81.774 E2.8616
G1 X82.632 Y81.582 F1260
G92 E0.0000
G1 E-0.8000 F1800
G1 X81.966 Y80.127 F1260
G1 X81.617 Y79.933
; feature gap fill
; tool H0.225 W0.420
G1 X80.869 Y79.516 F7800
G1 X67.637 Y76.438
G1 X54.383 Y79.526
G1 X53.905 Y79.695
G1 X52.610 Y81.758
G1 X53.714 Y83.501
G1 X53.266 Y83.558
G1 E0.0700 F1800
G92 E0.0000
G1 X52.739 Y83.031 E0.0299 F1800
G1 X52.597 Y82.890 F1800
G92 E0.0000
G1 E-0.8000 F1800
; feature solid layer
; tool H0.225 W0.454
G1 X53.040 Y82.437 F7800
G1 X52.610 Y81.758
G1 X53.905 Y79.695
G1 X54.383 Y79.526
G1 X56.325 Y79.074
G1 X88.170 Y46.474
G1 E0.0700 F1800
G92 E0.0000
G1 X88.972 Y47.276 E0.0491 F1440
G1 X89.347 Y48.291 E0.0960
G1 X87.529 Y46.474 E0.2072
G1 X86.887 Y46.474 E0.2350
G1 X89.721 Y49.307 E0.4084
G1 X90.095 Y50.323 E0.4553
G1 X86.246 Y46.474 E0.6909
G1 X85.604 Y46.474 E0.7186
G1 X90.469 Y51.339 E1.0164
G1 X90.843 Y52.354 E1.0633
G1 X84.963 Y46.474 E1.4232
G1 X84.321 Y46.474 E1.4510
G1 X91.218 Y53.370 E1.8731
G1 X91.592 Y54.386 E1.9199
G1 X83.680 Y46.474 E2.4042
G1 X83.038 Y46.474 E2.4320
G1 X91.966 Y55.401 E2.9784
G1 X92.340 Y56.417 E3.0253
G1 X82.397 Y46.474 E3.6339
G1 X81.755 Y46.474 E3.6616
G1 X92.714 Y57.433 E4.3324
G1 X93.089 Y58.448 E4.3793
G1 X81.114 Y46.474 E5.1122
G1 X80.472 Y46.474 E5.1400
G1 X93.463 Y59.464 E5.9351
G1 X93.837 Y60.480 E5.9819
G1 X79.831 Y46.474 E6.8392
G1 X79.189 Y46.474 E6.8670
G1 X94.211 Y61.495 E7.7864
G1 X94.585 Y62.511 E7.8333
G1 X78.548 Y46.474 E8.8149
G1 X77.906 Y46.474 E8.8427
G1 X94.960 Y63.527 E9.8865
G1 X95.334 Y64.542 E9.9333
G1 X77.265 Y46.474 E11.0393
