; G-Code generated by Simplify3D(R) Version 4.1.1
; Mar 6, 2019 at 8:58:17 PM
; Settings Summary
;   processName,wing2per
;   applyToModels,Il-2 wing R6,Il-2 wing L6
;   profileName,Default (modified)
;   profileVersion,2016-04-14 15:44:02
;   baseProfile,Default
;   printMaterial,
;   printQuality,
;   printExtruders,
;   extruderName,Primary Extruder
;   extruderToolheadNumber,0
;   extruderDiameter,0.4
;   extruderAutoWidth,0
;   extruderWidth,0.42
;   extrusionMultiplier,1.02
;   extruderUseRetract,1
;   extruderRetractionDistance,0.8
;   extruderExtraRestartDistance,0.12
;   extruderRetractionZLift,0
;   extruderRetractionSpeed,1800
;   extruderUseCoasting,1
;   extruderCoastingDistance,0.2
;   extruderUseWipe,1
;   extruderWipeDistance,2
;   primaryExtruder,0
;   layerHeight,0.25
;   topSolidLayers,0
;   bottomSolidLayers,0
;   perimeterOutlines,2
;   printPerimetersInsideOut,1
;   startPointOption,3
;   startPointOriginX,800
;   startPointOriginY,100
;   sequentialIslands,0
;   spiralVaseMode,0
;   firstLayerHeightPercentage,90
;   firstLayerWidthPercentage,110
;   firstLayerUnderspeed,0.5
;   useRaft,0
;   raftExtruder,0
;   raftTopLayers,3
;   raftBaseLayers,2
;   raftOffset,3
;   raftSeparationDistance,0.14
;   raftTopInfill,100
;   aboveRaftSpeedMultiplier,0.3
;   useSkirt,1
;   skirtExtruder,0
;   skirtLayers,1
;   skirtOutlines,1
;   skirtOffset,1.4
;   usePrimePillar,0
;   primePillarExtruder,999
;   primePillarWidth,12
;   primePillarLocation,7
;   primePillarSpeedMultiplier,1
;   useOozeShield,0
;   oozeShieldExtruder,999
;   oozeShieldOffset,2
;   oozeShieldOutlines,1
;   oozeShieldSidewallShape,1
;   oozeShieldSidewallAngle,30
;   oozeShieldSpeedMultiplier,1
;   infillExtruder,0
;   internalInfillPattern,Rectilinear
;   externalInfillPattern,Rectilinear
;   infillPercentage,0
;   outlineOverlapPercentage,15
;   infillExtrusionWidthPercentage,100
;   minInfillLength,5
;   infillLayerInterval,1
;   internalInfillAngles,45,-45
;   overlapInternalInfillAngles,0
;   externalInfillAngles,45,-45
;   generateSupport,0
;   supportExtruder,0
;   supportInfillPercentage,30
;   supportExtraInflation,0
;   supportBaseLayers,0
;   denseSupportExtruder,0
;   denseSupportLayers,0
;   denseSupportInfillPercentage,70
;   supportLayerInterval,1
;   supportHorizontalPartOffset,0.3
;   supportUpperSeparationLayers,1
;   supportLowerSeparationLayers,1
;   supportType,0
;   supportGridSpacing,4
;   maxOverhangAngle,45
;   supportAngles,0
;   temperatureName,Primary Extruder,Heated Bed
;   temperatureNumber,0,1
;   temperatureSetpointCount,1,1
;   temperatureSetpointLayers,1,1
;   temperatureSetpointTemperatures,230,56
;   temperatureStabilizeAtStartup,1,1
;   temperatureHeatedBed,0,1
;   fanLayers,1
;   fanSpeeds,0
;   blipFanToFullPower,1
;   adjustSpeedForCooling,1
;   minSpeedLayerTime,15
;   minCoolingSpeedSlowdown,30
;   increaseFanForCooling,0
;   minFanLayerTime,45
;   maxCoolingFanSpeed,100
;   increaseFanForBridging,0
;   bridgingFanSpeed,100
;   use5D,1
;   relativeEdistances,0
;   allowEaxisZeroing,1
;   independentExtruderAxes,0
;   includeM10123,0
;   stickySupport,1
;   applyToolheadOffsets,0
;   gcodeXoffset,0
;   gcodeYoffset,0
;   gcodeZoffset,0
;   overrideMachineDefinition,0
;   machineTypeOverride,0
;   strokeXoverride,200
;   strokeYoverride,200
;   strokeZoverride,175
;   originOffsetXoverride,0
;   originOffsetYoverride,0
;   originOffsetZoverride,0
;   homeXdirOverride,-1
;   homeYdirOverride,-1
;   homeZdirOverride,-1
;   flipXoverride,1
;   flipYoverride,-1
;   flipZoverride,1
;   toolheadOffsets,0,0|0,0|0,0|0,0|0,0|0,0
;   overrideFirmwareConfiguration,0
;   firmwareTypeOverride,RepRap (Marlin/Repetier/Sprinter)
;   GPXconfigOverride,r2
;   baudRateOverride,115200
;   overridePrinterModels,0
;   printerModelsOverride
;   startingGcode,G28,
;   layerChangeGcode,
;   retractionGcode,
;   toolChangeGcode,
;   endingGcode,M104 S0 ; turn off extruder,M140 S0 ; turn off bed,G28 X0 ; home X axis,M84 ; disable motors,M107 ; turn off fan
;   exportFileFormat,gcode
;   celebration,0
;   celebrationSong,Random Song
;   postProcessing,
;   defaultSpeed,3600
;   outlineUnderspeed,0.7
;   solidInfillUnderspeed,0.8
;   supportUnderspeed,0.8
;   rapidXYspeed,7800
;   rapidZspeed,1002
;   minBridgingArea,5
;   bridgingExtraInflation,0
;   bridgingExtrusionMultiplier,1
;   bridgingSpeedMultiplier,0.3
;   useFixedBridgingAngle,0
;   fixedBridgingAngle,0
;   applyBridgingToPerimeters,0
;   filamentDiameters,1.75|1.75|1.75|1.75|1.75|1.75
;   filamentPricesPerKg,1000|1000|1000|1000|1000|1000
;   filamentDensities,1.25|1.25|1.25|1.25|1.25|1.25
;   useMinPrintHeight,1
;   minPrintHeight,0
;   useMaxPrintHeight,1
;   maxPrintHeight,1
;   useDiaphragm,0
;   diaphragmLayerInterval,20
;   robustSlicing,1
;   mergeAllIntoSolid,0
;   onlyRetractWhenCrossingOutline,0
;   retractBetweenLayers,0
;   useRetractionMinTravel,0
;   retractionMinTravel,3
;   retractWhileWiping,0
;   onlyWipeOutlines,1
;   avoidCrossingOutline,0
;   maxMovementDetourFactor,3
;   toolChangeRetractionDistance,0
;   toolChangeExtraRestartDistance,0
;   toolChangeRetractionSpeed,360
;   externalThinWallType,0
;   internalThinWallType,2
;   thinWallAllowedOverlapPercentage,10
;   singleExtrusionMinLength,1
;   singleExtrusionMinPrintingWidthPercentage,50
;   singleExtrusionMaxPrintingWidthPercentage,200
;   singleExtrusionEndpointExtension,0.2
;   horizontalSizeCompensation,0
G90
M82
M106 S0
M140 S56
M190 S56
M104 S230 T0
M109 S230 T0
G28
; process wing2per
; layer 1, Z = 0.225
T0
G92 E0.0000
G1 E-0.8000 F1800
; feature skirt
; tool H0.225 W0.462
G1 Z0.225 F1002
G1 X170.324 Y88.719 F7800
G1 E0.1200 F1800
G92 E0.0000
G1 X169.450 Y89.714 E0.0584 F1800
G1 X156.486 Y90.736 E0.6317
G1 X150.665 Y91.238 E0.8892
G1 X139.615 Y92.265 E1.3784
G1 X128.322 Y93.401 E1.8787
G1 X100.423 Y96.368 E3.1155
G1 X100.415 Y96.369 E3.1158
G1 X89.114 Y97.465 E3.6164
G1 X89.103 Y97.466 E3.6168
G1 X83.498 Y97.934 E3.8648
G1 X83.487 Y97.935 E3.8653
G1 X77.547 Y98.355 E4.1278
G1 X77.536 Y98.356 E4.1283
G1 X71.763 Y98.683 E4.3832
G1 X71.751 Y98.683 E4.3837
G1 X66.245 Y98.917 E4.6266
G1 X66.233 Y98.918 E4.6272
G1 X60.538 Y99.072 E4.8783
G1 X60.523 Y99.073 E4.8789
G1 X54.725 Y99.123 E5.1345
G1 X54.706 Y99.123 E5.1354
G1 X49.141 Y99.040 E5.3807
G1 X49.120 Y99.039 E5.3817
G1 X46.018 Y98.914 E5.5185
G1 X45.997 Y98.913 E5.5194
G1 X43.264 Y98.731 E5.6402
G1 X43.232 Y98.729 E5.6416
G1 X40.114 Y98.399 E5.7798
G1 X40.067 Y98.393 E5.7819
G1 X37.445 Y97.959 E5.8990
G1 X37.390 Y97.948 E5.9015
G1 X35.570 Y97.516 E5.9840
G1 X35.508 Y97.498 E5.9868
G1 X33.933 Y96.991 E6.0597
G1 X33.852 Y96.959 E6.0636
G1 X32.525 Y96.368 E6.1276
G1 X32.414 Y96.309 E6.1332
G1 X31.353 Y95.624 E6.1888
G1 X31.230 Y95.526 E6.1958
G1 X30.617 Y94.938 E6.2332
G1 X30.502 Y94.800 E6.2411
G1 X30.058 Y94.129 E6.2766
G1 X29.959 Y93.922 E6.2867
G1 X29.721 Y93.163 E6.3218
G1 X29.684 Y92.910 E6.3331
G1 X29.692 Y92.108 E6.3684
G1 X29.729 Y91.871 E6.3790
G1 X29.975 Y91.084 E6.4153
G1 X30.055 Y90.907 E6.4239
G1 X30.505 Y90.158 E6.4624
G1 X30.591 Y90.041 E6.4688
G1 X31.224 Y89.319 E6.5111
G1 X31.301 Y89.243 E6.5159
G1 X32.113 Y88.532 E6.5635
G1 X32.176 Y88.482 E6.5670
G1 X33.156 Y87.782 E6.6201
G1 X33.207 Y87.748 E6.6228
G1 X34.373 Y87.041 E6.6829
G1 X34.415 Y87.017 E6.6851
G1 X35.774 Y86.300 E6.7528
G1 X35.809 Y86.283 E6.7545
G1 X37.374 Y85.551 E6.8307
G1 X37.413 Y85.533 E6.8326
G1 X39.792 Y84.571 E6.9457
G1 X39.833 Y84.556 E6.9476
G1 X41.267 Y84.064 E7.0144
G1 X41.297 Y84.055 E7.0158
G1 X42.931 Y83.564 E7.0910
G1 X42.964 Y83.555 E7.0925
G1 X45.467 Y82.917 E7.2064
G1 X45.500 Y82.909 E7.2079
G1 X48.449 Y82.286 E7.3407
G1 X48.475 Y82.281 E7.3419
G1 X51.180 Y81.802 E7.4630
G1 X51.201 Y81.798 E7.4640
G1 X54.216 Y81.347 E7.5984
G1 X54.243 Y81.344 E7.5995
G1 X59.999 Y80.674 E7.8550
G1 X60.026 Y80.671 E7.8562
G1 X65.804 Y80.199 E8.1117
G1 X65.826 Y80.198 E8.1127
G1 X71.610 Y79.887 E8.3680
G1 X71.629 Y79.886 E8.3689
G1 X77.412 Y79.710 E8.6239
G1 X77.428 Y79.709 E8.6247
G1 X83.210 Y79.648 E8.8795
G1 X83.224 Y79.648 E8.8802
G1 X89.057 Y79.691 E9.1373
G1 X89.069 Y79.691 E9.1378
G1 X94.485 Y79.810 E9.3766
G1 X94.496 Y79.811 E9.3771
G1 X100.423 Y80.024 E9.6386
G1 X100.434 Y80.025 E9.6390
G1 X106.333 Y80.316 E9.8994
G1 X106.342 Y80.317 E9.8998
G1 X111.884 Y80.653 E10.1445
G1 X111.892 Y80.653 E10.1449
G1 X117.559 Y81.058 E10.3954
G1 X117.568 Y81.059 E10.3957
G1 X123.463 Y81.539 E10.6565
G1 X123.473 Y81.540 E10.6569
G1 X134.630 Y82.588 E11.1509
G1 X134.638 Y82.589 E11.1512
G1 X169.409 Y86.192 E12.6922
G1 X170.239 Y87.066 E12.7454
G1 X170.324 Y88.719 E12.8183
G92 E0.0000
G1 E-0.8000 F1800
G1 X170.324 Y111.281 F7800
G1 E0.1200 F1800
G92 E0.0000
G1 X170.239 Y112.933 E0.0729 F1800
G1 X169.410 Y113.808 E0.1261
G1 X146.056 Y116.242 E1.1611
G1 X134.633 Y117.412 E1.6673
G1 X128.760 Y117.982 E1.9274
G1 X128.754 Y117.982 E1.9276
G1 X123.469 Y118.460 E2.1616
G1 X123.462 Y118.461 E2.1619
G1 X117.568 Y118.941 E2.4226
G1 X117.559 Y118.942 E2.4230
G1 X111.892 Y119.347 E2.6734
G1 X111.884 Y119.347 E2.6738
G1 X106.342 Y119.683 E2.9185
G1 X106.333 Y119.684 E2.9189
G1 X100.434 Y119.975 E3.1793
G1 X100.423 Y119.976 E3.1797
G1 X94.496 Y120.189 E3.4412
G1 X94.485 Y120.190 E3.4417
G1 X89.069 Y120.309 E3.6805
G1 X89.057 Y120.309 E3.6810
G1 X83.224 Y120.352 E3.9382
G1 X83.210 Y120.352 E3.9388
G1 X77.428 Y120.291 E4.1936
G1 X77.412 Y120.290 E4.1944
G1 X71.629 Y120.114 E4.4494
G1 X71.610 Y120.113 E4.4503
G1 X65.826 Y119.802 E4.7056
G1 X65.804 Y119.801 E4.7066
G1 X60.026 Y119.329 E4.9621
G1 X59.999 Y119.326 E4.9633
G1 X54.243 Y118.656 E5.2188
G1 X54.216 Y118.653 E5.2199
G1 X51.201 Y118.202 E5.3543
G1 X51.180 Y118.198 E5.3553
G1 X48.475 Y117.719 E5.4764
G1 X48.449 Y117.714 E5.4776
G1 X45.500 Y117.091 E5.6104
G1 X45.467 Y117.083 E5.6119
G1 X42.964 Y116.445 E5.7258
G1 X42.931 Y116.436 E5.7273
G1 X41.297 Y115.945 E5.8025
G1 X41.267 Y115.936 E5.8039
G1 X39.833 Y115.444 E5.8707
G1 X39.792 Y115.429 E5.8726
G1 X37.413 Y114.467 E5.9857
G1 X37.374 Y114.449 E5.9876
G1 X35.809 Y113.717 E6.0638
G1 X35.774 Y113.700 E6.0655
G1 X34.415 Y112.983 E6.1332
G1 X34.373 Y112.959 E6.1354
G1 X33.207 Y112.252 E6.1955
G1 X33.156 Y112.218 E6.1982
G1 X32.176 Y111.518 E6.2513
G1 X32.113 Y111.468 E6.2548
G1 X31.301 Y110.757 E6.3024
G1 X31.224 Y110.681 E6.3072
G1 X30.591 Y109.959 E6.3495
G1 X30.505 Y109.842 E6.3559
G1 X30.055 Y109.093 E6.3944
G1 X29.975 Y108.916 E6.4030
G1 X29.729 Y108.129 E6.4393
G1 X29.692 Y107.892 E6.4499
G1 X29.684 Y107.090 E6.4852
G1 X29.721 Y106.837 E6.4965
G1 X29.959 Y106.078 E6.5316
G1 X30.058 Y105.871 E6.5417
G1 X30.502 Y105.200 E6.5772
G1 X30.617 Y105.062 E6.5851
G1 X31.230 Y104.474 E6.6225
G1 X31.353 Y104.376 E6.6295
G1 X32.414 Y103.691 E6.6851
G1 X32.525 Y103.632 E6.6907
G1 X33.852 Y103.041 E6.7547
G1 X33.933 Y103.009 E6.7586
G1 X35.508 Y102.502 E6.8315
G1 X35.570 Y102.484 E6.8343
G1 X37.390 Y102.052 E6.9168
G1 X37.445 Y102.041 E6.9193
G1 X40.067 Y101.607 E7.0364
G1 X40.114 Y101.601 E7.0385
G1 X43.232 Y101.271 E7.1767
G1 X43.264 Y101.269 E7.1781
G1 X45.997 Y101.087 E7.2989
G1 X46.018 Y101.086 E7.2998
G1 X49.120 Y100.961 E7.4367
G1 X49.141 Y100.960 E7.4376
G1 X54.706 Y100.877 E7.6829
G1 X54.725 Y100.877 E7.6838
G1 X60.523 Y100.927 E7.9394
G1 X60.538 Y100.928 E7.9400
G1 X66.233 Y101.082 E8.1912
G1 X66.245 Y101.083 E8.1917
G1 X71.751 Y101.317 E8.4346
G1 X71.763 Y101.317 E8.4351
G1 X77.536 Y101.644 E8.6900
G1 X77.547 Y101.645 E8.6905
G1 X83.487 Y102.065 E8.9531
G1 X83.498 Y102.066 E8.9535
G1 X89.103 Y102.534 E9.2015
G1 X89.114 Y102.535 E9.2020
G1 X100.415 Y103.631 E9.7025
G1 X100.423 Y103.632 E9.7028
G1 X128.322 Y106.599 E10.9396
G1 X139.615 Y107.735 E11.4399
G1 X150.665 Y108.762 E11.9291
G1 X156.486 Y109.264 E12.1867
G1 X169.450 Y110.286 E12.7599
G1 X170.324 Y111.281 E12.8183
G92 E0.0000
G1 E-0.8000 F1800
; feature inner perimeter
G1 X39.948 Y96.018 F7800
G1 E0.1200 F1800
G92 E0.0000
G1 X37.876 Y95.675 E0.0926 F1530
G1 X36.164 Y95.268 E0.1701
G1 X34.724 Y94.804 E0.2369
G1 X33.577 Y94.293 E0.2922
G1 X32.744 Y93.755 E0.3359
G1 X32.831 Y93.457 E0.3496
G1 X34.767 Y93.457 E0.4350
G1 X34.808 Y91.971 E0.5005
G1 X32.127 Y91.971 E0.6187
G1 X32.427 Y91.471 E0.6444
G1 X32.906 Y90.926 E0.6763
G1 X33.587 Y90.330 E0.7162
G1 X34.461 Y89.706 E0.7636
G1 X35.540 Y89.052 E0.8192
G1 X36.827 Y88.372 E0.8834
G1 X38.322 Y87.673 E0.9561
G1 X39.948 Y87.015 E1.0334
G1 X39.948 Y95.818 E1.4215
G1 X39.948 Y96.018 F1530
G92 E0.0000
G1 E-0.8000 F1800
G1 X61.227 Y96.729 F7800
G1 E0.1200 F1800
G92 E0.0000
G1 X60.488 Y96.749 E0.0326 F1530
G1 X54.723 Y96.799 E0.2867
G1 X49.194 Y96.717 E0.5304
G1 X46.132 Y96.593 E0.6655
G1 X43.447 Y96.414 E0.7842
G1 X41.459 Y96.204 E0.8723
G1 X41.459 Y86.455 E1.3021
G1 X41.993 Y86.272 E1.3269
G1 X43.569 Y85.799 E1.3995
G1 X46.011 Y85.177 E1.5106
G1 X48.905 Y84.565 E1.6409
G1 X51.565 Y84.094 E1.7600
G1 X54.536 Y83.649 E1.8925
G1 X60.241 Y82.985 E2.1456
G1 X61.227 Y82.905 E2.1892
G1 X61.227 Y96.529 E2.7898
G1 X61.227 Y96.729 F1530
G92 E0.0000
G1 E-0.8000 F1800
G1 X86.277 Y95.370 F7800
G1 E0.1200 F1800
G92 E0.0000
G1 X83.314 Y95.618 E0.1310 F1530
G1 X77.393 Y96.036 E0.3927
G1 X71.641 Y96.362 E0.6467
G1 X66.159 Y96.595 E0.8886
G1 X62.738 Y96.688 E1.0394
G1 X62.738 Y82.781 E1.6524
G1 X65.972 Y82.517 E1.7955
G1 X71.717 Y82.209 E2.0491
G1 X77.468 Y82.033 E2.3028
G1 X83.220 Y81.972 E2.5563
G1 X86.277 Y81.995 E2.6911
G1 X86.277 Y95.170 E3.2719
G1 X86.277 Y95.370 F1530
G92 E0.0000
G1 E-0.8000 F1800
G1 X107.556 Y93.273 F7800
G1 E0.1200 F1800
G92 E0.0000
G1 X100.183 Y94.057 E0.3268 F1530
G1 X94.448 Y94.632 E0.5809
G1 X88.900 Y95.150 E0.8265
G1 X87.788 Y95.243 E0.8757
G1 X87.788 Y82.006 E1.4593
G1 X89.029 Y82.015 E1.5140
G1 X94.423 Y82.133 E1.7518
G1 X100.329 Y82.347 E2.0123
G1 X106.211 Y82.637 E2.2719
G1 X107.556 Y82.718 E2.3313
G1 X107.556 Y93.073 E2.7877
G1 X107.556 Y93.273 F1530
G92 E0.0000
G1 E-0.8000 F1800
G1 X132.606 Y90.634 F7800
G1 E0.1200 F1800
G92 E0.0000
G1 X128.083 Y91.089 E0.2004 F1530
G1 X109.067 Y93.112 E1.0434
G1 X109.067 Y82.810 E1.4975
G1 X111.734 Y82.972 E1.6153
G1 X117.387 Y83.376 E1.8651
G1 X123.266 Y83.855 E2.1251
G1 X128.540 Y84.332 E2.3585
G1 X132.606 Y84.726 E2.5386
G1 X132.606 Y90.434 E2.7903
G1 X132.606 Y90.634 F1530
G92 E0.0000
G1 E-0.8000 F1800
G1 X135.553 Y90.040 F7800
G1 E0.1200 F1800
G92 E0.0000
G1 X135.494 Y90.344 E0.0136 F1530
G1 X134.117 Y90.482 E0.0746
G1 X134.117 Y88.701 E0.1531
G1 X134.795 Y89.526 E0.2002
G1 X135.191 Y89.850 E0.2227
G1 X135.376 Y89.947 E0.2319
G1 X135.553 Y90.040 F1530
G92 E0.0000
G1 E-0.8000 F1800
G1 X153.885 Y88.628 F7800
G1 E0.1200 F1800
G92 E0.0000
G1 X150.459 Y88.923 E0.1516 F1530
G1 X144.827 Y89.435 E0.4009
G1 X139.390 Y89.952 E0.6416
G1 X138.306 Y90.061 E0.6896
G1 X138.188 Y89.776 E0.7032
G1 X138.498 Y89.520 E0.7210
G1 X138.821 Y89.125 E0.7434
G1 X139.068 Y88.659 E0.7667
G1 X139.211 Y88.181 E0.7887
G1 X139.261 Y87.667 E0.8115
G1 X139.210 Y87.161 E0.8339
G1 X139.060 Y86.667 E0.8567
G1 X138.819 Y86.218 E0.8791
G1 X138.491 Y85.818 E0.9019
G1 X138.211 Y85.588 E0.9179
G1 X138.330 Y85.303 E0.9315
G1 X145.824 Y86.070 E1.2636
G1 X153.885 Y86.910 E1.6208
G1 X153.885 Y88.428 E1.6877
G1 X153.885 Y88.628 F1530
G92 E0.0000
G1 E-0.8000 F1800
G1 X161.023 Y88.034 F7800
G1 E0.1200 F1800
G92 E0.0000
G1 X156.294 Y88.420 E0.2092 F1530
G1 X155.396 Y88.497 E0.2489
G1 X155.396 Y87.068 E0.3119
G1 X161.027 Y87.655 E0.5615
G1 X161.025 Y87.834 E0.5694
G1 X161.023 Y88.034 F1530
G92 E0.0000
G1 E-0.8000 F1800
G1 X135.528 Y85.312 F7800
G1 E0.1200 F1800
G92 E0.0000
G1 X135.187 Y85.495 E0.0171 F1530
G1 X134.785 Y85.826 E0.0400
G1 X134.117 Y86.643 E0.0865
G1 X134.117 Y84.873 E0.1646
G1 X134.405 Y84.901 E0.1773
G1 X135.469 Y85.010 E0.2244
G1 X135.489 Y85.115 E0.2292
G1 X135.528 Y85.312 F1530
G92 E0.0000
G1 E-0.8000 F1800
; feature outer perimeter
G1 X168.232 Y87.942 F7800
G1 E0.1200 F1800
G92 E0.0000
G1 X162.022 Y88.416 E0.2745 F1260
G1 X156.332 Y88.880 E0.5262
G1 X150.499 Y89.383 E0.7843
G1 X144.870 Y89.895 E1.0335
G1 X139.435 Y90.412 E1.2741
G1 X128.131 Y91.549 E1.7749
G1 X100.231 Y94.516 E3.0118
G1 X94.492 Y95.092 E3.2660
